;FLAVOR:Marlin
;TIME:963
;Filament used: 0.898554m
;Layer height: 0.3
;MINX:145.547
;MINY:122.5
;MINZ:0.3
;MAXX:154.465
;MAXY:178.353
;MAXZ:7.8
;Generated with Cura_SteamEngine 4.8.0
M140 S60
M105
M190 S60
M104 S210
M105
M109 S210
M82 ;absolute extrusion mode
M201 X500.00 Y500.00 Z100.00 E5000.00 ;Setup machine max acceleration
M203 X500.00 Y500.00 Z10.00 E50.00 ;Setup machine max feedrate
M204 P500.00 R1000.00 T500.00 ;Setup Print/Retract/Travel acceleration
M205 X8.00 Y8.00 Z0.40 E5.00 ;Setup Jerk
M220 S100 ;Reset Feedrate
M221 S100 ;Reset Flowrate

G28 ;Home

G92 E0 ;Reset Extruder
G1 Z2.0 F3000 ;Move Z Axis up
G1 X10.1 Y20 Z0.28 F5000.0 ;Move to start position
G1 X10.1 Y200.0 Z0.28 F1500.0 E15 ;Draw the first line
G1 X10.4 Y200.0 Z0.28 F5000.0 ;Move to side a little
G1 X10.4 Y20 Z0.28 F1500.0 E30 ;Draw the second line
G92 E0 ;Reset Extruder
G1 Z2.0 F3000 ;Move Z Axis up

G92 E0
G92 E0
G1 F1500 E-6.5
;LAYER_COUNT:26
;LAYER:0
M107
M204 S500
;MESH:A4-ENCODER-BRACKET-1.0.stl
G0 F3600 X147.2 Y123.711 Z0.3
M204 S100
;TYPE:WALL-INNER
G1 F1500 E0
G1 X147.2 Y123.607 E0.00519
G1 X147.2 Y123.3 E0.0205
G1 X147.323 Y123.3 E0.02333
G1 X147.685 Y123.3 E0.04139
G1 X147.79 Y123.3 E0.04663
G1 X147.685 Y123.358 E0.04755
G1 X147.383 Y123.565 E0.05563
G1 X147.323 Y123.607
G1 X147.2 Y123.711 E0.05858
M204 S500
G0 F3600 X147.566 Y123.925
M204 S100
G1 F1500 X147.261 Y124.184 E0.07854
G1 X147.168 Y124.28 E0.08521
G1 X146.984 Y124.47 E0.0984
G1 X146.8 Y124.706 E0.11333
G1 X146.8 Y124.47 E0.11539
G1 X146.8 Y124.205 E0.12532
G1 X146.8 Y122.9 E0.19043
G1 X148.761 Y122.9 E0.28826
G1 X148.99 Y122.9 E0.29969
G1 X149.38 Y122.9 E0.31915
G1 X149.778 Y122.9 E0.339
G1 X150.177 Y122.9 E0.35891
G1 X150.574 Y122.9 E0.37871
G1 X150.963 Y122.9 E0.39812
G1 X151.24 Y122.9 E0.41194
G1 X153.2 Y122.9 E0.50973
G1 X153.2 Y124.213 E0.57523
G1 X153.2 Y124.437 E0.58641
G1 X153.2 Y124.703 E0.59968
G1 X152.985 Y124.437 E0.6063
G1 X152.828 Y124.277 E0.6151
G1 X152.705 Y124.152 E0.62385
G1 X152.397 Y123.897 E0.6438
G1 X152.065 Y123.674 E0.66375
G1 X151.715 Y123.485 E0.6836
G1 X151.345 Y123.332 E0.70357
G1 X151.228 Y123.297 E0.70966
G1 X150.963 Y123.218 E0.72207
G1 X150.574 Y123.142 E0.73603
G1 X150.177 Y123.104 E0.74717
G1 X149.778 Y123.105 E0.75738
G1 X149.38 Y123.147 E0.76872
G1 X148.99 Y123.228 E0.78312
G1 X148.772 Y123.297 E0.79352
G1 X148.608 Y123.349 E0.80211
G1 X148.242 Y123.507 E0.82199
G1 X147.896 Y123.699 E0.84174
G1 X147.566 Y123.925 E0.86169
M204 S500
G1 F1500 E-5.63831
G0 F3600 X147.12 Y124.588
G0 X147.772 Y125.514
G0 X147.46 Y128.114
G0 X146.603 Y128.807
G0 X146.8 Y129.494
M204 S100
G1 F1500 E0.86169
G1 X146.886 Y129.613 E0.86902
G1 X147.153 Y129.911 E0.88898
G1 X147.191 Y129.946 E0.89156
G1 X147.446 Y130.179 E0.90879
G1 X147.765 Y130.418 E0.92867
G1 X148.106 Y130.624 E0.94855
G1 X148.466 Y130.796 E0.96846
G1 X148.745 Y130.895 E0.98323
G1 X148.843 Y130.93 E0.98842
G1 X149.051 Y130.981 E0.9991
G1 X149.23 Y131.026 E1.00831
G1 X149.394 Y131.049 E1.01657
G1 X149.625 Y131.083 E1.02822
G1 X149.778 Y131.089 E1.03586
G1 X150.023 Y131.099 E1.04809
G1 X150.176 Y131.091 E1.05574
G1 X150.421 Y131.078 E1.06798
G1 X150.56 Y131.057 E1.07499
G1 X150.816 Y131.016 E1.08792
G1 X150.904 Y130.993 E1.09246
G1 X151.201 Y130.916 E1.10777
G1 X151.26 Y130.895 E1.11089
G1 X151.576 Y130.777 E1.12772
G1 X151.933 Y130.602 E1.14756
G1 X152.273 Y130.393 E1.16747
G1 X152.591 Y130.15 E1.18744
G1 X152.814 Y129.939 E1.20275
G1 X152.881 Y129.875 E1.20738
G1 X153.141 Y129.576 E1.22714
G1 X153.2 Y129.494 E1.23218
G1 X153.2 Y129.576 E1.23226
G1 X153.2 Y129.875 E1.23861
G1 X153.2 Y129.968 E1.24283
G1 X153.2 Y132.213 E1.35483
G1 X153.2 Y132.437 E1.36601
G1 X153.2 Y132.703 E1.37928
G1 X152.985 Y132.437 E1.3859
G1 X152.828 Y132.277 E1.3947
G1 X152.705 Y132.152 E1.40345
G1 X152.397 Y131.897 E1.4234
G1 X152.065 Y131.674 E1.44335
G1 X151.715 Y131.485 E1.46319
G1 X151.345 Y131.332 E1.48317
G1 X151.159 Y131.276 E1.49286
G1 X151.099 Y131.259 E1.49489
G1 X150.963 Y131.218 E1.49914
G1 X150.784 Y131.183 E1.50426
G1 X150.574 Y131.142 E1.50701
G1 X150.417 Y131.127 E1.50871
G1 X150.177 Y131.104 E1.50958
G1 X150.024 Y131.104 E1.5098
G1 X149.778 Y131.105 E1.51015
G1 X149.629 Y131.12 E1.51055
G1 X149.38 Y131.147 E1.51308
G1 X149.261 Y131.171 E1.51424
G1 X148.99 Y131.228 E1.52246
G1 X148.943 Y131.243 E1.52318
G1 X148.843 Y131.274 E1.52796
G1 X148.608 Y131.349 E1.54027
G1 X148.242 Y131.507 E1.56015
G1 X147.896 Y131.699 E1.5799
G1 X147.566 Y131.925 E1.59985
G1 X147.261 Y132.184 E1.61981
G1 X147.168 Y132.28 E1.62648
G1 X146.984 Y132.47 E1.63968
G1 X146.8 Y132.706 E1.65461
G1 X146.8 Y132.47 E1.65667
G1 X146.8 Y132.205 E1.6666
G1 X146.8 Y129.963 E1.77845
G1 X146.8 Y129.911 E1.77936
G1 X146.8 Y129.613 E1.7869
G1 X146.8 Y129.494 E1.7872
M204 S500
G0 F3600 X147.2 Y130.494
M204 S100
G1 F1500 X147.541 Y130.75 E1.80848
G1 X147.916 Y130.976 E1.83032
G1 X148.104 Y131.066 E1.84072
G1 X148.175 Y131.1 E1.84465
G1 X148.065 Y131.148 E1.84601
G1 X148.024 Y131.17
G1 X147.685 Y131.358 E1.86535
G1 X147.323 Y131.607 E1.88727
G1 X147.2 Y131.711 E1.89531
G1 X147.2 Y131.607 E1.89541
G1 X147.2 Y130.75 E1.93549
G1 X147.2 Y130.494 E1.93947
M204 S500
G1 F1500 E-4.56053
G0 F3600 X149.176 Y130.84
G0 X150.394 Y130.98
G0 X150.379 Y130.68
M204 S100
;TYPE:WALL-OUTER
G1 F1500 E1.93947
G1 X150.734 Y130.624 E1.9574
G1 X151.081 Y130.534 E1.97529
G1 X151.418 Y130.409 E1.99322
G1 X151.74 Y130.251 E2.01112
G1 X152.046 Y130.063 E2.02903
G1 X152.331 Y129.845 E2.04693
G1 X152.592 Y129.598 E2.06486
G1 X152.827 Y129.328 E2.08272
G1 X153.036 Y129.036 E2.10064
G1 X153.202 Y128.745 E2.11735
G1 X153.214 Y128.723 E2.1186
G1 X153.359 Y128.395 E2.13649
G1 X153.471 Y128.054 E2.1544
G1 X153.549 Y127.705 E2.17224
G1 X153.592 Y127.348 E2.19018
G1 X153.598 Y126.99 E2.20804
G1 X153.57 Y126.632 E2.22596
G1 X153.505 Y126.278 E2.24391
G1 X153.404 Y125.934 E2.2618
G1 X153.273 Y125.601 E2.27965
G1 X153.205 Y125.469 E2.28706
G1 X153.107 Y125.282 E2.29759
G1 X152.91 Y124.981 E2.31554
G1 X152.686 Y124.703 E2.33335
G1 X152.434 Y124.447 E2.35127
G1 X152.157 Y124.218 E2.36921
G1 X151.858 Y124.017 E2.38718
G1 X151.543 Y123.847 E2.40504
G1 X151.211 Y123.709 E2.42298
G1 X150.867 Y123.607 E2.44088
G1 X150.516 Y123.538 E2.45872
G1 X150.159 Y123.504 E2.47661
G1 X149.8 Y123.505 E2.49452
G1 X149.442 Y123.543 E2.51249
G1 X149.091 Y123.616 E2.53037
G1 X148.748 Y123.724 E2.54831
G1 X148.419 Y123.866 E2.56619
G1 X148.106 Y124.04 E2.58406
G1 X147.809 Y124.243 E2.602
G1 X147.535 Y124.476 E2.61995
G1 X147.286 Y124.733 E2.6378
G1 X147.065 Y125.016 E2.65572
G1 X146.872 Y125.319 E2.67364
G1 X146.795 Y125.471 E2.68214
G1 X146.71 Y125.639 E2.69153
G1 X146.581 Y125.973 E2.7094
G1 X146.484 Y126.32 E2.72737
G1 X146.425 Y126.674 E2.74528
G1 X146.401 Y127.025 E2.76283
G1 X146.401 Y127.108 E2.76697
G1 X146.411 Y127.392 E2.78115
G1 X146.458 Y127.746 E2.79896
G1 X146.541 Y128.095 E2.81686
G1 X146.656 Y128.435 E2.83477
G1 X146.793 Y128.73 E2.85099
G1 X146.808 Y128.762 E2.85276
G1 X146.987 Y129.069 E2.87049
G1 X147.198 Y129.362 E2.8885
G1 X147.438 Y129.629 E2.90641
G1 X147.702 Y129.871 E2.92428
G1 X147.989 Y130.086 E2.94217
G1 X148.296 Y130.271 E2.96005
G1 X148.62 Y130.426 E2.97797
G1 X148.959 Y130.547 E2.99593
G1 X149.307 Y130.633 E3.01381
G1 X149.662 Y130.684 E3.03171
G1 X150.021 Y130.699 E3.04963
G1 X150.379 Y130.68 E3.06752
M204 S500
G0 F3600 X150.424 Y131.117
G1 F1500 E-3.43248
G0 F3600 X151.284 Y131.502
G0 X150.923 Y132.525
G0 X151.078 Y137.614
G0 X151.504 Y138.611
G0 X150.463 Y139.476
M204 S100
;TYPE:WALL-INNER
G1 F1500 E3.06752
G1 X150.897 Y139.408 E3.08943
G1 X151.321 Y139.298 E3.11129
G1 X151.734 Y139.145 E3.13326
G1 X152.126 Y138.953 E3.15504
G1 X152.426 Y138.769 E3.1726
G1 X152.5 Y138.723 E3.17694
G1 X152.8 Y138.494 E3.19577
G1 X152.8 Y138.723 E3.19868
G1 X152.8 Y138.811 E3.2026
G1 X152.8 Y151.4 E3.83067
G1 X147.2 Y151.4 E4.11005
G1 X147.2 Y138.801 E4.73862
G1 X147.2 Y138.75 E4.74116
G1 X147.2 Y138.494 E4.75393
G1 X147.541 Y138.75 E4.76641
G1 X147.584 Y138.776 E4.76876
G1 X147.916 Y138.976 E4.7881
G1 X148.312 Y139.166 E4.81001
G1 X148.728 Y139.313 E4.83202
G1 X148.746 Y139.317 E4.83294
G1 X149.153 Y139.419 E4.85388
G1 X149.588 Y139.482 E4.8758
G1 X150.026 Y139.499 E4.89767
G1 X150.463 Y139.476 E4.9195
M204 S500
G0 F3600 X150.421 Y139.078
M204 S100
G1 F1500 X150.816 Y139.016 E4.93945
G1 X151.201 Y138.916 E4.9593
G1 X151.576 Y138.777 E4.97925
G1 X151.933 Y138.602 E4.99909
G1 X152.273 Y138.393 E5.019
G1 X152.591 Y138.15 E5.03896
G1 X152.814 Y137.939 E5.05428
G1 X152.881 Y137.875 E5.0589
G1 X153.141 Y137.576 E5.07867
G1 X153.2 Y137.494 E5.08371
G1 X153.2 Y137.576 E5.08378
G1 X153.2 Y137.875 E5.09014
G1 X153.2 Y137.968 E5.09435
G1 X153.2 Y177.1 E7.04666
G1 X146.8 Y177.1 E7.36595
G1 X146.8 Y137.963 E9.31851
G1 X146.8 Y137.911 E9.3211
G1 X146.8 Y137.613 E9.33597
G1 X146.8 Y137.494 E9.34191
G1 X146.886 Y137.613 E9.34357
G1 X147.153 Y137.911 E9.3562
G1 X147.191 Y137.946 E9.35864
G1 X147.446 Y138.179 E9.37587
G1 X147.765 Y138.418 E9.39576
G1 X148.106 Y138.624 E9.41564
G1 X148.466 Y138.796 E9.43554
G1 X148.843 Y138.93 E9.4555
G1 X149.23 Y139.026 E9.47539
G1 X149.625 Y139.083 E9.49531
G1 X150.023 Y139.099 E9.51518
G1 X150.421 Y139.078 E9.53506
M204 S500
G0 F3600 X150.379 Y138.68
M204 S100
;TYPE:WALL-OUTER
G1 F1500 X150.734 Y138.624 E9.55299
G1 X151.081 Y138.534 E9.57088
G1 X151.418 Y138.409 E9.58881
G1 X151.74 Y138.251 E9.6067
G1 X152.046 Y138.063 E9.62462
G1 X152.331 Y137.845 E9.64252
G1 X152.592 Y137.598 E9.66045
G1 X152.827 Y137.328 E9.67831
G1 X153.036 Y137.036 E9.69622
G1 X153.202 Y136.745 E9.71294
G1 X153.214 Y136.723 E9.71419
G1 X153.359 Y136.395 E9.73208
G1 X153.471 Y136.054 E9.74999
G1 X153.549 Y135.705 E9.76783
G1 X153.592 Y135.348 E9.78577
G1 X153.598 Y134.99 E9.80363
G1 X153.57 Y134.632 E9.82155
G1 X153.505 Y134.278 E9.8395
G1 X153.404 Y133.934 E9.85739
G1 X153.273 Y133.601 E9.87524
G1 X153.205 Y133.469 E9.88265
G1 X153.107 Y133.282 E9.89318
G1 X152.91 Y132.981 E9.91113
G1 X152.686 Y132.703 E9.92894
G1 X152.434 Y132.447 E9.94686
G1 X152.157 Y132.218 E9.96479
G1 X151.858 Y132.017 E9.98277
G1 X151.543 Y131.847 E10.00063
G1 X151.211 Y131.709 E10.01856
G1 X150.867 Y131.607 E10.03646
G1 X150.516 Y131.538 E10.05431
G1 X150.159 Y131.504 E10.0722
G1 X149.8 Y131.505 E10.09011
G1 X149.442 Y131.543 E10.10807
G1 X149.091 Y131.616 E10.12596
G1 X148.748 Y131.724 E10.1439
G1 X148.419 Y131.866 E10.16178
G1 X148.106 Y132.04 E10.17964
G1 X147.809 Y132.243 E10.19759
G1 X147.535 Y132.476 E10.21554
G1 X147.286 Y132.733 E10.23339
G1 X147.065 Y133.016 E10.2513
G1 X146.872 Y133.319 E10.26923
G1 X146.795 Y133.471 E10.27773
G1 X146.71 Y133.639 E10.28712
G1 X146.581 Y133.973 E10.30498
G1 X146.484 Y134.32 E10.32296
G1 X146.425 Y134.674 E10.34086
G1 X146.401 Y135.025 E10.35842
G1 X146.401 Y135.108 E10.36256
G1 X146.411 Y135.392 E10.37673
G1 X146.458 Y135.746 E10.39455
G1 X146.541 Y136.095 E10.41245
G1 X146.656 Y136.435 E10.43035
G1 X146.793 Y136.73 E10.44658
G1 X146.808 Y136.762 E10.44834
G1 X146.987 Y137.069 E10.46607
G1 X147.198 Y137.362 E10.48409
G1 X147.438 Y137.629 E10.502
G1 X147.702 Y137.871 E10.51987
G1 X147.989 Y138.086 E10.53776
G1 X148.296 Y138.271 E10.55564
G1 X148.62 Y138.426 E10.57356
G1 X148.959 Y138.547 E10.59152
G1 X149.307 Y138.633 E10.6094
G1 X149.662 Y138.684 E10.62729
G1 X150.021 Y138.699 E10.64522
G1 X150.379 Y138.68 E10.6631
M204 S500
G0 F3600 X150.424 Y139.117
G1 F1500 E4.1631
G0 F3600 X152.609 Y138.88
G0 X152.618 Y159.982
G0 X152.599 Y161.516
G0 X152.154 Y163.884
G0 X151.958 Y164.295
G0 X151.68 Y164.66
G0 X151.337 Y164.961
G0 X150.061 Y165.553
M204 S100
;TYPE:WALL-INNER
G1 F1500 E10.6631
G1 X150.546 Y165.493 E10.68749
G1 X151.011 Y165.336 E10.71197
G1 X151.432 Y165.092 E10.73625
G1 X151.798 Y164.77 E10.76057
G1 X152.095 Y164.38 E10.78503
G1 X152.306 Y163.939 E10.80942
G1 X152.428 Y163.466 E10.83379
G1 X152.451 Y162.978 E10.85816
G1 X152.38 Y162.508 E10.88187
G1 X152.256 Y162.138 E10.90134
G1 X152.027 Y161.719 E10.92516
G1 X151.722 Y161.353 E10.94893
G1 X151.422 Y161.102 E10.96845
G1 X151.011 Y160.864 E10.99214
G1 X150.546 Y160.707 E11.01663
G1 X150.061 Y160.647 E11.04101
G1 X149.573 Y160.683 E11.06542
G1 X149.102 Y160.816 E11.08984
G1 X148.669 Y161.039 E11.11414
G1 X148.287 Y161.344 E11.13853
G1 X147.973 Y161.719 E11.16293
G1 X147.74 Y162.147 E11.18724
G1 X147.595 Y162.613 E11.21159
G1 X147.546 Y163.1 E11.23601
G1 X147.595 Y163.587 E11.26043
G1 X147.74 Y164.053 E11.28477
G1 X147.973 Y164.481 E11.30909
G1 X148.287 Y164.856 E11.33349
G1 X148.669 Y165.161 E11.35788
G1 X149.102 Y165.384 E11.38217
G1 X149.573 Y165.517 E11.40659
G1 X150.061 Y165.553 E11.431
M204 S500
G0 F3600 X150.051 Y165.151
M204 S100
;TYPE:WALL-OUTER
G1 F1500 X150.457 Y165.101 E11.45141
G1 X150.845 Y164.97 E11.47184
G1 X151.197 Y164.766 E11.49214
G1 X151.504 Y164.496 E11.51254
G1 X151.752 Y164.17 E11.53297
G1 X151.928 Y163.802 E11.55333
G1 X152.03 Y163.406 E11.57373
G1 X152.05 Y162.998 E11.59411
G1 X151.99 Y162.602 E11.61409
G1 X151.888 Y162.299 E11.63004
G1 X151.695 Y161.945 E11.65015
G1 X151.438 Y161.637 E11.67017
G1 X151.192 Y161.431 E11.68617
G1 X150.845 Y161.23 E11.70618
G1 X150.457 Y161.099 E11.72661
G1 X150.051 Y161.049 E11.74702
G1 X149.643 Y161.079 E11.76743
G1 X149.249 Y161.19 E11.78785
G1 X148.887 Y161.376 E11.80816
G1 X148.568 Y161.631 E11.82853
G1 X148.305 Y161.945 E11.84897
G1 X148.11 Y162.303 E11.86931
G1 X147.989 Y162.693 E11.88968
G1 X147.948 Y163.1 E11.91009
G1 X147.989 Y163.507 E11.93049
G1 X148.11 Y163.897 E11.95087
G1 X148.305 Y164.255 E11.9712
G1 X148.568 Y164.569 E11.99164
G1 X148.887 Y164.824 E12.01201
G1 X149.249 Y165.01 E12.03232
G1 X149.643 Y165.121 E12.05274
G1 X150.051 Y165.151 E12.07315
M204 S500
G0 F3600 X150.061 Y165.59
G0 X148.757 Y165.026
G0 X148.401 Y164.741
G0 X148.106 Y164.39
G0 X147.889 Y163.99
G0 X147.753 Y163.554
G0 X147.402 Y161.515
G0 X147.2 Y159.4
M204 S100
;TYPE:WALL-INNER
G1 F1500 X152.8 Y159.4 E12.35254
G1 X152.8 Y151.8 E12.7317
G1 X147.2 Y151.8 E13.01109
G1 X147.2 Y159.4 E13.39025
M204 S500
G0 F3600 X147.6 Y159
M204 S100
;TYPE:WALL-OUTER
G1 F1500 X152.4 Y159 E13.62972
G1 X152.4 Y152.2 E13.96898
G1 X147.6 Y152.2 E14.20845
G1 X147.6 Y159 E14.5477
M204 S500
G1 F1500 E8.0477
G0 F3600 X147.3 Y159
G0 X147.402 Y161.515
G0 X147.753 Y163.554
G0 X147.889 Y163.99
G0 X148.106 Y164.39
G0 X149.646 Y166.097
G0 X152.602 Y164.7
G0 X153.33 Y177.23
G0 X153.6 Y177.5
M204 S100
G1 F1500 E14.5477
G1 X146.4 Y177.5 E14.90691
G1 X146.4 Y136.76 E16.93944
G1 X146.4 Y136.435 E16.95281
G1 X146.4 Y136.095 E16.96111
G1 X146.4 Y135.746 E16.96537
G1 X146.4 Y135.392 E16.96687
G1 X146.4 Y135.108 E16.96708
G1 X146.4 Y135.025
G1 X146.4 Y134.674 E16.96765
G1 X146.4 Y134.32 E16.97001
G1 X146.4 Y133.973 E16.97565
G1 X146.4 Y133.639 E16.98576
G1 X146.4 Y133.451 E16.99411
G1 X146.4 Y128.76 E17.22815
G1 X146.4 Y128.435 E17.24152
G1 X146.4 Y128.095 E17.24982
G1 X146.4 Y127.746 E17.25408
G1 X146.4 Y127.392 E17.25558
G1 X146.4 Y127.108 E17.25579
G1 X146.4 Y127.025
G1 X146.4 Y126.674 E17.25636
G1 X146.4 Y126.32 E17.25872
G1 X146.4 Y125.973 E17.26436
G1 X146.4 Y125.639 E17.27447
G1 X146.4 Y125.451 E17.28282
G1 X146.4 Y122.5 E17.43005
G1 X153.6 Y122.5 E17.78926
G1 X153.6 Y125.452 E17.93653
G1 X153.6 Y125.601 E17.943
G1 X153.6 Y125.934 E17.95375
G1 X153.6 Y126.278 E17.95989
G1 X153.6 Y126.632 E17.9626
G1 X153.6 Y126.99 E17.96332
G1 X153.6 Y127.348 E17.96354
G1 X153.6 Y127.705 E17.96483
G1 X153.6 Y128.054 E17.96867
G1 X153.6 Y128.395 E17.97642
G1 X153.6 Y128.723 E17.98916
G1 X153.6 Y128.749 E17.99044
G1 X153.6 Y133.452 E18.22507
G1 X153.6 Y133.601 E18.23154
G1 X153.6 Y133.934 E18.2423
G1 X153.6 Y134.278 E18.24843
G1 X153.6 Y134.632 E18.25115
G1 X153.6 Y134.99 E18.25186
G1 X153.6 Y135.348 E18.25208
G1 X153.6 Y135.705 E18.25337
G1 X153.6 Y136.054 E18.25721
G1 X153.6 Y136.395 E18.26496
G1 X153.6 Y136.723 E18.27771
G1 X153.6 Y136.749 E18.27898
G1 X153.6 Y177.5 E20.31206
M204 S500
G0 F3600 X153.33 Y177.23
G0 X152.8 Y176.7
M204 S100
;TYPE:WALL-INNER
G1 F1500 X147.2 Y176.7 E20.59144
G1 X147.2 Y164.659 E21.19217
G1 X147.2 Y164.21 E21.21457
G1 X147.201 Y163.667 E21.24166
G1 X147.37 Y164.21 E21.24845
G1 X147.584 Y164.604 E21.2646
