;FLAVOR:Marlin
;TIME:1278
;Filament used: 0.837818m
;Layer height: 0.2
;MINX:146.6
;MINY:122.5
;MINZ:0.3
;MAXX:153.4
;MAXY:177.5
;MAXZ:7.9
;Generated with Cura_SteamEngine 4.8.0
M140 S60
M105
M190 S60
M104 S205
M105
M109 S205
M82 ;absolute extrusion mode
M201 X500.00 Y500.00 Z100.00 E5000.00 ;Setup machine max acceleration
M203 X500.00 Y500.00 Z10.00 E50.00 ;Setup machine max feedrate
M204 P500.00 R1000.00 T500.00 ;Setup Print/Retract/Travel acceleration
M205 X8.00 Y8.00 Z0.40 E5.00 ;Setup Jerk
M220 S100 ;Reset Feedrate
M221 S100 ;Reset Flowrate

G28 ;Home

G92 E0 ;Reset Extruder
G1 Z2.0 F3000 ;Move Z Axis up
G1 X10.1 Y20 Z0.28 F5000.0 ;Move to start position
G1 X10.1 Y200.0 Z0.28 F1500.0 E15 ;Draw the first line
G1 X10.4 Y200.0 Z0.28 F5000.0 ;Move to side a little
G1 X10.4 Y20 Z0.28 F1500.0 E30 ;Draw the second line
G92 E0 ;Reset Extruder
G1 Z2.0 F3000 ;Move Z Axis up

G92 E0
G92 E0
G1 F1500 E-6.5
;LAYER_COUNT:39
;LAYER:0
M107
M204 S500
;MESH:A4-ENCODER-BRACKET-1.0.stl
G0 F3600 X147.4 Y123.554 Z0.3
M204 S100
;TYPE:WALL-INNER
G1 F1500 E0
G1 X147.4 Y123.358 E0.00988
G1 X147.4 Y123.3 E0.0128
G1 X147.685 Y123.3 E0.02311
G1 X147.79 Y123.3 E0.02795
G1 X147.685 Y123.358 E0.02889
G1 X147.519 Y123.472 E0.03123
G1 X147.4 Y123.554 E0.03244
M204 S500
G0 F3600 X147.566 Y123.925
M204 S100
G1 F1500 X147.374 Y124.088 E0.04513
G1 X147.261 Y124.184 E0.0526
G1 X147 Y124.453 E0.07149
G1 X147 Y124.184 E0.07492
G1 X147 Y124.035 E0.08126
G1 X147 Y122.9 E0.13845
G1 X148.761 Y122.9 E0.22719
G1 X148.99 Y122.9 E0.23872
G1 X149.38 Y122.9 E0.25838
G1 X149.778 Y122.9 E0.27843
G1 X150.177 Y122.9 E0.29854
G1 X150.574 Y122.9 E0.31854
G1 X150.963 Y122.9 E0.33814
G1 X151.24 Y122.9 E0.3521
G1 X153 Y122.9 E0.44078
G1 X153 Y124.042 E0.49833
G1 X153 Y124.152 E0.50387
G1 X153 Y124.437 E0.51823
G1 X153 Y124.456 E0.51919
G1 X152.985 Y124.437
G1 X152.705 Y124.152 E0.52953
G1 X152.621 Y124.082 E0.53438
G1 X152.397 Y123.897 E0.54902
G1 X152.065 Y123.674 E0.56917
G1 X151.715 Y123.485 E0.58922
G1 X151.345 Y123.332 E0.60939
G1 X151.228 Y123.297 E0.61555
G1 X150.963 Y123.218 E0.62808
G1 X150.574 Y123.142 E0.64218
G1 X150.177 Y123.104 E0.65343
G1 X149.778 Y123.105 E0.66374
G1 X149.38 Y123.147 E0.67519
G1 X148.99 Y123.228 E0.68974
G1 X148.772 Y123.297 E0.70024
G1 X148.608 Y123.349 E0.70891
G1 X148.242 Y123.507 E0.729
G1 X147.896 Y123.699 E0.74894
G1 X147.566 Y123.925 E0.76909
M204 S500
G1 F1500 E-5.73091
G0 F3600 X146.827 Y124.963
G0 X146.6 Y125.924
M204 S100
;TYPE:WALL-OUTER
G1 F1500 E0.76909
G1 X146.6 Y125.639 E0.78345
G1 X146.6 Y125.319 E0.79958
G1 X146.6 Y125.1 E0.81061
G1 X146.6 Y122.5 E0.94163
G1 X153.4 Y122.5 E1.28427
G1 X153.4 Y125.103 E1.41543
G1 X153.4 Y125.282 E1.42445
G1 X153.4 Y125.601 E1.44053
G1 X153.4 Y125.924 E1.4568
G1 X153.273 Y125.601 E1.46034
G1 X153.107 Y125.282 E1.47056
G1 X153.009 Y125.132 E1.47844
G1 X152.91 Y124.981 E1.48753
G1 X152.686 Y124.703 E1.50552
G1 X152.434 Y124.447 E1.52362
G1 X152.157 Y124.218 E1.54173
G1 X151.858 Y124.017 E1.55989
G1 X151.543 Y123.847 E1.57793
G1 X151.211 Y123.709 E1.59604
G1 X150.867 Y123.607 E1.61412
G1 X150.516 Y123.538 E1.63215
G1 X150.159 Y123.504 E1.65022
G1 X149.8 Y123.505 E1.66831
G1 X149.442 Y123.543 E1.68645
G1 X149.091 Y123.616 E1.70451
G1 X148.748 Y123.724 E1.72263
G1 X148.419 Y123.866 E1.74069
G1 X148.106 Y124.04 E1.75873
G1 X147.809 Y124.243 E1.77686
G1 X147.535 Y124.476 E1.79498
G1 X147.286 Y124.733 E1.81302
G1 X147.065 Y125.016 E1.83111
G1 X146.989 Y125.135 E1.83822
G1 X146.872 Y125.319 E1.84752
G1 X146.71 Y125.639 E1.85689
G1 X146.6 Y125.924 E1.85966
M204 S500
G1 F1500 E-4.64034
G0 F3600 X146.831 Y124.919
G0 X147.625 Y125.744
G0 X147.574 Y128.36
G0 X146.803 Y129.188
G0 X147.4 Y131.554
M204 S100
;TYPE:WALL-INNER
G1 F1500 E1.85966
G1 X147.4 Y131.358 E1.86954
G1 X147.4 Y130.75 E1.90017
G1 X147.4 Y130.644 E1.90551
G1 X147.541 Y130.75 E1.90912
G1 X147.916 Y130.976 E1.93118
G1 X148.104 Y131.066 E1.94169
G1 X148.175 Y131.1 E1.94565
G1 X148.065 Y131.148 E1.94703
G1 X148.024 Y131.17
G1 X147.685 Y131.358 E1.96552
G1 X147.4 Y131.554 E1.97509
M204 S500
G0 F3600 X147.566 Y131.925
M204 S100
G1 F1500 X147.374 Y132.088 E1.98778
G1 X147.261 Y132.184 E1.99525
G1 X147 Y132.453 E2.01414
G1 X147 Y132.184 E2.01757
G1 X147 Y132.035 E2.02391
G1 X147 Y130.19 E2.11688
G1 X147 Y129.911 E2.13094
G1 X147 Y129.74 E2.13955
G1 X147.153 Y129.911 E2.14348
G1 X147.358 Y130.099 E2.15354
G1 X147.446 Y130.179 E2.15953
G1 X147.765 Y130.418 E2.17961
G1 X148.106 Y130.624 E2.19969
G1 X148.466 Y130.796 E2.21979
G1 X148.745 Y130.895 E2.23471
G1 X148.843 Y130.93 E2.23995
G1 X149.051 Y130.981 E2.25075
G1 X149.23 Y131.026 E2.26005
G1 X149.394 Y131.049 E2.26839
G1 X149.625 Y131.083 E2.28016
G1 X149.778 Y131.089 E2.28787
G1 X150.023 Y131.099 E2.30023
G1 X150.176 Y131.091 E2.30795
G1 X150.421 Y131.078 E2.32031
G1 X150.56 Y131.057 E2.32739
G1 X150.816 Y131.016 E2.34046
G1 X150.904 Y130.993 E2.34504
G1 X151.201 Y130.916 E2.3605
G1 X151.26 Y130.895 E2.36366
G1 X151.576 Y130.777 E2.38065
G1 X151.933 Y130.602 E2.40069
G1 X152.273 Y130.393 E2.4208
G1 X152.591 Y130.15 E2.44096
G1 X152.645 Y130.098 E2.44474
G1 X152.881 Y129.875 E2.4611
G1 X153 Y129.738 E2.47025
G1 X153 Y129.875 E2.47076
G1 X153 Y130.2 E2.48187
G1 X153 Y132.042 E2.57469
G1 X153 Y132.152 E2.58023
G1 X153 Y132.437 E2.59459
G1 X153 Y132.456 E2.59555
G1 X152.985 Y132.437
G1 X152.705 Y132.152 E2.60588
G1 X152.621 Y132.082 E2.61074
G1 X152.397 Y131.897 E2.62538
G1 X152.065 Y131.674 E2.64553
G1 X151.715 Y131.485 E2.66557
G1 X151.345 Y131.332 E2.68575
G1 X151.159 Y131.276 E2.69554
G1 X151.099 Y131.259 E2.69759
G1 X150.963 Y131.218 E2.70188
G1 X150.784 Y131.183 E2.70706
G1 X150.574 Y131.142 E2.70983
G1 X150.417 Y131.127 E2.71155
G1 X150.177 Y131.104 E2.71242
G1 X150.024 Y131.104 E2.71265
G1 X149.778 Y131.105 E2.713
G1 X149.629 Y131.12 E2.71341
G1 X149.38 Y131.147 E2.71596
G1 X149.261 Y131.171 E2.71713
G1 X148.99 Y131.228 E2.72544
G1 X148.943 Y131.243 E2.72616
G1 X148.843 Y131.274 E2.73099
G1 X148.608 Y131.349 E2.74342
G1 X148.242 Y131.507 E2.76351
G1 X147.896 Y131.699 E2.78344
G1 X147.566 Y131.925 E2.8036
M204 S500
G1 F1500 E-3.6964
G0 F3600 X146.827 Y132.963
G0 X146.6 Y133.924
M204 S100
;TYPE:WALL-OUTER
G1 F1500 E2.8036
G1 X146.6 Y133.639 E2.81796
G1 X146.6 Y133.319 E2.83408
G1 X146.6 Y133.1 E2.84512
G1 X146.6 Y129.089 E3.04723
G1 X146.6 Y129.069 E3.04824
G1 X146.6 Y128.762 E3.06371
G1 X146.6 Y128.435 E3.08018
G1 X146.6 Y128.269 E3.08855
G1 X146.656 Y128.435 E3.0895
G1 X146.808 Y128.762 E3.09632
G1 X146.987 Y129.069 E3.1101
G1 X146.998 Y129.085 E3.11106
G1 X147.198 Y129.362 E3.12828
G1 X147.438 Y129.629 E3.14637
G1 X147.702 Y129.871 E3.16441
G1 X147.989 Y130.086 E3.18248
G1 X148.296 Y130.271 E3.20054
G1 X148.62 Y130.426 E3.21864
G1 X148.959 Y130.547 E3.23678
G1 X149.307 Y130.633 E3.25484
G1 X149.662 Y130.684 E3.27291
G1 X150.021 Y130.699 E3.29102
G1 X150.379 Y130.68 E3.30908
G1 X150.734 Y130.624 E3.32719
G1 X151.081 Y130.534 E3.34526
G1 X151.418 Y130.409 E3.36337
G1 X151.74 Y130.251 E3.38144
G1 X152.046 Y130.063 E3.39954
G1 X152.331 Y129.845 E3.41762
G1 X152.592 Y129.598 E3.43573
G1 X152.827 Y129.328 E3.45376
G1 X153.004 Y129.081 E3.46907
G1 X153.036 Y129.036 E3.47186
G1 X153.214 Y128.723 E3.49
G1 X153.359 Y128.395 E3.50807
G1 X153.4 Y128.27 E3.5147
G1 X153.4 Y128.395 E3.51495
G1 X153.4 Y128.723 E3.51937
G1 X153.4 Y129.036 E3.53002
G1 X153.4 Y129.092 E3.53273
G1 X153.4 Y133.103 E3.73484
G1 X153.4 Y133.282 E3.74386
G1 X153.4 Y133.601 E3.75993
G1 X153.4 Y133.924 E3.77621
G1 X153.273 Y133.601 E3.77975
G1 X153.107 Y133.282 E3.78997
G1 X153.009 Y133.132 E3.79784
G1 X152.91 Y132.981 E3.80694
G1 X152.686 Y132.703 E3.82493
G1 X152.434 Y132.447 E3.84303
G1 X152.157 Y132.218 E3.86114
G1 X151.858 Y132.017 E3.87929
G1 X151.543 Y131.847 E3.89733
G1 X151.211 Y131.709 E3.91544
G1 X150.867 Y131.607 E3.93352
G1 X150.516 Y131.538 E3.95155
G1 X150.159 Y131.504 E3.96962
G1 X149.8 Y131.505 E3.98771
G1 X149.442 Y131.543 E4.00585
G1 X149.091 Y131.616 E4.02392
G1 X148.748 Y131.724 E4.04204
G1 X148.419 Y131.866 E4.06009
G1 X148.106 Y132.04 E4.07814
G1 X147.809 Y132.243 E4.09626
G1 X147.535 Y132.476 E4.11439
G1 X147.286 Y132.733 E4.13242
G1 X147.065 Y133.016 E4.15051
G1 X146.989 Y133.135 E4.15763
G1 X146.872 Y133.319 E4.16692
G1 X146.71 Y133.639 E4.17629
G1 X146.6 Y133.924 E4.17906
M204 S500
G1 F1500 E-2.32094
G0 F3600 X146.831 Y132.919
G0 X147.625 Y133.744
G0 X147.574 Y136.36
G0 X146.803 Y137.188
G0 X147.2 Y159.4
M204 S100
;TYPE:WALL-INNER
G1 F1500 E4.17906
G1 X152.8 Y159.4 E4.46124
G1 X152.8 Y151.8 E4.8442
G1 X147.2 Y151.8 E5.12638
G1 X147.2 Y159.4 E5.50933
M204 S500
G0 F3600 X147.6 Y159
M204 S100
;TYPE:WALL-OUTER
G1 F1500 X152.4 Y159 E5.7512
G1 X152.4 Y152.2 E6.09385
G1 X147.6 Y152.2 E6.33572
G1 X147.6 Y159 E6.67836
M204 S500
G0 F3600 X147.3 Y159
G0 X147.753 Y163.554
G0 X147.889 Y163.99
G0 X148.106 Y164.39
G0 X148.401 Y164.741
G0 X148.757 Y165.026
G0 X150.061 Y165.553
M204 S100
;TYPE:WALL-INNER
G1 F1500 X150.546 Y165.493 E6.70299
G1 X151.011 Y165.336 E6.72772
G1 X151.432 Y165.092 E6.75224
G1 X151.798 Y164.77 E6.7768
G1 X152.095 Y164.38 E6.8015
G1 X152.306 Y163.939 E6.82614
G1 X152.428 Y163.466 E6.85075
G1 X152.451 Y162.978 E6.87537
G1 X152.38 Y162.508 E6.89932
G1 X152.256 Y162.138 E6.91898
G1 X152.027 Y161.719 E6.94304
G1 X151.722 Y161.353 E6.96705
G1 X151.422 Y161.102 E6.98676
G1 X151.011 Y160.864 E7.01069
G1 X150.546 Y160.707 E7.03542
G1 X150.061 Y160.647 E7.06005
G1 X149.573 Y160.683 E7.0847
G1 X149.102 Y160.816 E7.10936
G1 X148.669 Y161.039 E7.13391
G1 X148.287 Y161.344 E7.15854
G1 X147.973 Y161.719 E7.18318
G1 X147.74 Y162.147 E7.20774
G1 X147.595 Y162.613 E7.23233
G1 X147.546 Y163.1 E7.25699
G1 X147.595 Y163.587 E7.28166
G1 X147.74 Y164.053 E7.30625
G1 X147.973 Y164.481 E7.3308
G1 X148.287 Y164.856 E7.35545
G1 X148.669 Y165.161 E7.38008
G1 X149.102 Y165.384 E7.40462
G1 X149.573 Y165.517 E7.42928
G1 X150.061 Y165.553 E7.45394
M204 S500
G0 F3600 X150.051 Y165.151
M204 S100
;TYPE:WALL-OUTER
G1 F1500 X150.457 Y165.101 E7.47455
G1 X150.845 Y164.97 E7.49519
G1 X151.197 Y164.766 E7.51569
G1 X151.504 Y164.496 E7.53629
G1 X151.752 Y164.17 E7.55693
G1 X151.928 Y163.802 E7.57748
G1 X152.03 Y163.406 E7.59809
G1 X152.05 Y162.998 E7.61867
G1 X151.99 Y162.602 E7.63886
G1 X151.888 Y162.299 E7.65496
G1 X151.695 Y161.945 E7.67528
G1 X151.438 Y161.637 E7.69549
G1 X151.192 Y161.431 E7.71166
G1 X150.845 Y161.23 E7.73187
G1 X150.457 Y161.099 E7.7525
G1 X150.051 Y161.049 E7.77312
G1 X149.643 Y161.079 E7.79373
G1 X149.249 Y161.19 E7.81436
G1 X148.887 Y161.376 E7.83487
G1 X148.568 Y161.631 E7.85544
G1 X148.305 Y161.945 E7.87608
G1 X148.11 Y162.303 E7.89662
G1 X147.989 Y162.693 E7.9172
G1 X147.948 Y163.1 E7.93781
G1 X147.989 Y163.507 E7.95842
G1 X148.11 Y163.897 E7.979
G1 X148.305 Y164.255 E7.99954
G1 X148.568 Y164.569 E8.02018
G1 X148.887 Y164.824 E8.04076
G1 X149.249 Y165.01 E8.06127
G1 X149.643 Y165.121 E8.08189
G1 X150.051 Y165.151 E8.10251
M204 S500
G0 F3600 X150.061 Y165.59
G0 X151.337 Y164.961
G0 X151.68 Y164.66
G0 X151.958 Y164.295
G0 X152.154 Y163.884
G0 X152.268 Y163.441
G0 X152.628 Y159.228
G0 X152.6 Y151.4
M204 S100
;TYPE:WALL-INNER
G1 F1500 X147.4 Y151.4 E8.36453
G1 X147.4 Y138.978 E8.99046
G1 X147.4 Y138.75 E9.00195
G1 X147.4 Y138.644 E9.00729
G1 X147.541 Y138.75 E9.0109
G1 X147.736 Y138.867 E9.01913
G1 X147.916 Y138.976 E9.02973
G1 X148.312 Y139.166 E9.05187
G1 X148.728 Y139.313 E9.0741
G1 X148.746 Y139.317 E9.07503
G1 X149.153 Y139.419 E9.09617
G1 X149.588 Y139.482 E9.11832
G1 X150.026 Y139.499 E9.1404
G1 X150.463 Y139.476 E9.16245
G1 X150.897 Y139.408 E9.18459
G1 X151.321 Y139.298 E9.20666
G1 X151.734 Y139.145 E9.22886
G1 X152.126 Y138.953 E9.25085
G1 X152.273 Y138.862 E9.25956
G1 X152.5 Y138.723 E9.27297
G1 X152.6 Y138.647 E9.2793
G1 X152.6 Y138.723
G1 X152.6 Y138.99 E9.28837
G1 X152.6 Y151.4 E9.9137
M204 S500
G0 F3600 X152.6 Y161.933
M204 S100
G1 F1500 X152.359 Y161.493 E9.93898
G1 X152.22 Y161.326 E9.94992
G1 X152.006 Y161.069 E9.96678
G1 X151.652 Y160.773 E9.99003
G1 X151.177 Y160.498 E10.01768
G1 X150.635 Y160.315 E10.04651
G1 X150.071 Y160.245 E10.07515
G1 X149.503 Y160.287 E10.10385
G1 X148.955 Y160.442 E10.13254
G1 X148.451 Y160.702 E10.16112
G1 X148.006 Y161.056 E10.18977
G1 X147.78 Y161.327 E10.20755
G1 X147.641 Y161.493 E10.21846
G1 X147.4 Y161.935 E10.24383
G1 X147.4 Y161.493 E10.24999
G1 X147.4 Y161.276 E10.2589
G1 X147.4 Y159.8 E10.33327
G1 X152.6 Y159.8 E10.5953
G1 X152.6 Y161.275 E10.66962
G1 X152.6 Y161.493 E10.67856
G1 X152.6 Y161.933 E10.6847
M204 S500
G0 F3600 X152.6 Y176.7
M204 S100
G1 F1500 X147.4 Y176.7 E10.94672
G1 X147.4 Y164.924 E11.5401
G1 X147.4 Y164.707 E11.55104
G1 X147.4 Y164.265 E11.57331
G1 X147.641 Y164.707 E11.58255
G1 X147.78 Y164.873 E11.59143
G1 X148.006 Y165.144 E11.60921
G1 X148.451 Y165.498 E11.63786
G1 X148.485 Y165.515 E11.63978
G1 X148.955 Y165.758 E11.66644
G1 X149.503 Y165.913 E11.69514
G1 X150.071 Y165.955 E11.72383
G1 X150.635 Y165.885 E11.75247
G1 X151.177 Y165.702 E11.7813
G1 X151.667 Y165.418 E11.80984
G1 X152.092 Y165.044 E11.83836
G1 X152.226 Y164.868 E11.84951
G1 X152.438 Y164.59 E11.86713
G1 X152.6 Y164.252 E11.88601
G1 X152.6 Y164.59 E11.88909
G1 X152.6 Y164.94 E11.90177
G1 X152.6 Y176.7 E12.49435
M204 S500
G0 F3600 X153 Y177.1
M204 S100
G1 F1500 X147 Y177.1 E12.79668
G1 X147 Y159.4 E13.68857
G1 X147 Y151.8 E13.88053
G1 X147 Y138.19 E14.56632
G1 X147 Y137.911 E14.58038
G1 X147 Y137.74 E14.589
G1 X147.153 Y137.911 E14.59293
G1 X147.358 Y138.099 E14.60298
G1 X147.446 Y138.179 E14.60897
G1 X147.765 Y138.418 E14.62906
G1 X148.106 Y138.624 E14.64913
G1 X148.466 Y138.796 E14.66924
G1 X148.843 Y138.93 E14.6894
G1 X149.23 Y139.026 E14.70949
G1 X149.625 Y139.083 E14.7296
G1 X150.023 Y139.099 E14.74967
G1 X150.421 Y139.078 E14.76975
G1 X150.816 Y139.016 E14.7899
G1 X151.201 Y138.916 E14.80995
G1 X151.576 Y138.777 E14.8301
G1 X151.933 Y138.602 E14.85013
G1 X152.273 Y138.393 E14.87024
G1 X152.591 Y138.15 E14.89041
G1 X152.645 Y138.098 E14.89419
G1 X152.881 Y137.875 E14.91055
G1 X153 Y137.738 E14.91969
G1 X153 Y137.875 E14.92021
G1 X153 Y138.2 E14.93131
G1 X153 Y151.8 E15.61661
G1 X153 Y159.4 E15.80856
G1 X153 Y177.1 E16.70045
M204 S500
G0 F3600 X153.4 Y177.5
M204 S100
;TYPE:WALL-OUTER
G1 F1500 X146.6 Y177.5 E17.0431
G1 X146.6 Y137.089 E19.07937
G1 X146.6 Y137.069 E19.08038
G1 X146.6 Y136.762 E19.09585
G1 X146.6 Y136.435 E19.11233
G1 X146.6 Y136.269 E19.12069
G1 X146.656 Y136.435 E19.12164
G1 X146.808 Y136.762 E19.12846
G1 X146.987 Y137.069 E19.14224
G1 X146.998 Y137.085 E19.1432
G1 X147.198 Y137.362 E19.16042
G1 X147.438 Y137.629 E19.17851
G1 X147.702 Y137.871 E19.19655
G1 X147.989 Y138.086 E19.21462
G1 X148.296 Y138.271 E19.23268
G1 X148.62 Y138.426 E19.25078
G1 X148.959 Y138.547 E19.26892
G1 X149.307 Y138.633 E19.28698
G1 X149.662 Y138.684 E19.30505
G1 X150.021 Y138.699 E19.32316
G1 X150.379 Y138.68 E19.34122
G1 X150.734 Y138.624 E19.35933
G1 X151.081 Y138.534 E19.3774
G1 X151.418 Y138.409 E19.39551
G1 X151.74 Y138.251 E19.41358
G1 X152.046 Y138.063 E19.43168
G1 X152.331 Y137.845 E19.44976
G1 X152.592 Y137.598 E19.46787
G1 X152.827 Y137.328 E19.4859
G1 X153.004 Y137.081 E19.50121
G1 X153.036 Y137.036 E19.504
G1 X153.214 Y136.723 E19.52214
G1 X153.359 Y136.395 E19.54021
G1 X153.4 Y136.27 E19.54684
G1 X153.4 Y136.395 E19.54709
G1 X153.4 Y136.723 E19.55151
G1 X153.4 Y137.036 E19.56216
G1 X153.4 Y137.092 E19.56487
G1 X153.4 Y177.5 E21.60099
M204 S500
G1 F1500 E15.10099
G0 F3600 X153.1 Y177.23
G0 X152.999 Y137.464
G0 X152.309 Y136.567
G0 X152.212 Y133.492
G0 X152.85 Y132.557
G0 X152.6 Y131.551
M204 S100
;TYPE:WALL-INNER
G1 F1500 E21.60099
G1 X152.272 Y131.331 E21.62089
G1 X152.001 Y131.185 E21.6364
G1 X151.887 Y131.123 E21.64294
G1 X151.828 Y131.099 E21.64615
G1 X151.866 Y131.081
G1 X152.126 Y130.953 E21.65489
G1 X152.5 Y130.723 E21.67701
G1 X152.6 Y130.647 E21.68334
G1 X152.6 Y130.723
G1 X152.6 Y131.331 E21.71087
G1 X152.6 Y131.551 E21.71382
M204 S500
G1 F1500 E15.21382
G0 F3600 X152.999 Y129.464
G0 X152.309 Y128.567
G0 X152.212 Y125.492
G0 X152.85 Y124.557
G0 X152.6 Y123.551
M204 S100
G1 F1500 E21.71382
G1 X152.484 Y123.474 E21.72084
