;FLAVOR:Marlin
;TIME:6178
;Filament used: 4.13067m
;Layer height: 0.2
;MINX:118.385
;MINY:120.567
;MINZ:0.3
;MAXX:181.603
;MAXY:178.832
;MAXZ:23.5
;Generated with Cura_SteamEngine 4.10.0
M140 S60
M105
M190 S60
M104 S210
M105
M109 S210
M82 ;absolute extrusion mode
M201 X500.00 Y500.00 Z100.00 E5000.00 ;Setup machine max acceleration
M203 X500.00 Y500.00 Z10.00 E50.00 ;Setup machine max feedrate
M204 P500.00 R1000.00 T500.00 ;Setup Print/Retract/Travel acceleration
M205 X8.00 Y8.00 Z0.40 E5.00 ;Setup Jerk
M220 S100 ;Reset Feedrate
M221 S100 ;Reset Flowrate

G28 ;Home

G92 E0 ;Reset Extruder
G1 Z2.0 F3000 ;Move Z Axis up
G1 X10.1 Y20 Z0.28 F5000.0 ;Move to start position
G1 X10.1 Y200.0 Z0.28 F1500.0 E15 ;Draw the first line
G1 X10.4 Y200.0 Z0.28 F5000.0 ;Move to side a little
G1 X10.4 Y20 Z0.28 F1500.0 E30 ;Draw the second line
G92 E0 ;Reset Extruder
G1 Z2.0 F3000 ;Move Z Axis up

G92 E0
G92 E0
G1 F2700 E-5
;LAYER_COUNT:117
;LAYER:0
M107
M204 S500
;MESH:A4-J3-BASE-2.0.stl
G0 F6000 X128.789 Y134.246 Z0.3
;TYPE:WALL-INNER
G1 F2700 E0
G1 F1200 X129.2 Y134.246 E0.0205
G1 X129.624 Y134.183 E0.04189
G1 X130.015 Y134.059 E0.06236
G1 X130.363 Y133.891 E0.08163
G1 X130.707 Y133.661 E0.10228
G1 X131.015 Y133.375 E0.12325
G1 X131.283 Y133.04 E0.14465
G1 X131.486 Y132.686 E0.16501
G1 X131.629 Y132.309 E0.18513
G1 X131.719 Y131.927 E0.20471
G1 X131.748 Y131.433 E0.22939
G1 X131.751 Y131.397 E0.2312
G1 X131.703 Y130.986 E0.25184
G1 X131.594 Y130.576 E0.27301
G1 X131.415 Y130.179 E0.29473
G1 X131.185 Y129.827 E0.31571
G1 X130.926 Y129.532 E0.3353
G1 X130.591 Y129.254 E0.35701
G1 X130.254 Y129.052 E0.37662
G1 X129.88 Y128.892 E0.39691
G1 X129.486 Y128.791 E0.4172
G1 X129.065 Y128.749 E0.43831
G1 X128.607 Y128.775 E0.4612
G1 X128.115 Y128.894 E0.48645
G1 X127.75 Y129.049 E0.50624
G1 X127.411 Y129.252 E0.52595
G1 X127.059 Y129.546 E0.54883
G1 X126.792 Y129.858 E0.56932
G1 X126.591 Y130.173 E0.58796
G1 X126.534 Y130.285 E0.59423
G1 X126.398 Y130.603 E0.61148
G1 X126.297 Y130.98 E0.63096
G1 X126.25 Y131.366 E0.65036
G1 X126.26 Y131.75 E0.66952
G1 X126.333 Y132.181 E0.69133
G1 X126.459 Y132.563 E0.7114
G1 X126.648 Y132.931 E0.73204
G1 X126.897 Y133.276 E0.75326
G1 X127.174 Y133.559 E0.77302
G1 X127.484 Y133.798 E0.79255
G1 X127.878 Y134.014 E0.81497
G1 X128.297 Y134.163 E0.83715
G1 X128.789 Y134.246 E0.86205
G0 F6000 X128.823 Y133.846
G1 F1200 X129.17 Y133.846 E0.87936
G1 X129.533 Y133.792 E0.89767
G1 X129.867 Y133.686 E0.91515
G1 X130.164 Y133.543 E0.93159
G1 X130.458 Y133.346 E0.94925
G1 X130.721 Y133.102 E0.96715
G1 X130.951 Y132.814 E0.98554
G1 X131.123 Y132.514 E1.00279
G1 X131.246 Y132.191 E1.02003
G1 X131.322 Y131.869 E1.03654
G1 X131.35 Y131.408 E1.05958
G1 X131.309 Y131.061 E1.07701
G1 X131.216 Y130.711 E1.09508
G1 X131.063 Y130.372 E1.11364
G1 X130.866 Y130.07 E1.13163
G1 X130.646 Y129.82 E1.14824
G1 X130.359 Y129.581 E1.16687
G1 X130.072 Y129.409 E1.18357
G1 X129.751 Y129.272 E1.20098
G1 X129.416 Y129.186 E1.21823
G1 X129.056 Y129.15 E1.23628
G1 X128.666 Y129.172 E1.25577
G1 X128.241 Y129.275 E1.27759
G1 X127.932 Y129.406 E1.29433
G1 X127.644 Y129.579 E1.31109
G1 X127.341 Y129.832 E1.33079
G1 X127.114 Y130.097 E1.3482
G1 X126.939 Y130.371 E1.36442
G1 X126.897 Y130.454 E1.36906
G1 X126.777 Y130.734 E1.38426
G1 X126.691 Y131.056 E1.40088
G1 X126.651 Y131.385 E1.41742
G1 X126.659 Y131.712 E1.43374
G1 X126.722 Y132.084 E1.45256
G1 X126.829 Y132.408 E1.46958
G1 X126.99 Y132.721 E1.48714
G1 X127.204 Y133.018 E1.50541
G1 X127.44 Y133.259 E1.52224
G1 X127.704 Y133.462 E1.53885
G1 X128.042 Y133.648 E1.5581
G1 X128.398 Y133.774 E1.57694
G1 X128.823 Y133.846 E1.59844
G0 F6000 X128.857 Y133.446
;TYPE:WALL-OUTER
G1 F1200 X129.14 Y133.446 E1.61256
G1 X129.442 Y133.401 E1.6278
G1 X129.719 Y133.313 E1.6423
G1 X129.965 Y133.195 E1.65591
G1 X130.209 Y133.031 E1.67057
G1 X130.427 Y132.829 E1.6854
G1 X130.619 Y132.589 E1.70074
G1 X130.76 Y132.342 E1.71493
G1 X130.863 Y132.073 E1.7293
G1 X130.925 Y131.81 E1.74278
G1 X130.949 Y131.42 E1.76227
G1 X130.915 Y131.136 E1.77654
G1 X130.838 Y130.846 E1.79151
G1 X130.711 Y130.565 E1.80689
G1 X130.547 Y130.313 E1.8219
G1 X130.366 Y130.108 E1.83554
G1 X130.126 Y129.908 E1.85112
G1 X129.89 Y129.766 E1.86487
G1 X129.622 Y129.652 E1.8794
G1 X129.346 Y129.581 E1.89361
G1 X129.047 Y129.551 E1.90861
G1 X128.725 Y129.569 E1.9247
G1 X128.367 Y129.656 E1.94308
G1 X128.114 Y129.763 E1.95678
G1 X127.877 Y129.906 E1.97059
G1 X127.623 Y130.118 E1.9871
G1 X127.436 Y130.336 E2.00143
G1 X127.287 Y130.569 E2.01522
G1 X127.26 Y130.623 E2.01824
G1 X127.156 Y130.865 E2.03138
G1 X127.085 Y131.132 E2.04516
G1 X127.052 Y131.405 E2.05888
G1 X127.058 Y131.674 E2.0723
G1 X127.111 Y131.987 E2.08814
G1 X127.199 Y132.253 E2.10212
G1 X127.332 Y132.511 E2.1166
G1 X127.511 Y132.76 E2.1319
G1 X127.706 Y132.959 E2.1458
G1 X127.924 Y133.126 E2.1595
G1 X128.206 Y133.282 E2.17558
G1 X128.499 Y133.385 E2.19107
G1 X128.857 Y133.446 E2.20919
G0 F6000 X128.82 Y133.884
G1 F2700 E-2.79081
G0 F6000 X131.155 Y133.505
G0 X129.851 Y132.175
G0 X160.143 Y132.167
G0 X158.751 Y133.4
G0 X160.789 Y134.246
;TYPE:WALL-INNER
G1 F2700 E2.20919
G1 F1200 X161.2 Y134.246 E2.2297
G1 X161.624 Y134.183 E2.25108
G1 X162.015 Y134.059 E2.27155
G1 X162.363 Y133.891 E2.29083
G1 X162.707 Y133.661 E2.31147
G1 X163.015 Y133.375 E2.33244
G1 X163.283 Y133.04 E2.35384
G1 X163.486 Y132.686 E2.3742
G1 X163.629 Y132.309 E2.39432
G1 X163.719 Y131.927 E2.4139
G1 X163.748 Y131.433 E2.43859
G1 X163.751 Y131.397 E2.44039
G1 X163.703 Y130.986 E2.46103
G1 X163.594 Y130.576 E2.4822
G1 X163.415 Y130.179 E2.50393
G1 X163.185 Y129.827 E2.5249
G1 X162.926 Y129.532 E2.54449
G1 X162.591 Y129.254 E2.56621
G1 X162.254 Y129.052 E2.58581
G1 X161.88 Y128.892 E2.6061
G1 X161.486 Y128.791 E2.6264
G1 X161.065 Y128.749 E2.6475
G1 X160.607 Y128.775 E2.67039
G1 X160.115 Y128.894 E2.69564
G1 X159.75 Y129.049 E2.71543
G1 X159.411 Y129.252 E2.73514
G1 X159.059 Y129.546 E2.75802
G1 X158.792 Y129.858 E2.77851
G1 X158.591 Y130.173 E2.79715
G1 X158.534 Y130.285 E2.80342
G1 X158.398 Y130.603 E2.82068
G1 X158.297 Y130.98 E2.84015
G1 X158.25 Y131.366 E2.85955
G1 X158.26 Y131.75 E2.87871
G1 X158.333 Y132.181 E2.90052
G1 X158.459 Y132.563 E2.92059
G1 X158.648 Y132.931 E2.94123
G1 X158.897 Y133.276 E2.96246
G1 X159.174 Y133.559 E2.98221
G1 X159.484 Y133.798 E3.00174
G1 X159.878 Y134.014 E3.02416
G1 X160.297 Y134.163 E3.04634
G1 X160.789 Y134.246 E3.07124
G0 F6000 X160.823 Y133.846
G1 F1200 X161.17 Y133.846 E3.08855
G1 X161.533 Y133.792 E3.10686
G1 X161.867 Y133.686 E3.12434
G1 X162.164 Y133.543 E3.14079
G1 X162.458 Y133.346 E3.15844
G1 X162.721 Y133.102 E3.17634
G1 X162.951 Y132.814 E3.19473
G1 X163.123 Y132.514 E3.21198
G1 X163.246 Y132.191 E3.22923
G1 X163.322 Y131.869 E3.24573
G1 X163.35 Y131.408 E3.26877
G1 X163.309 Y131.061 E3.28621
G1 X163.216 Y130.711 E3.30427
G1 X163.063 Y130.372 E3.32283
G1 X162.866 Y130.07 E3.34082
G1 X162.646 Y129.82 E3.35743
G1 X162.359 Y129.581 E3.37607
G1 X162.072 Y129.409 E3.39276
G1 X161.751 Y129.272 E3.41017
G1 X161.416 Y129.186 E3.42743
G1 X161.056 Y129.15 E3.44548
G1 X160.666 Y129.172 E3.46496
G1 X160.241 Y129.275 E3.48678
G1 X159.932 Y129.406 E3.50353
G1 X159.644 Y129.579 E3.52029
G1 X159.341 Y129.832 E3.53998
G1 X159.114 Y130.097 E3.55739
G1 X158.939 Y130.371 E3.57361
G1 X158.897 Y130.454 E3.57825
G1 X158.777 Y130.734 E3.59345
G1 X158.691 Y131.056 E3.61008
G1 X158.651 Y131.385 E3.62661
G1 X158.659 Y131.712 E3.64293
G1 X158.722 Y132.084 E3.66175
G1 X158.829 Y132.408 E3.67878
G1 X158.99 Y132.721 E3.69634
G1 X159.204 Y133.018 E3.7146
G1 X159.44 Y133.259 E3.73143
G1 X159.704 Y133.462 E3.74804
G1 X160.042 Y133.648 E3.76729
G1 X160.398 Y133.774 E3.78613
G1 X160.823 Y133.846 E3.80764
G0 F6000 X160.857 Y133.446
;TYPE:WALL-OUTER
G1 F1200 X161.14 Y133.446 E3.82175
G1 X161.442 Y133.401 E3.83699
G1 X161.719 Y133.313 E3.85149
G1 X161.965 Y133.195 E3.8651
G1 X162.209 Y133.031 E3.87977
G1 X162.427 Y132.829 E3.89459
G1 X162.619 Y132.589 E3.90993
G1 X162.76 Y132.342 E3.92412
G1 X162.863 Y132.073 E3.93849
G1 X162.925 Y131.81 E3.95197
G1 X162.949 Y131.42 E3.97146
G1 X162.915 Y131.136 E3.98573
G1 X162.838 Y130.846 E4.0007
G1 X162.711 Y130.565 E4.01609
G1 X162.547 Y130.313 E4.03109
G1 X162.366 Y130.108 E4.04473
G1 X162.126 Y129.908 E4.06032
G1 X161.89 Y129.766 E4.07406
G1 X161.622 Y129.652 E4.08859
G1 X161.346 Y129.581 E4.10281
G1 X161.047 Y129.551 E4.1178
G1 X160.725 Y129.569 E4.13389
G1 X160.367 Y129.656 E4.15227
G1 X160.114 Y129.763 E4.16597
G1 X159.877 Y129.906 E4.17978
G1 X159.623 Y130.118 E4.19629
G1 X159.436 Y130.336 E4.21062
G1 X159.287 Y130.569 E4.22442
G1 X159.26 Y130.623 E4.22743
G1 X159.156 Y130.865 E4.24057
G1 X159.085 Y131.132 E4.25435
G1 X159.052 Y131.405 E4.26807
G1 X159.058 Y131.674 E4.2815
G1 X159.111 Y131.987 E4.29733
G1 X159.199 Y132.253 E4.31131
G1 X159.332 Y132.511 E4.32579
G1 X159.511 Y132.76 E4.34109
G1 X159.706 Y132.959 E4.35499
G1 X159.924 Y133.126 E4.36869
G1 X160.206 Y133.282 E4.38477
G1 X160.499 Y133.385 E4.40027
G1 X160.857 Y133.446 E4.41838
G0 F6000 X160.82 Y133.884
G1 F2700 E-0.58162
G0 F6000 X161.667 Y134.369
G0 X161.33 Y132.535
G0 X171.614 Y134.368
G0 X169.74 Y134.369
G0 X170.513 Y154.043
G0 X173.46 Y154.118
G0 X174.255 Y158.335
G0 X173.752 Y158.773
G0 X173.331 Y159.366
G0 X173.017 Y160.235
G0 X172.975 Y161.099
G0 X173.204 Y162.015
G0 X173.657 Y162.754
G0 X174.26 Y163.283
G0 X175.314 Y163.946
;TYPE:WALL-INNER
G1 F2700 E4.41838
G1 F1200 X175.761 Y164.011 E4.44092
G1 X176.082 Y164.018 E4.45694
G1 X176.431 Y163.991 E4.4744
G1 X176.735 Y163.935 E4.48982
G1 X177.031 Y163.849 E4.5052
G1 X177.312 Y163.739 E4.52026
G1 X177.621 Y163.58 E4.53759
G1 X177.885 Y163.408 E4.55331
G1 X178.23 Y163.115 E4.5759
G1 X178.455 Y162.872 E4.59242
G1 X178.652 Y162.613 E4.60865
G1 X178.809 Y162.35 E4.62393
G1 X178.945 Y162.078 E4.63911
G1 X179.056 Y161.767 E4.65558
G1 X179.141 Y161.436 E4.67263
G1 X179.186 Y161.13 E4.68806
G1 X179.2 Y160.822 E4.70344
G1 X179.186 Y160.523 E4.71838
G1 X179.141 Y160.209 E4.7342
G1 X179.059 Y159.878 E4.75121
G1 X178.943 Y159.561 E4.76806
G1 X178.812 Y159.294 E4.78289
G1 X178.657 Y159.036 E4.79791
G1 X178.448 Y158.758 E4.81526
G1 X178.238 Y158.532 E4.83065
G1 X178.006 Y158.326 E4.84613
G1 X177.76 Y158.148 E4.86128
G1 X177.465 Y157.974 E4.87837
G1 X177.169 Y157.839 E4.8946
G1 X176.841 Y157.731 E4.91183
G1 X176.541 Y157.664 E4.92716
G1 X176.234 Y157.627 E4.94259
G1 X175.917 Y157.62 E4.95841
G1 X175.569 Y157.647 E4.97582
G1 X175.279 Y157.7 E4.99053
G1 X174.97 Y157.789 E5.00657
G1 X174.682 Y157.902 E5.02201
G1 X174.404 Y158.044 E5.03758
G1 X174.151 Y158.209 E5.05265
G1 X173.906 Y158.399 E5.06812
G1 X173.632 Y158.664 E5.08714
G1 X173.35 Y159.023 E5.10991
G1 X173.191 Y159.289 E5.12537
G1 X173.056 Y159.56 E5.14048
G1 X172.943 Y159.87 E5.15694
G1 X172.859 Y160.203 E5.17407
G1 X172.814 Y160.508 E5.18945
G1 X172.8 Y160.816 E5.20484
G1 X172.814 Y161.115 E5.21977
G1 X172.859 Y161.431 E5.23569
G1 X172.941 Y161.758 E5.25251
G1 X173.055 Y162.078 E5.26946
G1 X173.191 Y162.351 E5.28468
G1 X173.342 Y162.602 E5.29929
G1 X173.532 Y162.857 E5.31516
G1 X173.759 Y163.106 E5.33197
G1 X173.996 Y163.314 E5.3477
G1 X174.317 Y163.544 E5.3674
G1 X174.687 Y163.739 E5.38827
G1 X174.964 Y163.847 E5.4031
G1 X175.314 Y163.946 E5.42124
G0 F6000 X175.398 Y163.554
;TYPE:WALL-OUTER
G1 F1200 X175.794 Y163.612 E5.44121
G1 X176.071 Y163.618 E5.45504
G1 X176.379 Y163.594 E5.47045
G1 X176.643 Y163.545 E5.48384
G1 X176.902 Y163.47 E5.4973
G1 X177.147 Y163.374 E5.51042
G1 X177.42 Y163.234 E5.52573
G1 X177.645 Y163.087 E5.53914
G1 X177.953 Y162.826 E5.55928
G1 X178.148 Y162.615 E5.57361
G1 X178.32 Y162.389 E5.58778
G1 X178.458 Y162.158 E5.60121
G1 X178.576 Y161.921 E5.61442
G1 X178.673 Y161.65 E5.62878
G1 X178.748 Y161.357 E5.64387
G1 X178.787 Y161.091 E5.65728
G1 X178.8 Y160.822 E5.67071
G1 X178.787 Y160.561 E5.68375
G1 X178.748 Y160.285 E5.69766
G1 X178.676 Y159.995 E5.71257
G1 X178.575 Y159.718 E5.72728
G1 X178.461 Y159.486 E5.74017
G1 X178.325 Y159.26 E5.75333
G1 X178.141 Y159.015 E5.76862
G1 X177.958 Y158.818 E5.78203
G1 X177.755 Y158.638 E5.79557
G1 X177.541 Y158.483 E5.80875
G1 X177.28 Y158.329 E5.82387
G1 X177.023 Y158.212 E5.83796
G1 X176.735 Y158.117 E5.85309
G1 X176.473 Y158.059 E5.86648
G1 X176.205 Y158.026 E5.87995
G1 X175.928 Y158.02 E5.89377
G1 X175.621 Y158.044 E5.90913
G1 X175.371 Y158.09 E5.92182
G1 X175.099 Y158.168 E5.93593
G1 X174.847 Y158.267 E5.94944
G1 X174.605 Y158.391 E5.96301
G1 X174.383 Y158.535 E5.97621
G1 X174.169 Y158.701 E5.98972
G1 X173.93 Y158.933 E6.00634
G1 X173.68 Y159.25 E6.02648
G1 X173.542 Y159.481 E6.0399
G1 X173.424 Y159.718 E6.05311
G1 X173.326 Y159.988 E6.06744
G1 X173.252 Y160.281 E6.08252
G1 X173.213 Y160.547 E6.09593
G1 X173.2 Y160.816 E6.10937
G1 X173.213 Y161.077 E6.12241
G1 X173.252 Y161.354 E6.13636
G1 X173.324 Y161.642 E6.15117
G1 X173.424 Y161.921 E6.16596
G1 X173.542 Y162.158 E6.17917
G1 X173.675 Y162.379 E6.19203
G1 X173.841 Y162.602 E6.2059
G1 X174.04 Y162.82 E6.22063
G1 X174.245 Y163 E6.23424
G1 X174.528 Y163.203 E6.25162
G1 X174.853 Y163.374 E6.26994
G1 X175.092 Y163.467 E6.28273
G1 X175.398 Y163.554 E6.2986
G0 F6000 X175.306 Y163.984
G1 F2700 E1.2986
G0 F6000 X170.819 Y164.833
G0 X163.752 Y168.436
G0 X143.609 Y176.2
G0 X144.306 Y177.938
G0 X137.656 Y172.748
G0 X138.767 Y174.238
G0 X137.034 Y174.618
;TYPE:WALL-INNER
G1 F2700 E6.2986
G1 F1200 X137.067 Y174.621 E6.30026
G1 X137.468 Y174.582 E6.32036
G1 X137.905 Y174.472 E6.34284
G1 X138.312 Y174.295 E6.36498
G1 X138.654 Y174.084 E6.38503
G1 X138.956 Y173.825 E6.40488
G1 X139.221 Y173.527 E6.42478
G1 X139.461 Y173.158 E6.44674
G1 X139.65 Y172.737 E6.46976
G1 X139.752 Y172.347 E6.48987
G1 X139.793 Y171.991 E6.50775
G1 X139.796 Y171.973 E6.50866
G1 X139.8 Y171.831 E6.51575
G1 X139.8 Y170.99 E6.5577
G1 X139.82 Y170.99 E6.5587
G1 X140.444 Y170.791 E6.59138
G1 X140.899 Y170.623 E6.61558
G1 X141.359 Y170.426 E6.64054
G1 X141.826 Y170.202 E6.66638
G1 X142.265 Y169.962 E6.69134
G1 X142.714 Y169.69 E6.71753
G1 X143.11 Y169.42 E6.74145
G1 X143.428 Y169.182 E6.76126
G1 X143.457 Y169.167 E6.76289
G1 X143.922 Y168.783 E6.79298
G1 X144.405 Y168.34 E6.82568
G1 X144.419 Y168.315 E6.8271
G1 X144.648 Y168.087 E6.84323
G1 X144.841 Y167.872 E6.85764
G1 X144.863 Y167.862 E6.85885
G1 X145.376 Y167.24 E6.89907
G1 X145.387 Y167.215 E6.90043
G1 X145.618 Y166.901 E6.91988
G1 X145.884 Y166.512 E6.94339
G1 X146.158 Y166.057 E6.96989
G1 X146.399 Y165.612 E6.99514
G1 X146.62 Y165.15 E7.02069
G1 X146.781 Y164.764 E7.04156
G1 X146.797 Y164.736 E7.04316
G1 X146.987 Y164.222 E7.0705
G1 X147.175 Y163.619 E7.10202
G1 X148.035 Y163.619 E7.14492
G1 X148.446 Y163.588 E7.16548
G1 X148.974 Y163.451 E7.1927
G1 X149.345 Y163.277 E7.21314
G1 X149.704 Y163.045 E7.23447
G1 X150.006 Y162.776 E7.25464
G1 X150.284 Y162.442 E7.27632
G1 X150.494 Y162.098 E7.29643
G1 X150.658 Y161.712 E7.31736
G1 X150.762 Y161.285 E7.33928
G1 X150.764 Y161.257 E7.34068
G1 X150.801 Y160.884 E7.35938
G1 X150.775 Y160.422 E7.38247
G1 X150.654 Y159.916 E7.40842
G1 X150.476 Y159.507 E7.43068
G1 X150.277 Y159.186 E7.44952
G1 X150.01 Y158.867 E7.47027
G1 X149.693 Y158.584 E7.49148
G1 X149.344 Y158.36 E7.51216
G1 X148.923 Y158.172 E7.53517
G1 X148.532 Y158.067 E7.55537
G1 X148.15 Y158.021 E7.57456
G1 X147.957 Y158.019 E7.58419
G1 X147.171 Y158.019 E7.6234
G1 X147.171 Y157.999 E7.6244
G1 X146.978 Y157.393 E7.65613
G1 X146.804 Y156.92 E7.68128
G1 X146.6 Y156.444 E7.70711
G1 X146.389 Y156.006 E7.73137
G1 X146.141 Y155.554 E7.75709
G1 X145.867 Y155.103 E7.78342
G1 X145.601 Y154.71 E7.80709
G1 X145.282 Y154.284 E7.83364
G1 X145.056 Y154.012 E7.85129
G1 X145.044 Y153.987 E7.85267
G1 X144.518 Y153.411 E7.89159
G1 X144.398 Y153.29 E7.90009
G1 X143.898 Y152.835 E7.93382
G1 X143.432 Y152.452 E7.96391
G1 X143.407 Y152.441 E7.96527
G1 X143.082 Y152.201 E7.98543
G1 X142.692 Y151.935 E8.00898
G1 X142.237 Y151.661 E8.03548
G1 X141.805 Y151.425 E8.06004
G1 X141.322 Y151.196 E8.08671
G1 X140.877 Y151.008 E8.11081
G1 X140.407 Y150.834 E8.13581
G1 X139.8 Y150.644 E8.16754
G1 X139.8 Y149.782 E8.21055
G1 X139.768 Y149.375 E8.23092
G1 X139.642 Y148.884 E8.25621
