;FLAVOR:Marlin
;TIME:4527
;Filament used: 4.22585m
;Layer height: 0.2
;MINX:121.105
;MINY:121.659
;MINZ:0.3
;MAXX:178.35
;MAXY:178.341
;MAXZ:7.9
;Generated with Cura_SteamEngine 4.8.0
M140 S60
M105
M190 S60
M104 S205
M105
M109 S205
M82 ;absolute extrusion mode
M201 X500.00 Y500.00 Z100.00 E5000.00 ;Setup machine max acceleration
M203 X500.00 Y500.00 Z10.00 E50.00 ;Setup machine max feedrate
M204 P500.00 R1000.00 T500.00 ;Setup Print/Retract/Travel acceleration
M205 X8.00 Y8.00 Z0.40 E5.00 ;Setup Jerk
M220 S100 ;Reset Feedrate
M221 S100 ;Reset Flowrate

G28 ;Home

G92 E0 ;Reset Extruder
G1 Z2.0 F3000 ;Move Z Axis up
G1 X10.1 Y20 Z0.28 F5000.0 ;Move to start position
G1 X10.1 Y200.0 Z0.28 F1500.0 E15 ;Draw the first line
G1 X10.4 Y200.0 Z0.28 F5000.0 ;Move to side a little
G1 X10.4 Y20 Z0.28 F1500.0 E30 ;Draw the second line
G92 E0 ;Reset Extruder
G1 Z2.0 F3000 ;Move Z Axis up

G92 E0
G92 E0
G1 F1500 E-6.5
;LAYER_COUNT:39
;LAYER:0
M107
M204 S500
G0 F3600 X149.735 Y149.869 Z0.3
M204 S400
;TYPE:SKIRT
G1 F1500 E0
G1 F1200 X149.881 Y149.728 E0.01013
G1 X150.07 Y149.712 E0.01959
G1 X150.234 Y149.816 E0.02928
G1 X150.276 Y149.889 E0.03348
G1 X150.286 Y150.075 E0.04277
G1 X150.167 Y150.245 E0.05313
G1 X149.995 Y150.296 E0.06208
G1 X149.801 Y150.22 E0.07247
G1 X149.707 Y150.048 E0.08225
G1 X149.735 Y149.869 E0.09129
M204 S500
G0 F3600 X149.37 Y149.703
M204 S400
G1 F1200 X149.545 Y149.472 E0.10575
G1 X149.778 Y149.34 E0.11911
G1 X149.985 Y149.303 E0.1296
G1 X150.252 Y149.351 E0.14313
G1 X150.49 Y149.504 E0.15725
G1 X150.643 Y149.728 E0.17078
G1 X150.696 Y149.994 E0.18431
G1 X150.636 Y150.282 E0.19899
G1 X150.496 Y150.491 E0.21154
G1 X150.262 Y150.647 E0.22557
G1 X149.984 Y150.696 E0.23965
G1 X149.713 Y150.634 E0.25352
G1 X149.495 Y150.481 E0.26681
G1 X149.343 Y150.234 E0.28128
G1 X149.304 Y149.962 E0.29499
G1 X149.37 Y149.703 E0.30832
M204 S500
G0 F3600 X148.965 Y149.634
M204 S400
G1 F1200 X149.131 Y149.329 E0.32565
G1 X149.348 Y149.118 E0.34075
G1 X149.647 Y148.961 E0.3576
G1 X149.966 Y148.903 E0.37377
G1 X150.292 Y148.942 E0.39015
G1 X150.592 Y149.076 E0.40655
G1 X150.845 Y149.298 E0.42334
G1 X151.011 Y149.57 E0.43924
G1 X151.091 Y149.886 E0.4555
G1 X151.074 Y150.223 E0.47233
G1 X150.964 Y150.525 E0.48837
G1 X150.776 Y150.778 E0.50409
G1 X150.486 Y150.984 E0.52184
G1 X150.19 Y151.082 E0.5374
G1 X149.865 Y151.089 E0.55361
G1 X149.552 Y151 E0.56985
G1 X149.271 Y150.821 E0.58647
G1 X149.061 Y150.567 E0.60291
G1 X148.935 Y150.267 E0.61915
G1 X148.904 Y149.946 E0.63524
G1 X148.965 Y149.634 E0.6511
M204 S500
G0 F3600 X148.653 Y149.346
M204 S400
G1 F1200 X148.808 Y149.093 E0.6659
G1 X149.01 Y148.875 E0.68073
G1 X149.268 Y148.693 E0.69648
G1 X149.532 Y148.577 E0.71086
G1 X149.82 Y148.513 E0.72558
G1 X149.958 Y148.503 E0.73249
G1 X150.26 Y148.525 E0.74759
G1 X150.548 Y148.607 E0.76253
G1 X150.811 Y148.741 E0.77726
G1 X151.039 Y148.921 E0.79175
G1 X151.235 Y149.151 E0.80683
G1 X151.381 Y149.416 E0.82192
G1 X151.469 Y149.71 E0.83723
G1 X151.497 Y149.998 E0.85167
G1 X151.467 Y150.299 E0.86676
G1 X151.373 Y150.597 E0.88235
G1 X151.238 Y150.841 E0.89626
G1 X151.051 Y151.069 E0.91097
G1 X150.817 Y151.255 E0.92589
G1 X150.551 Y151.395 E0.94088
G1 X150.259 Y151.477 E0.95601
G1 X149.961 Y151.497 E0.97092
G1 X149.664 Y151.459 E0.98585
G1 X149.381 Y151.363 E1.00076
G1 X149.123 Y151.214 E1.01563
G1 X148.903 Y151.02 E1.03026
G1 X148.718 Y150.775 E1.04558
G1 X148.589 Y150.502 E1.06064
G1 X148.519 Y150.232 E1.07456
G1 X148.504 Y149.925 E1.08989
G1 X148.551 Y149.619 E1.10534
G1 X148.653 Y149.346 E1.11988
M204 S500
G0 F3600 X148.287 Y149.185
M204 S400
G1 F1200 X148.492 Y148.846 E1.13964
G1 X148.748 Y148.572 E1.15835
G1 X149.063 Y148.349 E1.1776
G1 X149.399 Y148.2 E1.19594
G1 X149.767 Y148.115 E1.21478
G1 X149.95 Y148.102 E1.22394
G1 X150.336 Y148.131 E1.24325
G1 X150.699 Y148.236 E1.2621
G1 X151.035 Y148.409 E1.28096
G1 X151.325 Y148.64 E1.29945
G1 X151.557 Y148.913 E1.31733
G1 X151.752 Y149.265 E1.3374
G1 X151.863 Y149.635 E1.35668
G1 X151.898 Y150 E1.37497
G1 X151.861 Y150.376 E1.39382
G1 X151.743 Y150.751 E1.41343
G1 X151.57 Y151.065 E1.43132
G1 X151.332 Y151.354 E1.45
G1 X151.028 Y151.595 E1.46935
G1 X150.697 Y151.768 E1.48798
G1 X150.329 Y151.871 E1.50705
G1 X149.949 Y151.898 E1.52605
G1 X149.582 Y151.851 E1.54451
G1 X149.216 Y151.727 E1.56379
G1 X148.886 Y151.537 E1.58279
G1 X148.611 Y151.295 E1.60107
G1 X148.377 Y150.984 E1.62048
G1 X148.21 Y150.631 E1.63997
G1 X148.123 Y150.29 E1.65752
G1 X148.104 Y149.905 E1.67675
G1 X148.166 Y149.508 E1.6968
G1 X148.287 Y149.185 E1.71401
M204 S500
G0 F3600 X147.932 Y148.998
M204 S400
G1 F1200 X148.175 Y148.601 E1.73723
G1 X148.481 Y148.274 E1.75957
G1 X148.853 Y148.008 E1.78239
G1 X149.275 Y147.82 E1.80544
G1 X149.721 Y147.718 E1.82826
G1 X149.942 Y147.702 E1.83932
G1 X150.398 Y147.735 E1.86213
G1 X150.842 Y147.862 E1.88517
G1 X151.247 Y148.069 E1.90786
G1 X151.604 Y148.354 E1.93065
G1 X151.892 Y148.693 E1.95284
G1 X152.026 Y148.913 E1.96569
G1 X152.191 Y149.308 E1.98705
G1 X152.287 Y149.767 E2.01045
G1 X152.286 Y150.234 E2.03374
G1 X152.195 Y150.677 E2.05631
G1 X152.107 Y150.917 E2.06906
G1 X151.895 Y151.298 E2.09081
G1 X151.613 Y151.64 E2.11293
G1 X151.247 Y151.931 E2.13626
G1 X150.839 Y152.142 E2.15917
G1 X150.399 Y152.266 E2.18198
G1 X149.937 Y152.298 E2.20508
G1 X149.487 Y152.24 E2.22772
G1 X149.044 Y152.089 E2.25107
G1 X148.65 Y151.86 E2.2738
G1 X148.317 Y151.566 E2.29597
G1 X148.029 Y151.183 E2.31987
G1 X147.835 Y150.772 E2.34255
G1 X147.727 Y150.349 E2.36433
G1 X147.704 Y149.885 E2.38751
G1 X147.775 Y149.42 E2.41097
G1 X147.932 Y148.998 E2.43344
M204 S500
G1 F1500 E-4.06656
;MESH:A4-J0-PLATE-2.0.stl
G0 F3600 X165.019 Y158.869
G0 X163.164 Y158.777
G0 X164.635 Y161.162
G0 X165.255 Y161.77
G0 X166.98 Y163.118
M204 S100
;TYPE:WALL-INNER
G1 F1500 E2.43344
G1 X167.388 Y163.148 E2.45405
G1 X167.803 Y163.143 E2.47497
G1 X168.219 Y163.088 E2.49611
G1 X168.62 Y162.999 E2.51681
G1 X169.013 Y162.866 E2.53771
G1 X169.389 Y162.697 E2.55849
G1 X169.75 Y162.49 E2.57945
G1 X170.083 Y162.25 E2.60014
G1 X170.395 Y161.977 E2.62103
G1 X170.677 Y161.671 E2.642
G1 X170.925 Y161.344 E2.66268
G1 X171.143 Y160.99 E2.68362
G1 X171.151 Y160.972 E2.68462
G1 X171.324 Y160.615 E2.70461
G1 X171.464 Y160.229 E2.7253
G1 X171.569 Y159.827 E2.74623
G1 X171.629 Y159.416 E2.76716
G1 X171.649 Y159.009 E2.7877
G1 X171.632 Y158.596 E2.80852
G1 X171.571 Y158.182 E2.82961
G1 X171.468 Y157.781 E2.85047
G1 X171.329 Y157.392 E2.87129
G1 X171.145 Y157.012 E2.89256
G1 X170.931 Y156.665 E2.9131
G1 X170.682 Y156.333 E2.93402
G1 X170.397 Y156.026 E2.95512
G1 X170.092 Y155.758 E2.97558
G1 X169.755 Y155.514 E2.99655
G1 X169.392 Y155.305 E3.01765
G1 X169.034 Y155.146 E3.03739
G1 X169.018 Y155.138 E3.03829
G1 X168.625 Y155.002 E3.05925
G1 X168.221 Y154.913 E3.08009
G1 X167.81 Y154.86 E3.10098
G1 X167.397 Y154.851 E3.12179
G1 X166.988 Y154.878 E3.14245
G1 X166.581 Y154.953 E3.1633
G1 X166.185 Y155.062 E3.184
G1 X165.796 Y155.213 E3.20502
G1 X165.423 Y155.405 E3.22616
G1 X165.082 Y155.625 E3.24661
G1 X164.759 Y155.882 E3.26741
G1 X164.46 Y156.172 E3.2884
G1 X164.19 Y156.49 E3.30942
G1 X163.959 Y156.835 E3.33034
G1 X163.762 Y157.195 E3.35102
G1 X163.602 Y157.574 E3.37175
G1 X163.478 Y157.969 E3.39261
G1 X163.395 Y158.382 E3.41383
G1 X163.355 Y158.787 E3.43434
G1 X163.353 Y159.198 E3.45505
G1 X163.394 Y159.615 E3.47617
G1 X163.476 Y160.021 E3.49704
G1 X163.598 Y160.416 E3.51787
G1 X163.76 Y160.802 E3.53896
G1 X163.957 Y161.164 E3.55973
G1 X164.186 Y161.5 E3.58022
G1 X164.452 Y161.82 E3.60119
G1 X164.754 Y162.112 E3.62235
G1 X165.073 Y162.369 E3.64299
G1 X165.422 Y162.593 E3.66389
G1 X165.79 Y162.783 E3.68476
G1 X166.173 Y162.934 E3.7055
G1 X166.553 Y163.039 E3.72537
G1 X166.572 Y163.045 E3.72637
G1 X166.98 Y163.118 E3.74726
M204 S500
G0 F3600 X167.03 Y162.721
M204 S100
G1 F1500 X167.4 Y162.748 E3.76595
G1 X167.774 Y162.743 E3.7848
G1 X168.149 Y162.694 E3.80386
G1 X168.512 Y162.613 E3.8226
G1 X168.867 Y162.493 E3.84148
G1 X169.207 Y162.34 E3.86027
G1 X169.533 Y162.153 E3.8792
G1 X169.834 Y161.936 E3.8979
G1 X170.116 Y161.69 E3.91676
G1 X170.37 Y161.414 E3.93566
G1 X170.595 Y161.118 E3.95439
G1 X170.792 Y160.798 E3.97333
G1 X170.955 Y160.46 E3.99224
G1 X171.082 Y160.11 E4.011
G1 X171.176 Y159.748 E4.02985
G1 X171.23 Y159.377 E4.04874
G1 X171.249 Y159.007 E4.0674
G1 X171.233 Y158.634 E4.08622
G1 X171.178 Y158.261 E4.10522
G1 X171.085 Y157.898 E4.1241
G1 X170.96 Y157.547 E4.14287
G1 X170.794 Y157.205 E4.16203
G1 X170.6 Y156.89 E4.18067
G1 X170.375 Y156.59 E4.19957
G1 X170.118 Y156.313 E4.21861
G1 X169.842 Y156.071 E4.2371
G1 X169.537 Y155.85 E4.25608
G1 X169.21 Y155.662 E4.27509
G1 X168.871 Y155.51 E4.29381
G1 X168.516 Y155.388 E4.31272
G1 X168.152 Y155.307 E4.33151
G1 X167.78 Y155.259 E4.35041
G1 X167.406 Y155.251 E4.36926
G1 X167.038 Y155.276 E4.38785
G1 X166.67 Y155.343 E4.4067
G1 X166.311 Y155.442 E4.42546
G1 X165.961 Y155.578 E4.44438
G1 X165.624 Y155.752 E4.46349
G1 X165.315 Y155.951 E4.48201
G1 X165.023 Y156.183 E4.50081
G1 X164.753 Y156.445 E4.51976
G1 X164.51 Y156.732 E4.53871
G1 X164.301 Y157.043 E4.55759
G1 X164.123 Y157.369 E4.57631
G1 X163.978 Y157.712 E4.59507
G1 X163.866 Y158.069 E4.61393
G1 X163.791 Y158.441 E4.63305
G1 X163.755 Y158.808 E4.65163
G1 X163.753 Y159.179 E4.67033
G1 X163.79 Y159.556 E4.68941
G1 X163.864 Y159.922 E4.70823
G1 X163.974 Y160.279 E4.72705
G1 X164.121 Y160.628 E4.74613
G1 X164.299 Y160.955 E4.76489
G1 X164.506 Y161.259 E4.78343
G1 X164.746 Y161.548 E4.80236
G1 X165.019 Y161.812 E4.82149
G1 X165.307 Y162.044 E4.84013
G1 X165.622 Y162.246 E4.85898
G1 X165.955 Y162.418 E4.87787
G1 X166.301 Y162.554 E4.8966
G1 X166.661 Y162.655 E4.91544
G1 X167.03 Y162.721 E4.93433
M204 S500
G0 F3600 X167.08 Y162.324
M204 S100
;TYPE:WALL-OUTER
G1 F1500 X167.411 Y162.348 E4.95105
G1 X167.745 Y162.343 E4.96789
G1 X168.079 Y162.3 E4.98485
G1 X168.404 Y162.227 E5.00164
G1 X168.721 Y162.12 E5.0185
G1 X169.025 Y161.983 E5.0353
G1 X169.316 Y161.816 E5.05221
G1 X169.585 Y161.622 E5.06892
G1 X169.837 Y161.403 E5.08574
G1 X170.063 Y161.157 E5.10257
G1 X170.265 Y160.891 E5.1194
G1 X170.441 Y160.606 E5.13628
G1 X170.586 Y160.305 E5.15312
G1 X170.699 Y159.992 E5.16989
G1 X170.783 Y159.668 E5.18675
G1 X170.832 Y159.337 E5.20361
G1 X170.849 Y159.006 E5.22031
G1 X170.834 Y158.672 E5.23716
G1 X170.785 Y158.34 E5.25407
G1 X170.702 Y158.015 E5.27097
G1 X170.59 Y157.702 E5.28772
G1 X170.443 Y157.397 E5.30478
G1 X170.269 Y157.115 E5.32148
G1 X170.068 Y156.847 E5.33836
G1 X169.839 Y156.6 E5.35533
G1 X169.592 Y156.384 E5.37187
G1 X169.319 Y156.186 E5.38886
G1 X169.028 Y156.019 E5.40577
G1 X168.724 Y155.882 E5.42257
G1 X168.407 Y155.774 E5.43944
G1 X168.082 Y155.701 E5.45623
G1 X167.75 Y155.658 E5.4731
G1 X167.416 Y155.651 E5.48993
G1 X167.087 Y155.674 E5.50655
G1 X166.759 Y155.733 E5.52334
G1 X166.437 Y155.822 E5.54018
G1 X166.126 Y155.943 E5.55699
G1 X165.825 Y156.099 E5.57407
G1 X165.548 Y156.277 E5.59067
G1 X165.287 Y156.484 E5.60745
G1 X165.046 Y156.718 E5.62438
G1 X164.83 Y156.974 E5.64126
G1 X164.643 Y157.251 E5.6581
G1 X164.484 Y157.543 E5.67485
G1 X164.354 Y157.85 E5.69165
G1 X164.254 Y158.169 E5.70849
G1 X164.187 Y158.5 E5.72551
G1 X164.155 Y158.829 E5.74217
G1 X164.153 Y159.161 E5.7589
G1 X164.186 Y159.497 E5.77591
G1 X164.252 Y159.823 E5.79267
G1 X164.35 Y160.142 E5.80948
G1 X164.482 Y160.454 E5.82656
G1 X164.641 Y160.746 E5.84331
G1 X164.826 Y161.018 E5.85988
G1 X165.04 Y161.276 E5.87678
G1 X165.284 Y161.512 E5.89388
G1 X165.541 Y161.719 E5.91051
G1 X165.822 Y161.899 E5.92732
G1 X166.12 Y162.053 E5.94423
G1 X166.429 Y162.174 E5.96095
G1 X166.751 Y162.265 E5.97781
G1 X167.08 Y162.324 E5.99465
M204 S500
G0 F3600 X167.026 Y162.76
G1 F1500 E-0.50535
G0 F3600 X165.401 Y161.914
G0 X164.635 Y161.162
G0 X164.125 Y160.224
G0 X163.955 Y159.372
G0 X163.796 Y156.736
G0 X165.385 Y157.699
G0 X157.451 Y144.683
G0 X158.048 Y146.444
G0 X156.497 Y146.413
M204 S100
;TYPE:WALL-INNER
G1 F1500 E5.99465
G1 X156.998 Y146.437 E6.01992
G1 X157.498 Y146.388 E6.04524
G1 X157.986 Y146.263 E6.07062
G1 X158.444 Y146.068 E6.09571
G1 X158.87 Y145.809 E6.12083
G1 X159.256 Y145.486 E6.14619
G1 X159.589 Y145.109 E6.17154
G1 X159.859 Y144.689 E6.1967
G1 X160.065 Y144.235 E6.22182
G1 X160.202 Y143.749 E6.24726
G1 X160.264 Y143.252 E6.2725
G1 X160.252 Y142.751 E6.29775
G1 X160.164 Y142.26 E6.32289
G1 X160.008 Y141.787 E6.34798
G1 X159.779 Y141.343 E6.37316
G1 X159.489 Y140.934 E6.39842
G1 X159.132 Y140.57 E6.42411
G1 X158.735 Y140.269 E6.44921
G1 X158.291 Y140.027 E6.47469
G1 X157.826 Y139.86 E6.49959
G1 X157.332 Y139.758 E6.52501
G1 X156.832 Y139.734 E6.55023
G1 X156.333 Y139.782 E6.57549
G1 X155.845 Y139.907 E6.60088
G1 X155.384 Y140.102 E6.6261
G1 X154.958 Y140.362 E6.65125
G1 X154.574 Y140.684 E6.6765
G1 X154.241 Y141.061 E6.70184
G1 X153.971 Y141.481 E6.727
G1 X153.764 Y141.936 E6.75219
G1 X153.627 Y142.419 E6.77749
G1 X153.565 Y142.918 E6.80283
G1 X153.577 Y143.419 E6.82808
G1 X153.666 Y143.915 E6.85347
G1 X153.824 Y144.388 E6.8786
G1 X154.05 Y144.829 E6.90357
G1 X154.345 Y145.241 E6.9291
G1 X154.696 Y145.599 E6.95437
G1 X155.094 Y145.901 E6.97954
G1 X155.534 Y146.141 E7.0048
G1 X156.005 Y146.313 E7.03006
G1 X156.497 Y146.413 E7.05536
M204 S500
G0 F3600 X156.547 Y146.015
M204 S100
G1 F1500 X156.988 Y146.036 E7.07761
G1 X157.428 Y145.993 E7.09988
G1 X157.857 Y145.883 E7.1222
G1 X158.261 Y145.711 E7.14433
G1 X158.637 Y145.483 E7.16648
G1 X158.976 Y145.199 E7.18877
G1 X159.269 Y144.867 E7.21108
G1 X159.507 Y144.497 E7.23325
G1 X159.688 Y144.097 E7.25537
G1 X159.809 Y143.67 E7.27773
G1 X159.863 Y143.232 E7.29997
G1 X159.853 Y142.791 E7.3222
G1 X159.775 Y142.358 E7.34437
G1 X159.638 Y141.942 E7.36644
G1 X159.436 Y141.551 E7.38861
G1 X159.181 Y141.191 E7.41084
G1 X158.867 Y140.871 E7.43343
G1 X158.517 Y140.606 E7.45556
G1 X158.127 Y140.393 E7.47795
G1 X157.717 Y140.246 E7.49989
G1 X157.282 Y140.156 E7.52228
G1 X156.842 Y140.135 E7.54447
G1 X156.402 Y140.177 E7.56675
G1 X155.973 Y140.287 E7.58906
G1 X155.567 Y140.459 E7.61128
G1 X155.192 Y140.688 E7.63342
G1 X154.854 Y140.971 E7.65563
G1 X154.561 Y141.303 E7.67795
G1 X154.323 Y141.673 E7.70011
G1 X154.141 Y142.074 E7.7223
G1 X154.02 Y142.499 E7.74457
G1 X153.966 Y142.938 E7.76686
G1 X153.976 Y143.379 E7.78909
G1 X154.055 Y143.816 E7.81146
G1 X154.194 Y144.232 E7.83356
G1 X154.393 Y144.62 E7.85554
G1 X154.652 Y144.983 E7.87801
G1 X154.961 Y145.298 E7.90024
G1 X155.312 Y145.564 E7.92243
G1 X155.699 Y145.776 E7.94467
G1 X156.114 Y145.927 E7.96692
G1 X156.547 Y146.015 E7.98918
M204 S500
G0 F3600 X156.597 Y145.617
M204 S100
;TYPE:WALL-OUTER
G1 F1500 X156.978 Y145.635 E8.0084
G1 X157.358 Y145.598 E8.02764
G1 X157.728 Y145.503 E8.04689
G1 X158.078 Y145.354 E8.06606
G1 X158.404 Y145.157 E8.08525
G1 X158.696 Y144.912 E8.10446
G1 X158.949 Y144.625 E8.12374
G1 X159.155 Y144.305 E8.14291
G1 X159.311 Y143.959 E8.16204
G1 X159.416 Y143.591 E8.18132
G1 X159.462 Y143.212 E8.20056
G1 X159.454 Y142.831 E8.21976
G1 X159.386 Y142.457 E8.23892
G1 X159.268 Y142.097 E8.25801
G1 X159.093 Y141.759 E8.27719
G1 X158.873 Y141.448 E8.29638
G1 X158.602 Y141.172 E8.31587
G1 X158.299 Y140.943 E8.33501
G1 X157.963 Y140.759 E8.35431
G1 X157.608 Y140.632 E8.37331
G1 X157.232 Y140.554 E8.39266
G1 X156.851 Y140.536 E8.41188
G1 X156.471 Y140.572 E8.43111
G1 X156.102 Y140.667 E8.45031
G1 X155.75 Y140.816 E8.46957
G1 X155.426 Y141.014 E8.48871
G1 X155.134 Y141.258 E8.50788
G1 X154.881 Y141.545 E8.52716
G1 X154.675 Y141.865 E8.54634
G1 X154.518 Y142.212 E8.56553
G1 X154.413 Y142.579 E8.58476
G1 X154.367 Y142.958 E8.604
G1 X154.375 Y143.339 E8.6232
G1 X154.443 Y143.716 E8.64251
G1 X154.564 Y144.076 E8.66164
G1 X154.736 Y144.411 E8.68062
G1 X154.96 Y144.725 E8.70005
G1 X155.226 Y144.997 E8.71923
G1 X155.53 Y145.227 E8.73843
G1 X155.865 Y145.411 E8.75769
G1 X156.223 Y145.541 E8.77688
G1 X156.597 Y145.617 E8.79612
M204 S500
G0 F3600 X156.543 Y146.053
G1 F1500 E2.29612
G0 F3600 X154.199 Y145.364
G0 X155.621 Y144.165
G0 X144.428 Y144.104
G0 X145.912 Y145.224
G0 X143.669 Y146.388
M204 S100
;TYPE:WALL-INNER
G1 F1500 E8.79612
G1 X144.156 Y146.263 E8.82145
