;FLAVOR:Marlin
;TIME:1861
;Filament used: 1.0539m
;Layer height: 0.2
;MINX:144
;MINY:125.5
;MINZ:0.3
;MAXX:156
;MAXY:174.5
;MAXZ:7.9
;Generated with Cura_SteamEngine 4.10.0
M140 S60
M105
M190 S60
M104 S210
M105
M109 S210
M82 ;absolute extrusion mode
M201 X500.00 Y500.00 Z100.00 E5000.00 ;Setup machine max acceleration
M203 X500.00 Y500.00 Z10.00 E50.00 ;Setup machine max feedrate
M204 P500.00 R1000.00 T500.00 ;Setup Print/Retract/Travel acceleration
M205 X8.00 Y8.00 Z0.40 E5.00 ;Setup Jerk
M220 S100 ;Reset Feedrate
M221 S100 ;Reset Flowrate

G28 ;Home

G92 E0 ;Reset Extruder
G1 Z2.0 F3000 ;Move Z Axis up
G1 X10.1 Y20 Z0.28 F5000.0 ;Move to start position
G1 X10.1 Y200.0 Z0.28 F1500.0 E15 ;Draw the first line
G1 X10.4 Y200.0 Z0.28 F5000.0 ;Move to side a little
G1 X10.4 Y20 Z0.28 F1500.0 E30 ;Draw the second line
G92 E0 ;Reset Extruder
G1 Z2.0 F3000 ;Move Z Axis up

G92 E0
G92 E0
G1 F2700 E-5
;LAYER_COUNT:40
;LAYER:0
M107
M204 S500
;MESH:A4-J2-ENCODER-BRACKET-1.0.stl
G0 F6000 X149.684 Y134.25 Z0.3
;TYPE:WALL-INNER
G1 F2700 E0
G1 F1200 X149.973 Y134.137 E0.01548
G1 X149.992 Y134.129 E0.01651
G1 X150.078 Y134.086 E0.02131
G1 X150.332 Y133.958 E0.0355
G1 X150.671 Y133.745 E0.05547
G1 X151.005 Y133.488 E0.0765
G1 X151.321 Y133.189 E0.0982
G1 X151.585 Y132.887 E0.11821
G1 X151.828 Y132.544 E0.13918
G1 X152.041 Y132.172 E0.16057
G1 X152.206 Y131.799 E0.18092
G1 X152.343 Y131.395 E0.2022
G1 X152.438 Y130.987 E0.2231
G1 X152.492 Y130.541 E0.24552
G1 X152.498 Y130.129 E0.26607
G1 X152.462 Y129.667 E0.28919
G1 X152.386 Y129.27 E0.30936
G1 X152.268 Y128.863 E0.3305
G1 X152.118 Y128.489 E0.3506
G1 X151.909 Y128.085 E0.3733
G1 X151.703 Y127.771 E0.39203
G1 X151.42 Y127.418 E0.4146
G1 X151.148 Y127.143 E0.4339
G1 X150.813 Y126.86 E0.45578
G1 X150.564 Y126.691 E0.47079
G1 X150.445 Y126.61 E0.47797
G1 X150.082 Y126.413 E0.49858
G1 X149.808 Y126.3 E0.51337
G1 X150.082 Y126.3 E0.51507
G1 X150.445 Y126.3 E0.52436
G1 X150.589 Y126.3 E0.53078
G1 X155.2 Y126.3 E0.76082
G1 X155.2 Y154.66 E2.17571
G1 X151.868 Y173.7 E3.14006
G1 X144.8 Y173.7 E3.49268
G1 X144.8 Y161.275 E4.11257
G1 X144.8 Y160.95 E4.12878
G1 X144.8 Y160.648 E4.14385
G1 X144.8 Y160.434 E4.15452
G1 X144.878 Y160.648 E4.15606
G1 X145.017 Y160.95 E4.1629
G1 X145.186 Y161.228 E4.17557
G1 X145.238 Y161.314 E4.18058
G1 X145.46 Y161.604 E4.1988
G1 X145.699 Y161.863 E4.21639
G1 X145.965 Y162.097 E4.23406
G1 X146.247 Y162.301 E4.25143
G1 X146.598 Y162.507 E4.27173
G1 X146.901 Y162.641 E4.28826
G1 X147.251 Y162.762 E4.30674
G1 X147.636 Y162.85 E4.32644
G1 X147.979 Y162.891 E4.34367
G1 X148.173 Y162.899 E4.35336
G1 X148.515 Y162.891 E4.37043
G1 X148.863 Y162.85 E4.38791
G1 X149.208 Y162.772 E4.40555
G1 X149.577 Y162.652 E4.42491
G1 X149.913 Y162.501 E4.44329
G1 X150.252 Y162.305 E4.46283
G1 X150.538 Y162.096 E4.4805
G1 X150.8 Y161.863 E4.49799
G1 X151.045 Y161.599 E4.51596
G1 X151.273 Y161.298 E4.5348
G1 X151.491 Y160.935 E4.55593
G1 X151.699 Y160.454 E4.58207
G1 X151.831 Y159.957 E4.60773
G1 X151.885 Y159.602 E4.62564
G1 X151.9 Y159.25 E4.64322
G1 X151.885 Y158.911 E4.66015
G1 X151.833 Y158.551 E4.67829
G1 X151.734 Y158.158 E4.69851
G1 X151.61 Y157.821 E4.71643
G1 X151.37 Y157.352 E4.74271
G1 X151.145 Y157.025 E4.76251
G1 X150.807 Y156.645 E4.78789
G1 X150.537 Y156.404 E4.80594
G1 X150.253 Y156.198 E4.82345
G1 X149.902 Y155.993 E4.84373
G1 X149.597 Y155.858 E4.86037
G1 X149.428 Y155.8 E4.86928
G1 X149.597 Y155.8 E4.8698
G1 X149.902 Y155.8 E4.87435
G1 X150.253 Y155.8 E4.88713
G1 X150.254 Y155.8 E4.88718
G1 X150.665 Y155.8 E4.90768
G1 X151.3 Y155.165 E4.95249
G1 X151.3 Y148.335 E5.29324
G1 X150.665 Y147.7 E5.33804
G1 X144.8 Y147.7 E5.63065
G1 X144.8 Y141.258 E5.95204
G1 X144.8 Y140.918 E5.969
G1 X144.8 Y140.726 E5.97858
G1 X144.939 Y140.918 E5.982
G1 X145.166 Y141.171 E5.99379
G1 X145.221 Y141.233 E5.99793
G1 X145.524 Y141.51 E6.01841
G1 X145.854 Y141.761 E6.03909
G1 X146.228 Y141.989 E6.06095
G1 X146.598 Y142.166 E6.08141
G1 X147.011 Y142.316 E6.10333
G1 X147.429 Y142.421 E6.12483
G1 X147.528 Y142.439 E6.12985
G1 X147.856 Y142.482 E6.14636
G1 X147.868 Y142.482 E6.14695
G1 X148.034 Y142.494 E6.15526
G1 X148.429 Y142.495 E6.17496
G1 X148.823 Y142.464 E6.19468
G1 X149.329 Y142.361 E6.22044
G1 X149.645 Y142.265 E6.23692
G1 X149.992 Y142.129 E6.25552
G1 X150.332 Y141.958 E6.2745
G1 X150.671 Y141.745 E6.29448
G1 X151.005 Y141.488 E6.3155
G1 X151.321 Y141.189 E6.33721
G1 X151.585 Y140.887 E6.35722
G1 X151.828 Y140.544 E6.37819
G1 X152.041 Y140.172 E6.39958
G1 X152.206 Y139.799 E6.41992
G1 X152.343 Y139.395 E6.44121
G1 X152.438 Y138.987 E6.46211
G1 X152.492 Y138.541 E6.48452
G1 X152.498 Y138.129 E6.50508
G1 X152.462 Y137.667 E6.5282
G1 X152.386 Y137.27 E6.54836
G1 X152.268 Y136.863 E6.5695
G1 X152.118 Y136.489 E6.58961
G1 X151.909 Y136.085 E6.6123
G1 X151.703 Y135.771 E6.63104
G1 X151.42 Y135.418 E6.65361
G1 X151.148 Y135.143 E6.67291
G1 X150.813 Y134.86 E6.69478
G1 X150.445 Y134.61 E6.71698
G1 X150.167 Y134.459 E6.73276
G1 X150.082 Y134.413 E6.73704
G1 X149.906 Y134.341 E6.74269
G1 X149.684 Y134.25 E6.74529
G0 F6000 X147.175 Y133.78
G0 X146.495 Y133.496
G0 X144.4 Y131.963
G1 F1200 X144.4 Y131.664 E6.76021
G1 X144.4 Y131.315 E6.77762
G1 X144.4 Y130.951 E6.79578
G1 X144.4 Y130.631 E6.81175
G1 X144.4 Y130.542 E6.81619
G1 X144.4 Y130.264 E6.83006
G1 X144.4 Y130.165 E6.835
G1 X144.4 Y129.769 E6.85475
G1 X144.4 Y129.406 E6.87286
G1 X144.4 Y129.033 E6.89147
G1 X144.4 Y128.69 E6.90859
G1 X144.4 Y128.545 E6.91582
G1 X144.4 Y125.9 E7.04778
G1 X155.6 Y125.9 E7.60655
G1 X155.6 Y154.695 E9.04314
G1 X152.204 Y174.1 E10.02597
G1 X144.4 Y174.1 E10.41531
G1 X144.4 Y155.4 E11.34826
G1 X150.499 Y155.4 E11.65254
G1 X150.9 Y154.999 E11.68083
G1 X150.9 Y148.501 E12.00502
G1 X150.499 Y148.1 E12.03331
G1 X144.4 Y148.1 E12.33759
G1 X144.4 Y139.963 E12.74355
G1 X144.4 Y139.664 E12.75847
G1 X144.4 Y139.315 E12.77588
G1 X144.4 Y138.951 E12.79404
G1 X144.4 Y138.631 E12.81
G1 X144.4 Y138.542 E12.81444
G1 X144.4 Y138.264 E12.82831
G1 X144.4 Y138.165 E12.83325
G1 X144.4 Y137.769 E12.85301
G1 X144.4 Y137.406 E12.87112
G1 X144.4 Y137.033 E12.88973
G1 X144.4 Y136.69 E12.90684
G1 X144.4 Y136.545 E12.91407
G1 X144.4 Y131.963 E13.14267
G1 F2700 E8.14267
G0 F6000 X146.495 Y133.496
G0 X147.348 Y133.801
G0 X148.398 Y133.994
G0 X148.399 Y133.695
;TYPE:WALL-OUTER
G1 F2700 E13.14267
G1 F1200 X148.711 Y133.67 E13.15829
G1 X149.133 Y133.585 E13.17976
G1 X149.381 Y133.509 E13.1927
G1 X149.666 Y133.397 E13.20798
G1 X149.938 Y133.26 E13.22318
G1 X150.213 Y133.087 E13.23938
G1 X150.485 Y132.878 E13.2565
G1 X150.743 Y132.635 E13.27418
G1 X150.955 Y132.391 E13.29031
G1 X151.154 Y132.112 E13.3074
G1 X151.327 Y131.81 E13.32477
G1 X151.46 Y131.509 E13.34119
G1 X151.573 Y131.176 E13.35873
G1 X151.648 Y130.849 E13.37547
G1 X151.692 Y130.486 E13.39371
G1 X151.698 Y130.153 E13.41033
G1 X151.668 Y129.773 E13.42934
G1 X151.608 Y129.458 E13.44534
G1 X151.51 Y129.124 E13.46271
G1 X151.39 Y128.822 E13.47892
G1 X151.217 Y128.489 E13.49764
G1 X151.055 Y128.241 E13.51242
G1 X150.822 Y127.952 E13.53094
G1 X150.604 Y127.731 E13.54643
G1 X150.329 Y127.498 E13.56441
G1 X150.029 Y127.294 E13.58251
G1 X149.738 Y127.137 E13.59901
G1 X149.419 Y127.005 E13.61623
G1 X149.098 Y126.907 E13.63297
G1 X148.766 Y126.84 E13.64987
G1 X148.403 Y126.804 E13.66807
G1 X148.068 Y126.805 E13.68478
G1 X147.704 Y126.843 E13.70304
G1 X147.378 Y126.912 E13.71967
G1 X147.046 Y127.018 E13.73705
G1 X146.961 Y127.049 E13.74157
G1 X146.708 Y127.163 E13.75541
G1 X146.439 Y127.314 E13.7708
G1 X146.158 Y127.507 E13.78781
G1 X145.875 Y127.747 E13.80632
G1 X145.674 Y127.958 E13.82086
G1 X145.45 Y128.236 E13.83867
G1 X145.252 Y128.544 E13.85694
G1 X145.095 Y128.853 E13.87423
G1 X144.977 Y129.159 E13.89059
G1 X144.884 Y129.494 E13.90794
G1 X144.828 Y129.818 E13.92434
G1 X144.801 Y130.18 E13.94245
G1 X144.801 Y130.256 E13.94625
G1 X144.811 Y130.52 E13.95943
G1 X144.816 Y130.589 E13.96288
G1 X144.856 Y130.877 E13.97738
G1 X144.934 Y131.203 E13.99411
G1 X145.042 Y131.516 E14.01063
G1 X145.187 Y131.836 E14.02815
G1 X145.371 Y132.151 E14.04635
G1 X145.562 Y132.414 E14.06257
G1 X145.791 Y132.669 E14.07967
G1 X146.038 Y132.896 E14.09641
G1 X146.306 Y133.099 E14.11318
G1 X146.61 Y133.285 E14.13096
G1 X146.908 Y133.428 E14.14745
G1 X147.245 Y133.55 E14.16533
G1 X147.6 Y133.639 E14.18359
G1 X147.653 Y133.649 E14.18628
G1 X147.934 Y133.686 E14.20042
G1 X148.061 Y133.694 E14.20677
G1 X148.399 Y133.695 E14.22363
G0 F6000 X148.415 Y134.134
G0 X150.474 Y135.308
G0 X151.249 Y136.1
G0 X151.736 Y137.046
G0 X151.906 Y137.741
G0 X151.931 Y138.502
G0 X151.804 Y139.241
G0 X151.356 Y140.241
G0 X150.64 Y141.06
G0 X149.852 Y141.56
G0 X148.414 Y142.095
;TYPE:WALL-INNER
G1 F1200 X148.767 Y142.067 E14.2413
G1 X149.231 Y141.973 E14.26492
G1 X149.513 Y141.887 E14.27963
G1 X149.829 Y141.763 E14.29656
G1 X150.135 Y141.609 E14.31365
G1 X150.442 Y141.416 E14.33174
G1 X150.745 Y141.183 E14.35081
G1 X151.032 Y140.912 E14.37051
G1 X151.27 Y140.639 E14.38858
G1 X151.491 Y140.328 E14.40761
G1 X151.684 Y139.991 E14.42699
G1 X151.833 Y139.654 E14.44537
G1 X151.958 Y139.285 E14.46481
G1 X152.043 Y138.918 E14.4836
G1 X152.092 Y138.514 E14.5039
G1 X152.098 Y138.141 E14.52251
G1 X152.065 Y137.72 E14.54358
G1 X151.997 Y137.364 E14.56166
G1 X151.889 Y136.994 E14.58089
G1 X151.754 Y136.656 E14.59905
G1 X151.563 Y136.287 E14.61978
G1 X151.379 Y136.006 E14.63654
G1 X151.121 Y135.685 E14.65709
G1 X150.876 Y135.437 E14.67448
G1 X150.571 Y135.179 E14.69441
G1 X150.237 Y134.952 E14.71456
G1 X149.91 Y134.775 E14.73311
G1 X149.554 Y134.628 E14.75232
G1 X149.196 Y134.519 E14.77099
G1 X148.868 Y134.452 E14.78769
G1 X148.825 Y134.444 E14.78988
G1 X148.731 Y134.435 E14.79459
G1 X148.422 Y134.404 E14.81008
G1 X148.047 Y134.405 E14.82879
G1 X147.93 Y134.417 E14.83466
G1 X147.642 Y134.447 E14.8491
G1 X147.626 Y134.45 E14.84992
G1 X147.275 Y134.525 E14.86782
G1 X146.917 Y134.639 E14.88657
G1 X146.81 Y134.678 E14.89225
G1 X146.528 Y134.806 E14.9077
G1 X146.227 Y134.974 E14.9249
G1 X145.915 Y135.189 E14.9438
G1 X145.6 Y135.456 E14.9644
G1 X145.373 Y135.694 E14.98081
G1 X145.125 Y136.002 E15.00054
G1 X144.905 Y136.345 E15.02087
G1 X144.794 Y136.561 E15.03298
G1 X144.729 Y136.69 E15.03957
G1 X144.597 Y137.033 E15.05197
G1 X144.493 Y137.406 E15.05932
G1 X144.431 Y137.769 E15.06234
G1 X144.401 Y138.165 E15.06319
G1 X144.401 Y138.264 E15.0632
G1 X144.412 Y138.542 E15.06343
G1 X144.418 Y138.631
G1 X144.462 Y138.951 E15.06515
G1 X144.55 Y139.315 E15.07039
G1 X144.67 Y139.664 E15.08044
G1 X144.793 Y139.936 E15.09297
G1 X144.831 Y140.02 E15.09757
G1 X145.036 Y140.37 E15.11781
G1 X145.251 Y140.666 E15.13606
G1 X145.506 Y140.951 E15.15514
G1 X145.781 Y141.203 E15.17375
G1 X146.08 Y141.43 E15.19248
G1 X146.419 Y141.637 E15.21229
G1 X146.753 Y141.797 E15.23077
G1 X147.128 Y141.933 E15.25067
G1 X147.514 Y142.03 E15.27053
G1 X147.59 Y142.044 E15.27438
G1 X147.895 Y142.084 E15.28973
G1 X148.048 Y142.094 E15.29738
G1 X148.414 Y142.095 E15.31564
G0 F6000 X148.399 Y141.695
;TYPE:WALL-OUTER
G1 F1200 X148.711 Y141.67 E15.33125
G1 X149.133 Y141.585 E15.35273
G1 X149.381 Y141.509 E15.36567
G1 X149.666 Y141.397 E15.38095
G1 X149.938 Y141.26 E15.39614
G1 X150.213 Y141.087 E15.41235
G1 X150.485 Y140.878 E15.42947
G1 X150.743 Y140.635 E15.44715
G1 X150.955 Y140.391 E15.46327
G1 X151.154 Y140.112 E15.48037
G1 X151.327 Y139.81 E15.49774
G1 X151.46 Y139.509 E15.51415
G1 X151.573 Y139.176 E15.5317
G1 X151.648 Y138.849 E15.54843
G1 X151.692 Y138.486 E15.56668
G1 X151.698 Y138.153 E15.58329
G1 X151.668 Y137.773 E15.60231
G1 X151.608 Y137.458 E15.61831
G1 X151.51 Y137.124 E15.63567
G1 X151.39 Y136.822 E15.65189
G1 X151.217 Y136.489 E15.67061
G1 X151.055 Y136.241 E15.68539
G1 X150.822 Y135.952 E15.70391
G1 X150.604 Y135.731 E15.7194
G1 X150.329 Y135.498 E15.73738
G1 X150.029 Y135.294 E15.75548
G1 X149.738 Y135.137 E15.77197
G1 X149.419 Y135.005 E15.7892
G1 X149.098 Y134.907 E15.80594
G1 X148.766 Y134.84 E15.82284
G1 X148.403 Y134.804 E15.84104
G1 X148.068 Y134.805 E15.85775
G1 X147.704 Y134.843 E15.87601
G1 X147.378 Y134.912 E15.89263
G1 X147.046 Y135.018 E15.91002
G1 X146.961 Y135.049 E15.91454
G1 X146.708 Y135.163 E15.92838
G1 X146.439 Y135.314 E15.94377
G1 X146.158 Y135.507 E15.96078
G1 X145.875 Y135.747 E15.97929
G1 X145.674 Y135.958 E15.99383
G1 X145.45 Y136.236 E16.01164
G1 X145.252 Y136.544 E16.02991
G1 X145.095 Y136.853 E16.0472
G1 X144.977 Y137.159 E16.06356
G1 X144.884 Y137.494 E16.08091
G1 X144.828 Y137.818 E16.09731
G1 X144.801 Y138.18 E16.11542
G1 X144.801 Y138.256 E16.11921
G1 X144.811 Y138.52 E16.13239
G1 X144.816 Y138.589 E16.13585
G1 X144.856 Y138.877 E16.15035
G1 X144.934 Y139.203 E16.16708
G1 X145.042 Y139.516 E16.18359
G1 X145.187 Y139.836 E16.20112
G1 X145.371 Y140.151 E16.21932
G1 X145.562 Y140.414 E16.23554
G1 X145.791 Y140.669 E16.25264
G1 X146.038 Y140.896 E16.26937
G1 X146.306 Y141.099 E16.28615
G1 X146.61 Y141.285 E16.30393
G1 X146.908 Y141.428 E16.32042
G1 X147.245 Y141.55 E16.3383
G1 X147.6 Y141.639 E16.35656
G1 X147.653 Y141.649 E16.35925
G1 X147.934 Y141.686 E16.37339
G1 X148.061 Y141.694 E16.37974
G1 X148.399 Y141.695 E16.3966
G0 F6000 X148.415 Y142.134
G1 F2700 E11.3966
G0 F6000 X144.997 Y141.275
G0 X144.982 Y147.518
G0 X150.431 Y148.264
G0 X150.736 Y148.569
G0 X150.736 Y154.931
G0 X149.945 Y156.668
G0 X150.411 Y157.041
G0 X150.888 Y157.639
G0 X151.197 Y158.324
G0 X151.34 Y159.25
G0 X151.282 Y159.844
G0 X150.991 Y160.679
G0 X150.407 Y161.461
G0 X149.8 Y161.898
G0 X148.487 Y162.492
;TYPE:WALL-INNER
G1 F2700 E16.3966
G1 F1200 X148.795 Y162.455 E16.41208
G1 X149.102 Y162.386 E16.42777
G1 X149.433 Y162.278 E16.44515
G1 X149.73 Y162.145 E16.46138
G1 X150.033 Y161.969 E16.47886
G1 X150.287 Y161.784 E16.49454
G1 X150.52 Y161.577 E16.51009
G1 X150.738 Y161.342 E16.52608
G1 X150.941 Y161.073 E16.54289
G1 X151.135 Y160.752 E16.56161
G1 X151.32 Y160.323 E16.58491
G1 X151.439 Y159.876 E16.60799
G1 X151.486 Y159.563 E16.62378
G1 X151.5 Y159.25 E16.63941
G1 X151.486 Y158.949 E16.65445
G1 X151.44 Y158.629 E16.67058
G1 X151.351 Y158.276 E16.68874
G1 X151.243 Y157.981 E16.70441
G1 X151.026 Y157.557 E16.72817
G1 X150.83 Y157.272 E16.74543
G1 X150.524 Y156.928 E16.7684
G1 X150.286 Y156.716 E16.7843
G1 X150.034 Y156.533 E16.79984
G1 X149.72 Y156.35 E16.81797
G1 X149.451 Y156.231 E16.83265
G1 X149.104 Y156.112 E16.85095
G1 X148.795 Y156.045 E16.86672
G1 X148.484 Y156.008 E16.88235
G1 X148.165 Y156.001 E16.89827
G1 X147.826 Y156.026 E16.91523
G1 X147.5 Y156.086 E16.93176
G1 X147.199 Y156.173 E16.94739
G1 X146.929 Y156.281 E16.9619
G1 X146.629 Y156.432 E16.97866
G1 X146.369 Y156.6 E16.9941
G1 X146.121 Y156.795 E17.00984
G1 X145.848 Y157.059 E17.02879
G1 X145.66 Y157.283 E17.04338
G1 X145.494 Y157.529 E17.05818
G1 X145.339 Y157.806 E17.07402
G1 X145.18 Y158.178 E17.0942
G1 X145.061 Y158.621 E17.11709
G1 X145.014 Y158.937 E17.13303
G1 X145 Y159.247 E17.14851
G1 X145.014 Y159.554 E17.16384
G1 X145.06 Y159.873 E17.17992
G1 X145.149 Y160.223 E17.19794
G1 X145.248 Y160.496 E17.21243
G1 X145.371 Y160.762 E17.22705
G1 X145.569 Y161.088 E17.24608
G1 X145.766 Y161.346 E17.26227
G1 X145.979 Y161.576 E17.27791
G1 X146.215 Y161.784 E17.2936
G1 X146.466 Y161.966 E17.30907
G1 X146.78 Y162.15 E17.32723
G1 X147.048 Y162.268 E17.34184
G1 X147.361 Y162.377 E17.35837
G1 X147.704 Y162.455 E17.37592
G1 X148.011 Y162.492 E17.39135
G1 X148.177 Y162.499 E17.39964
G1 X148.487 Y162.492 E17.41511
G0 F6000 X148.458 Y162.093
;TYPE:WALL-OUTER
G1 F1200 X148.727 Y162.06 E17.42863
G1 X148.996 Y162 E17.44238
G1 X149.289 Y161.904 E17.45776
G1 X149.548 Y161.788 E17.47192
G1 X149.814 Y161.634 E17.48726
G1 X150.035 Y161.472 E17.50093
G1 X150.24 Y161.29 E17.5146
G1 X150.431 Y161.085 E17.52858
G1 X150.609 Y160.849 E17.54333
G1 X150.778 Y160.569 E17.55965
G1 X150.941 Y160.191 E17.58018
G1 X151.047 Y159.795 E17.60064
G1 X151.087 Y159.524 E17.6143
G1 X151.1 Y159.25 E17.62799
G1 X151.087 Y158.987 E17.64112
G1 X151.047 Y158.706 E17.65528
G1 X150.968 Y158.394 E17.67134
G1 X150.876 Y158.141 E17.68477
G1 X150.682 Y157.762 E17.70601
G1 X150.515 Y157.519 E17.72072
G1 X150.241 Y157.211 E17.74129
