;FLAVOR:Marlin
;TIME:3533
;Filament used: 4.71744m
;Layer height: 0.3
;MINX:122.535
;MINY:122.463
;MINZ:0.3
;MAXX:177.465
;MAXY:177.961
;MAXZ:7.8
;Generated with Cura_SteamEngine 4.8.0
M140 S60
M105
M190 S60
M104 S210
M105
M109 S210
M82 ;absolute extrusion mode
M201 X500.00 Y500.00 Z100.00 E5000.00 ;Setup machine max acceleration
M203 X500.00 Y500.00 Z10.00 E50.00 ;Setup machine max feedrate
M204 P500.00 R1000.00 T500.00 ;Setup Print/Retract/Travel acceleration
M205 X8.00 Y8.00 Z0.40 E5.00 ;Setup Jerk
M220 S100 ;Reset Feedrate
M221 S100 ;Reset Flowrate

G28 ;Home

G92 E0 ;Reset Extruder
G1 Z2.0 F3000 ;Move Z Axis up
G1 X10.1 Y20 Z0.28 F5000.0 ;Move to start position
G1 X10.1 Y200.0 Z0.28 F1500.0 E15 ;Draw the first line
G1 X10.4 Y200.0 Z0.28 F5000.0 ;Move to side a little
G1 X10.4 Y20 Z0.28 F1500.0 E30 ;Draw the second line
G92 E0 ;Reset Extruder
G1 Z2.0 F3000 ;Move Z Axis up

G92 E0
G92 E0
G1 F1500 E-6.5
;LAYER_COUNT:26
;LAYER:0
M107
M204 S500
G0 F3600 X149.747 Y149.342 Z0.3
M204 S400
;TYPE:SKIRT
G1 F1500 E0
G1 F1200 X149.902 Y149.216 E0.00997
G1 X150.107 Y149.22 E0.0202
G1 X150.234 Y149.312 E0.02802
G1 X150.276 Y149.385 E0.03222
G1 X150.284 Y149.576 E0.04176
G1 X150.168 Y149.74 E0.05178
G1 X149.995 Y149.792 E0.06079
G1 X149.803 Y149.719 E0.07104
G1 X149.707 Y149.543 E0.08104
G1 X149.747 Y149.342 E0.09127
M204 S500
G0 F3600 X149.369 Y149.2
M204 S400
G1 F1200 X149.545 Y148.968 E0.1058
G1 X149.778 Y148.836 E0.11916
G1 X149.991 Y148.8 E0.12993
G1 X150.259 Y148.85 E0.14353
G1 X150.49 Y149 E0.15728
G1 X150.643 Y149.224 E0.17081
G1 X150.696 Y149.49 E0.18434
G1 X150.639 Y149.77 E0.1986
G1 X150.482 Y150.001 E0.21253
G1 X150.24 Y150.15 E0.22671
G1 X149.984 Y150.192 E0.23965
G1 X149.718 Y150.131 E0.25327
G1 X149.504 Y149.985 E0.26619
G1 X149.343 Y149.729 E0.28128
G1 X149.304 Y149.458 E0.29494
G1 X149.369 Y149.2 E0.30821
M204 S500
G0 F3600 X149.13 Y148.826
M204 S400
G1 F1200 X149.348 Y148.614 E0.32338
G1 X149.647 Y148.457 E0.34023
G1 X149.983 Y148.399 E0.35724
G1 X150.295 Y148.44 E0.37294
G1 X150.592 Y148.572 E0.38916
G1 X150.845 Y148.794 E0.40595
G1 X151.011 Y149.066 E0.42185
G1 X151.091 Y149.382 E0.43811
G1 X151.076 Y149.712 E0.45459
G1 X150.959 Y150.029 E0.47145
G1 X150.763 Y150.285 E0.48753
G1 X150.495 Y150.474 E0.5039
G1 X150.184 Y150.579 E0.52027
G1 X149.865 Y150.585 E0.53619
G1 X149.552 Y150.495 E0.55244
G1 X149.277 Y150.323 E0.56862
G1 X149.055 Y150.054 E0.58602
G1 X148.935 Y149.763 E0.60172
G1 X148.904 Y149.442 E0.61781
G1 X148.967 Y149.123 E0.63404
G1 X149.13 Y148.826 E0.65094
M204 S500
G0 F3600 X148.65 Y148.848
M204 S400
G1 F1200 X148.813 Y148.583 E0.66646
G1 X149.01 Y148.371 E0.6809
G1 X149.268 Y148.189 E0.69665
G1 X149.532 Y148.073 E0.71104
G1 X149.811 Y148.01 E0.72531
G1 X149.974 Y147.999 E0.73346
G1 X150.255 Y148.02 E0.74752
G1 X150.553 Y148.105 E0.76298
G1 X150.811 Y148.237 E0.77743
G1 X151.039 Y148.417 E0.79193
G1 X151.236 Y148.649 E0.80711
G1 X151.381 Y148.912 E0.82209
G1 X151.469 Y149.206 E0.83741
G1 X151.497 Y149.494 E0.85184
G1 X151.467 Y149.798 E0.86708
G1 X151.379 Y150.078 E0.88172
G1 X151.238 Y150.337 E0.89644
G1 X151.045 Y150.57 E0.91153
G1 X150.809 Y150.757 E0.92655
G1 X150.533 Y150.896 E0.94197
G1 X150.248 Y150.974 E0.95671
G1 X149.961 Y150.993 E0.97106
G1 X149.667 Y150.956 E0.98585
G1 X149.381 Y150.857 E1.00095
G1 X149.121 Y150.71 E1.01585
G1 X148.911 Y150.524 E1.02984
G1 X148.718 Y150.27 E1.04576
G1 X148.589 Y149.997 E1.06082
G1 X148.519 Y149.727 E1.07474
G1 X148.504 Y149.421 E1.09002
G1 X148.552 Y149.112 E1.10562
G1 X148.65 Y148.848 E1.11967
M204 S500
G0 F3600 X148.287 Y148.679
M204 S400
G1 F1200 X148.494 Y148.34 E1.13949
G1 X148.748 Y148.068 E1.15806
G1 X149.063 Y147.845 E1.17731
G1 X149.399 Y147.696 E1.19565
G1 X149.758 Y147.613 E1.21403
G1 X149.965 Y147.599 E1.22438
G1 X150.323 Y147.625 E1.24229
G1 X150.696 Y147.731 E1.26164
G1 X151.035 Y147.905 E1.28065
G1 X151.325 Y148.136 E1.29914
G1 X151.559 Y148.412 E1.3172
G1 X151.752 Y148.761 E1.33709
G1 X151.863 Y149.131 E1.35636
G1 X151.898 Y149.496 E1.37466
G1 X151.861 Y149.871 E1.39346
G1 X151.747 Y150.236 E1.41253
G1 X151.566 Y150.567 E1.43136
G1 X151.317 Y150.865 E1.45073
G1 X151.029 Y151.091 E1.46899
G1 X150.684 Y151.267 E1.48832
G1 X150.325 Y151.367 E1.50691
G1 X149.949 Y151.394 E1.52572
G1 X149.583 Y151.347 E1.54413
G1 X149.215 Y151.222 E1.56352
G1 X148.888 Y151.035 E1.58231
G1 X148.617 Y150.794 E1.6004
G1 X148.374 Y150.475 E1.62041
G1 X148.21 Y150.127 E1.6396
G1 X148.123 Y149.786 E1.65716
G1 X148.104 Y149.401 E1.67639
G1 X148.163 Y149.019 E1.69568
G1 X148.287 Y148.679 E1.71373
M204 S500
G0 F3600 X148.036 Y148.301
M204 S400
G1 F1200 X148.311 Y147.936 E1.73653
G1 X148.656 Y147.631 E1.7595
G1 X149.054 Y147.4 E1.78246
G1 X149.488 Y147.256 E1.80528
G1 X149.956 Y147.198 E1.8288
G1 X150.388 Y147.23 E1.85041
G1 X150.842 Y147.358 E1.87395
G1 X151.247 Y147.565 E1.89664
G1 X151.604 Y147.85 E1.91943
G1 X151.892 Y148.189 E1.94162
G1 X152.026 Y148.41 E1.95452
G1 X152.191 Y148.804 E1.97583
G1 X152.287 Y149.263 E1.99922
G1 X152.286 Y149.731 E2.02257
G1 X152.194 Y150.177 E2.04529
G1 X152.016 Y150.601 E2.06823
G1 X151.756 Y150.978 E2.09108
G1 X151.439 Y151.29 E2.11327
G1 X151.04 Y151.545 E2.13689
G1 X150.627 Y151.709 E2.15906
G1 X150.171 Y151.789 E2.18216
G1 X149.716 Y151.777 E2.20487
G1 X149.272 Y151.675 E2.2276
G1 X148.831 Y151.475 E2.25176
G1 X148.478 Y151.221 E2.27345
G1 X148.165 Y150.879 E2.29658
G1 X147.93 Y150.499 E2.31887
G1 X147.77 Y150.057 E2.34232
G1 X147.704 Y149.61 E2.36487
G1 X147.727 Y149.153 E2.3877
G1 X147.837 Y148.715 E2.41023
G1 X148.036 Y148.301 E2.43314
M204 S500
G1 F1500 E-4.06686
G0 F3600 X122.535 Y157.563
G0 X123.4 Y157.563
M204 S100
;TYPE:SUPPORT-INTERFACE
G1 F1500 E2.43314
G1 X123.432 Y157.677 E2.43905
G1 X123.879 Y159.009 E2.50915
G1 X124.377 Y160.283 E2.57739
G1 X124.948 Y161.548 E2.64663
G1 X125.578 Y162.78 E2.71567
G1 X126.271 Y163.98 E2.7848
G1 X127.03 Y165.154 E2.85455
G1 X127.837 Y166.28 E2.92366
G1 X128.696 Y167.358 E2.99243
G1 X129.613 Y168.394 E3.06146
G1 X130.58 Y169.387 E3.13061
G1 X131.609 Y170.343 E3.20068
G1 X132.665 Y171.229 E3.26945
G1 X133.761 Y172.06 E3.33807
G1 X134.905 Y172.842 E3.40721
G1 X136.09 Y173.564 E3.47643
G1 X137.325 Y174.237 E3.5466
G1 X138.568 Y174.834 E3.6154
G1 X139.836 Y175.37 E3.68408
G1 X141.148 Y175.85 E3.75378
G1 X142.458 Y176.254 E3.82217
G1 X143.814 Y176.598 E3.89197
G1 X145.16 Y176.872 E3.96049
G1 X146.552 Y177.081 E4.03072
G1 X146.703 Y177.096 E4.03829
G1 X123.4 Y177.096 E5.20088
G1 X123.4 Y157.563 E6.17539
M204 S500
G1 F1500 E-0.32461
G0 F3600 X122.535 Y157.563
G0 X122.539 Y177.453
G0 X123.043 Y177.957
G0 X153.303 Y177.961
G0 X153.303 Y177.096
M204 S100
G1 F1500 E6.17539
G1 X153.443 Y177.082 E6.18241
G1 X154.835 Y176.872 E6.25264
G1 X156.18 Y176.6 E6.3211
G1 X157.538 Y176.255 E6.391
G1 X158.846 Y175.851 E6.4593
G1 X160.16 Y175.372 E6.52908
G1 X161.428 Y174.836 E6.59776
G1 X162.671 Y174.239 E6.66655
G1 X163.906 Y173.566 E6.73672
G1 X165.089 Y172.844 E6.80587
G1 X166.234 Y172.064 E6.87499
G1 X167.331 Y171.233 E6.94365
G1 X168.387 Y170.347 E7.01242
G1 X169.417 Y169.391 E7.08253
G1 X170.384 Y168.398 E7.15168
G1 X171.301 Y167.362 E7.2207
G1 X172.16 Y166.284 E7.28947
G1 X172.967 Y165.158 E7.35859
G1 X173.726 Y163.986 E7.42825
G1 X174.419 Y162.786 E7.49738
G1 X175.05 Y161.552 E7.56653
G1 X175.621 Y160.289 E7.63568
G1 X176.119 Y159.014 E7.70397
G1 X176.566 Y157.682 E7.77407
G1 X176.6 Y157.561 E7.78034
G1 X176.6 Y177.096 E8.75494
G1 X153.303 Y177.096 E9.91723
M204 S500
G1 F1500 E3.41723
G0 F3600 X153.303 Y177.961
G0 X156.387 Y177.961
G0 X156.387 Y176.752
M204 S100
G1 F1500 E9.91723
G1 X156.53 Y176.894 E9.92729
M204 S500
G0 F3600 X159.121 Y176.895
M204 S100
G1 F1500 X160.625 Y175.391 E10.0334
M204 S500
G0 F3600 X161.462 Y175.038
M204 S100
G1 F1500 X163.318 Y176.894 E10.16435
M204 S500
G0 F3600 X162.515 Y176.895
M204 S100
G1 F1500 X176.399 Y163.012 E11.14391
M204 S500
G0 F3600 X176.399 Y162.823
M204 S100
G1 F1500 X175.224 Y161.648 E11.22681
M204 S500
G0 F3600 X175.903 Y160.113
M204 S100
G1 F1500 X176.399 Y159.618 E11.26177
M204 S500
G0 F3600 X176.399 Y159.429
M204 S100
G1 F1500 X176.234 Y159.263 E11.27345
M204 S500
G1 F1500 E4.77345
G0 F3600 X177.465 Y159.263
G0 X177.465 Y163.85
G0 X174.033 Y163.85
M204 S100
G1 F1500 E11.27345
G1 X176.399 Y166.217 E11.44042
M204 S500
G0 F3600 X176.399 Y166.406
M204 S100
G1 F1500 X165.909 Y176.895 E12.18051
M204 S500
G0 F3600 X166.712 Y176.894
M204 S100
G1 F1500 X163.715 Y173.897 E12.39196
M204 S500
G0 F3600 X165.808 Y172.596
M204 S100
G1 F1500 X170.106 Y176.894 E12.69521
M204 S500
G0 F3600 X169.303 Y176.895
M204 S100
G1 F1500 X176.399 Y169.8 E13.19584
M204 S500
G0 F3600 X176.399 Y169.611
M204 S100
G1 F1500 X172.683 Y165.895 E13.45802
M204 S500
G0 F3600 X171.186 Y167.792
M204 S100
G1 F1500 X176.399 Y173.005 E13.82583
M204 S500
G0 F3600 X176.399 Y173.194
M204 S100
G1 F1500 X172.698 Y176.895 E14.08695
M204 S500
G0 F3600 X173.5 Y176.894
M204 S100
G1 F1500 X167.749 Y171.143 E14.49272
M204 S500
G0 F3600 X169.545 Y169.545
M204 S100
G1 F1500 X176.399 Y176.399 E14.9763
M204 S500
G0 F3600 X176.399 Y176.588
M204 S100
G1 F1500 X176.092 Y176.895 E14.99796
M204 S500
G1 F1500 E8.49796
G0 F3600 X176.092 Y177.961
G0 X159.924 Y177.961
G0 X159.924 Y176.894
M204 S100
G1 F1500 E14.99796
G1 X159.027 Y175.998 E15.06122
M204 S500
G1 F1500 E8.56122
G0 F3600 X159.027 Y177.961
G0 X142.953 Y177.961
G0 X142.953 Y176.894
M204 S100
G1 F1500 E15.06122
G1 X142.539 Y176.481 E15.09039
M204 S500
G0 F3600 X142.56 Y176.486
M204 S100
G1 F1500 X142.151 Y176.895 E15.11925
M204 S500
G0 F3600 X140.007 Y175.644
M204 S100
G1 F1500 X138.756 Y176.895 E15.20751
M204 S500
G0 F3600 X139.559 Y176.894
M204 S100
G1 F1500 X136.893 Y174.228 E15.39561
M204 S500
G0 F3600 X137.646 Y174.611
M204 S100
G1 F1500 X135.362 Y176.895 E15.55676
M204 S500
G0 F3600 X136.165 Y176.894
M204 S100
G1 F1500 X123.6 Y164.329 E16.44329
M204 S500
G0 F3600 X123.6 Y164.899
M204 S100
G1 F1500 X125.483 Y163.016 E16.57615
M204 S500
G0 F3600 X125.257 Y162.592
M204 S100
G1 F1500 X123.6 Y160.935 E16.69306
M204 S500
G0 F3600 X123.6 Y161.505
M204 S100
G1 F1500 X124.364 Y160.74 E16.747
M204 S500
G0 F3600 X126.771 Y165.122
M204 S100
G1 F1500 X123.6 Y168.293 E16.97073
M204 S500
G0 F3600 X123.6 Y167.723
M204 S100
G1 F1500 X132.771 Y176.894 E17.61779
M204 S500
G0 F3600 X131.968 Y176.895
M204 S100
G1 F1500 X135.454 Y173.41 E17.86371
M204 S500
G0 F3600 X133.419 Y172.05
M204 S100
G1 F1500 X128.574 Y176.895 E18.20555
M204 S500
G0 F3600 X129.377 Y176.894
M204 S100
G1 F1500 X123.6 Y171.117 E18.61315
M204 S500
G0 F3600 X123.6 Y171.687
M204 S100
G1 F1500 X128.213 Y167.074 E18.93862
M204 S500
G0 F3600 X129.804 Y168.877
M204 S100
G1 F1500 X123.6 Y175.081 E19.37635
M204 S500
G0 F3600 X123.6 Y174.511
M204 S100
G1 F1500 X125.983 Y176.894 E19.54448
M204 S500
G0 F3600 X125.18 Y176.895
M204 S100
G1 F1500 X131.535 Y170.54 E19.99286
M204 S500
G1 F1500 E13.49286
;MESH:A4-J1-PLATE-2.0.stl
G0 F3600 X131.535 Y177.961
G0 X150.606 Y152.124
G0 X152.633 Y149.499
G0 X156.456 Y144.202
G0 X155.956 Y145.993
G0 X156.499 Y145.908
M204 S100
;TYPE:WALL-INNER
G1 F1500 E19.99286
G1 X156.996 Y145.932 E20.01769
G1 X157.496 Y145.884 E20.04275
G1 X157.986 Y145.759 E20.06798
G1 X158.444 Y145.564 E20.09281
G1 X158.87 Y145.305 E20.11768
G1 X159.256 Y144.982 E20.14279
G1 X159.589 Y144.605 E20.16789
G1 X159.86 Y144.183 E20.19291
G1 X159.871 Y144.157 E20.19432
G1 X160.065 Y143.73 E20.21772
G1 X160.202 Y143.247 E20.24276
G1 X160.264 Y142.748 E20.26785
G1 X160.252 Y142.247 E20.29285
G1 X160.164 Y141.754 E20.31784
G1 X160.008 Y141.283 E20.34259
G1 X159.779 Y140.839 E20.36752
G1 X159.489 Y140.43 E20.39253
G1 X159.132 Y140.066 E20.41797
G1 X158.735 Y139.765 E20.44282
G1 X158.293 Y139.523 E20.46796
G1 X157.825 Y139.355 E20.49277
G1 X157.332 Y139.254 E20.51788
G1 X156.832 Y139.23 E20.54285
G1 X156.333 Y139.278 E20.56786
G1 X155.844 Y139.403 E20.59304
G1 X155.386 Y139.598 E20.61787
G1 X154.96 Y139.857 E20.64275
G1 X154.574 Y140.18 E20.66786
G1 X154.241 Y140.557 E20.69295
G1 X153.971 Y140.977 E20.71786
G1 X153.764 Y141.432 E20.7428
G1 X153.627 Y141.915 E20.76785
G1 X153.565 Y142.414 E20.79294
G1 X153.577 Y142.915 E20.81794
G1 X153.666 Y143.411 E20.84308
G1 X153.824 Y143.884 E20.86796
G1 X154.05 Y144.325 E20.89268
G1 X154.345 Y144.737 E20.91796
G1 X154.696 Y145.095 E20.94298
G1 X155.094 Y145.397 E20.9679
G1 X155.535 Y145.639 E20.993
G1 X156.008 Y145.809 E21.01807
G1 X156.499 Y145.908 E21.04306
M204 S500
G0 F3600 X156.548 Y145.51
M204 S100
G1 F1500 X156.987 Y145.531 E21.06499
G1 X157.427 Y145.489 E21.08704
G1 X157.857 Y145.379 E21.10918
G1 X158.261 Y145.207 E21.13109
G1 X158.637 Y144.979 E21.15303
G1 X158.976 Y144.695 E21.17509
G1 X159.269 Y144.363 E21.19718
G1 X159.508 Y143.992 E21.2192
G1 X159.688 Y143.592 E21.24108
G1 X159.809 Y143.167 E21.26313
G1 X159.863 Y142.728 E21.2852
G1 X159.853 Y142.287 E21.3072
G1 X159.775 Y141.853 E21.3292
G1 X159.638 Y141.438 E21.35101
G1 X159.436 Y141.047 E21.37296
G1 X159.181 Y140.687 E21.39497
G1 X158.867 Y140.367 E21.41734
G1 X158.517 Y140.102 E21.43924
G1 X158.128 Y139.889 E21.46137
G1 X157.717 Y139.741 E21.48316
G1 X157.282 Y139.652 E21.50531
G1 X156.842 Y139.631 E21.52729
G1 X156.402 Y139.673 E21.54934
G1 X155.973 Y139.783 E21.57144
G1 X155.569 Y139.955 E21.59334
G1 X155.193 Y140.183 E21.61528
G1 X154.854 Y140.467 E21.63735
G1 X154.561 Y140.799 E21.65944
G1 X154.323 Y141.169 E21.68139
G1 X154.141 Y141.57 E21.70336
G1 X154.02 Y141.995 E21.7254
G1 X153.966 Y142.434 E21.74747
G1 X153.976 Y142.875 E21.76948
G1 X154.055 Y143.312 E21.79163
G1 X154.194 Y143.728 E21.81351
G1 X154.393 Y144.116 E21.83527
G1 X154.652 Y144.479 E21.85752
G1 X154.961 Y144.794 E21.87953
G1 X155.312 Y145.06 E21.9015
G1 X155.7 Y145.273 E21.92358
G1 X156.116 Y145.423 E21.94565
G1 X156.548 Y145.51 E21.96763
M204 S500
G0 F3600 X156.597 Y145.112
M204 S100
;TYPE:WALL-OUTER
G1 F1500 X156.978 Y145.13 E21.98666
G1 X157.358 Y145.094 E22.0057
G1 X157.728 Y144.999 E22.02476
G1 X158.078 Y144.85 E22.04374
G1 X158.404 Y144.653 E22.06274
G1 X158.696 Y144.408 E22.08176
G1 X158.949 Y144.121 E22.10085
G1 X159.155 Y143.801 E22.11984
G1 X159.311 Y143.454 E22.13882
G1 X159.416 Y143.087 E22.15786
G1 X159.462 Y142.708 E22.17691
G1 X159.454 Y142.327 E22.19592
G1 X159.386 Y141.952 E22.21493
G1 X159.268 Y141.593 E22.23379
G1 X159.093 Y141.255 E22.25278
G1 X158.873 Y140.944 E22.27178
G1 X158.602 Y140.668 E22.29108
G1 X158.299 Y140.439 E22.31003
G1 X157.963 Y140.255 E22.32914
G1 X157.608 Y140.127 E22.34797
G1 X157.232 Y140.05 E22.36712
G1 X156.851 Y140.032 E22.38614
G1 X156.471 Y140.068 E22.40519
G1 X156.102 Y140.163 E22.4242
G1 X155.752 Y140.312 E22.44318
G1 X155.426 Y140.509 E22.46218
G1 X155.134 Y140.754 E22.4812
G1 X154.881 Y141.041 E22.50028
G1 X154.675 Y141.361 E22.51927
G1 X154.518 Y141.708 E22.53827
G1 X154.413 Y142.075 E22.55732
G1 X154.367 Y142.454 E22.57636
G1 X154.375 Y142.835 E22.59538
G1 X154.443 Y143.212 E22.61449
G1 X154.564 Y143.572 E22.63343
G1 X154.736 Y143.907 E22.65222
G1 X154.96 Y144.221 E22.67147
G1 X155.226 Y144.493 E22.69045
G1 X155.53 Y144.723 E22.70946
G1 X155.865 Y144.907 E22.72853
G1 X156.224 Y145.037 E22.74758
G1 X156.597 Y145.112 E22.76656
M204 S500
G0 F3600 X156.544 Y145.548
G1 F1500 E16.26656
G0 F3600 X154.199 Y144.86
G0 X155.621 Y143.661
G0 X144.066 Y143.951
G0 X145.152 Y145.46
G0 X143.667 Y145.884
M204 S100
;TYPE:WALL-INNER
G1 F1500 E22.76656
G1 X144.156 Y145.759 E22.79174
G1 X144.614 Y145.564 E22.81658
G1 X145.04 Y145.305 E22.84145
G1 X145.426 Y144.982 E22.86656
G1 X145.759 Y144.605 E22.89166
G1 X146.029 Y144.185 E22.91657
G1 X146.236 Y143.73 E22.94151
G1 X146.373 Y143.247 E22.96655
G1 X146.435 Y142.748 E22.99164
G1 X146.423 Y142.247 E23.01664
G1 X146.335 Y141.753 E23.04168
G1 X146.178 Y141.281 E23.06649
G1 X145.949 Y140.838 E23.09137
G1 X145.659 Y140.43 E23.11635
G1 X145.304 Y140.067 E23.14168
G1 X144.906 Y139.765 E23.1666
G1 X144.463 Y139.523 E23.19179
G1 X143.997 Y139.355 E23.2165
G1 X143.503 Y139.254 E23.24166
G1 X143.003 Y139.23 E23.26663
G1 X142.504 Y139.278 E23.29164
G1 X142.014 Y139.403 E23.31687
G1 X141.556 Y139.598 E23.3417
G1 X141.13 Y139.857 E23.36658
