;FLAVOR:Marlin
;TIME:2715
;Filament used: 1.73954m
;Layer height: 0.2
;MINX:129.385
;MINY:130.002
;MINZ:0.3
;MAXX:170.615
;MAXY:170.612
;MAXZ:4.9
;Generated with Cura_SteamEngine 4.10.0
M140 S60
M105
M190 S60
M104 S210
M105
M109 S210
M82 ;absolute extrusion mode
M201 X500.00 Y500.00 Z100.00 E5000.00 ;Setup machine max acceleration
M203 X500.00 Y500.00 Z10.00 E50.00 ;Setup machine max feedrate
M204 P500.00 R1000.00 T500.00 ;Setup Print/Retract/Travel acceleration
M205 X8.00 Y8.00 Z0.40 E5.00 ;Setup Jerk
M220 S100 ;Reset Feedrate
M221 S100 ;Reset Flowrate

G28 ;Home

G92 E0 ;Reset Extruder
G1 Z2.0 F3000 ;Move Z Axis up
G1 X10.1 Y20 Z0.28 F5000.0 ;Move to start position
G1 X10.1 Y200.0 Z0.28 F1500.0 E15 ;Draw the first line
G1 X10.4 Y200.0 Z0.28 F5000.0 ;Move to side a little
G1 X10.4 Y20 Z0.28 F1500.0 E30 ;Draw the second line
G92 E0 ;Reset Extruder
G1 Z2.0 F3000 ;Move Z Axis up

G92 E0
G92 E0
G1 F2700 E-5
;LAYER_COUNT:25
;LAYER:0
M107
M204 S500
G0 F6000 X149.944 Y149.918 Z0.3
;TYPE:SKIRT
G1 F2700 E0
G1 F1200 X150.061 Y149.922 E0.00584
G1 X150.092 Y150.029 E0.0114
G1 X150.012 Y150.093 E0.01651
G1 X149.908 Y150.021 E0.02282
G1 X149.944 Y149.918 E0.02826
G0 F6000 X149.654 Y149.641
G1 F1200 X149.867 Y149.52 E0.04049
G1 X149.991 Y149.5 E0.04675
G1 X150.241 Y149.563 E0.05961
G1 X150.421 Y149.736 E0.07207
G1 X150.495 Y149.97 E0.08431
G1 X150.457 Y150.195 E0.0957
G1 X150.294 Y150.396 E0.10861
G1 X150.069 Y150.489 E0.12076
G1 X149.818 Y150.459 E0.13337
G1 X149.607 Y150.301 E0.14652
G1 X149.516 Y150.103 E0.15739
G1 X149.526 Y149.851 E0.16997
G1 X149.654 Y149.641 E0.18224
G0 F6000 X149.375 Y149.353
G1 F1200 X149.597 Y149.195 E0.19584
G1 X149.855 Y149.112 E0.20936
G1 X150.008 Y149.101 E0.21701
G1 X150.281 Y149.146 E0.23081
G1 X150.532 Y149.274 E0.24487
G1 X150.768 Y149.535 E0.26243
G1 X150.868 Y149.767 E0.27503
G1 X150.896 Y150.039 E0.28867
G1 X150.845 Y150.303 E0.30209
G1 X150.71 Y150.544 E0.31587
G1 X150.519 Y150.728 E0.3291
G1 X150.28 Y150.85 E0.34249
G1 X150.033 Y150.893 E0.35499
G1 X149.754 Y150.859 E0.36902
G1 X149.502 Y150.743 E0.38286
G1 X149.307 Y150.567 E0.39596
G1 X149.143 Y150.26 E0.41333
G1 X149.102 Y149.983 E0.4273
G1 X149.178 Y149.639 E0.44487
G1 X149.375 Y149.353 E0.4622
G0 F6000 X149.096 Y149.066
G1 F1200 X149.409 Y148.841 E0.48143
G1 X149.658 Y148.746 E0.49473
G1 X150.016 Y148.7 E0.51273
G1 X150.303 Y148.736 E0.52717
G1 X150.634 Y148.865 E0.54489
G1 X150.953 Y149.115 E0.56511
G1 X151.111 Y149.327 E0.5783
G1 X151.228 Y149.574 E0.59194
G1 X151.295 Y149.93 E0.61001
G1 X151.28 Y150.206 E0.6238
G1 X151.182 Y150.537 E0.64102
G1 X151.029 Y150.787 E0.65564
G1 X150.841 Y150.985 E0.66927
G1 X150.515 Y151.188 E0.68842
G1 X150.167 Y151.284 E0.70644
G1 X149.893 Y151.29 E0.72011
G1 X149.644 Y151.244 E0.73274
G1 X149.282 Y151.078 E0.75261
G1 X148.995 Y150.818 E0.77193
G1 X148.81 Y150.514 E0.78968
G1 X148.731 Y150.262 E0.80286
G1 X148.702 Y149.983 E0.81685
G1 X148.758 Y149.625 E0.83493
G1 X148.862 Y149.374 E0.84849
G1 X149.096 Y149.066 E0.86779
G0 F6000 X148.937 Y148.672
G1 F1200 X149.234 Y148.481 E0.8854
G1 X149.548 Y148.361 E0.90217
G1 X149.871 Y148.303 E0.91854
G1 X150.024 Y148.3 E0.92618
G1 X150.396 Y148.346 E0.94488
G1 X150.694 Y148.447 E0.96058
G1 X150.996 Y148.621 E0.97797
G1 X151.245 Y148.841 E0.99454
G1 X151.453 Y149.119 E1.01187
G1 X151.604 Y149.436 E1.02938
G1 X151.676 Y149.72 E1.044
G1 X151.696 Y150.074 E1.06169
G1 X151.644 Y150.423 E1.07929
G1 X151.546 Y150.704 E1.09414
G1 X151.347 Y151.029 E1.11315
G1 X151.108 Y151.283 E1.13055
G1 X150.843 Y151.471 E1.14676
G1 X150.54 Y151.608 E1.16335
G1 X150.222 Y151.681 E1.17963
G1 X149.868 Y151.69 E1.1973
G1 X149.533 Y151.629 E1.21429
G1 X149.236 Y151.513 E1.23019
G1 X148.937 Y151.321 E1.24792
G1 X148.688 Y151.076 E1.26535
G1 X148.519 Y150.831 E1.2802
G1 X148.379 Y150.501 E1.29808
G1 X148.309 Y150.143 E1.31628
G1 X148.309 Y149.84 E1.3314
G1 X148.378 Y149.499 E1.34876
G1 X148.51 Y149.181 E1.36593
G1 X148.691 Y148.915 E1.38198
G1 X148.937 Y148.672 E1.39924
G0 F6000 X148.682 Y148.364
G1 F1200 X149.054 Y148.123 E1.42135
G1 X149.208 Y148.053 E1.42979
G1 X149.449 Y147.973 E1.44246
G1 X149.84 Y147.904 E1.46227
G1 X150.032 Y147.899 E1.47185
G1 X150.487 Y147.956 E1.49473
G1 X150.86 Y148.082 E1.51437
G1 X151.224 Y148.292 E1.53533
G1 X151.538 Y148.567 E1.55616
G1 X151.659 Y148.711 E1.56554
G1 X151.801 Y148.921 E1.57819
G1 X151.979 Y149.294 E1.59881
G1 X152.072 Y149.661 E1.6177
G1 X152.096 Y150.095 E1.63938
G1 X152.034 Y150.516 E1.66061
G1 X151.908 Y150.875 E1.67959
G1 X151.666 Y151.272 E1.70279
G1 X151.369 Y151.586 E1.72435
G1 X151.039 Y151.82 E1.74454
G1 X150.672 Y151.986 E1.76463
G1 X150.267 Y152.079 E1.78536
G1 X149.843 Y152.089 E1.80652
G1 X149.422 Y152.014 E1.82786
G1 X149.053 Y151.87 E1.84762
G1 X148.685 Y151.632 E1.86948
G1 X148.385 Y151.338 E1.89044
G1 X148.173 Y151.032 E1.90901
G1 X147.996 Y150.617 E1.93152
G1 X147.912 Y150.188 E1.95333
G1 X147.911 Y149.797 E1.97284
G1 X147.996 Y149.378 E1.99417
G1 X148.159 Y148.989 E2.01521
G1 X148.382 Y148.66 E2.03504
G1 X148.682 Y148.364 E2.05606
G1 F2700 E-2.94394
;MESH:A4-J3-PLATE-1.0.stl
G0 F6000 X143.642 Y144.51
G0 X144.349 Y146.231
G0 X143.567 Y146.249
;TYPE:WALL-INNER
G1 F2700 E2.05606
G1 F1200 X143.933 Y146.17 E2.07474
G1 X144.276 Y146.054 E2.09281
G1 X144.688 Y145.855 E2.11563
G1 X145.096 Y145.574 E2.14035
G1 X145.426 Y145.265 E2.16291
G1 X145.661 Y144.984 E2.18118
G1 X145.929 Y144.555 E2.20642
G1 X146.08 Y144.208 E2.2253
G1 X146.085 Y144.19 E2.22623
G1 X146.187 Y143.879 E2.24256
G1 X146.273 Y143.386 E2.26753
G1 X146.283 Y142.936 E2.28998
G1 X146.245 Y142.561 E2.30879
G1 X146.137 Y142.114 E2.33173
G1 X145.964 Y141.675 E2.35527
G1 X145.732 Y141.281 E2.37808
G1 X145.52 Y141.005 E2.39544
G1 X145.219 Y140.696 E2.41697
G1 X144.935 Y140.468 E2.43514
G1 X144.642 Y140.286 E2.45234
G1 X144.622 Y140.277 E2.45344
G1 X144.252 Y140.1 E2.4739
G1 X143.768 Y139.952 E2.49915
G1 X143.311 Y139.888 E2.52217
G1 X142.848 Y139.888 E2.54527
G1 X142.358 Y139.962 E2.57
G1 X141.902 Y140.106 E2.59385
G1 X141.481 Y140.309 E2.61717
G1 X141.075 Y140.59 E2.6418
G1 X140.736 Y140.905 E2.66489
G1 X140.432 Y141.29 E2.68937
G1 X140.215 Y141.666 E2.71102
G1 X140.058 Y142.035 E2.73103
G1 X139.94 Y142.478 E2.7539
G1 X139.886 Y142.934 E2.77681
G1 X139.898 Y143.364 E2.79827
G1 X139.944 Y143.704 E2.81539
G1 X140.034 Y144.049 E2.83318
G1 X140.206 Y144.488 E2.8567
G1 X140.427 Y144.864 E2.87846
G1 X140.646 Y145.156 E2.89667
G1 X140.991 Y145.506 E2.92119
G1 X141.335 Y145.762 E2.94258
G1 X141.776 Y146.007 E2.96775
G1 X142.194 Y146.156 E2.98989
G1 X142.525 Y146.233 E3.00684
G1 X142.849 Y146.274 E3.02314
G1 X143.038 Y146.283 E3.03258
G1 X143.567 Y146.249 E3.05902
G0 F6000 X143.512 Y145.852
G1 F1200 X143.826 Y145.784 E3.07505
G1 X144.124 Y145.683 E3.09075
G1 X144.486 Y145.508 E3.11081
G1 X144.845 Y145.261 E3.13255
G1 X145.135 Y144.99 E3.15235
G1 X145.336 Y144.749 E3.16801
G1 X145.574 Y144.368 E3.19042
G1 X145.706 Y144.066 E3.20687
G1 X145.798 Y143.782 E3.22176
G1 X145.874 Y143.347 E3.24379
G1 X145.883 Y142.952 E3.2635
G1 X145.85 Y142.629 E3.2797
G1 X145.755 Y142.235 E3.29992
G1 X145.603 Y141.851 E3.32052
G1 X145.4 Y141.505 E3.34054
G1 X145.217 Y141.267 E3.35552
G1 X144.95 Y140.993 E3.3746
G1 X144.703 Y140.795 E3.3904
G1 X144.45 Y140.637 E3.40528
G1 X144.107 Y140.474 E3.42422
G1 X143.681 Y140.344 E3.44644
G1 X143.283 Y140.288 E3.4665
G1 X142.878 Y140.288 E3.4867
G1 X142.449 Y140.353 E3.50835
G1 X142.05 Y140.479 E3.52922
G1 X141.683 Y140.656 E3.54955
G1 X141.326 Y140.903 E3.57121
G1 X141.031 Y141.177 E3.5913
G1 X140.764 Y141.515 E3.61279
G1 X140.574 Y141.845 E3.63178
G1 X140.437 Y142.166 E3.6492
G1 X140.334 Y142.553 E3.66918
G1 X140.287 Y142.952 E3.68922
G1 X140.297 Y143.332 E3.70818
G1 X140.337 Y143.626 E3.72299
G1 X140.415 Y143.925 E3.7384
G1 X140.567 Y144.312 E3.75915
G1 X140.761 Y144.642 E3.77825
G1 X140.95 Y144.895 E3.794
G1 X141.254 Y145.203 E3.81559
G1 X141.552 Y145.425 E3.83413
G1 X141.942 Y145.641 E3.85637
G1 X142.307 Y145.772 E3.87572
G1 X142.595 Y145.839 E3.89047
G1 X142.883 Y145.875 E3.90495
G1 X143.035 Y145.882 E3.91254
G1 X143.512 Y145.852 E3.93639
G0 F6000 X143.457 Y145.455
;TYPE:WALL-OUTER
G1 F1200 X143.719 Y145.398 E3.94977
G1 X143.972 Y145.312 E3.9631
G1 X144.284 Y145.161 E3.98039
G1 X144.594 Y144.948 E3.99915
G1 X144.844 Y144.715 E4.0162
G1 X145.011 Y144.514 E4.02924
G1 X145.219 Y144.181 E4.04883
G1 X145.332 Y143.924 E4.06284
G1 X145.409 Y143.686 E4.07532
G1 X145.475 Y143.308 E4.09446
G1 X145.483 Y142.968 E4.11143
G1 X145.455 Y142.697 E4.12502
G1 X145.373 Y142.356 E4.14252
G1 X145.242 Y142.027 E4.16018
G1 X145.068 Y141.729 E4.1774
G1 X144.914 Y141.53 E4.18995
G1 X144.681 Y141.29 E4.20664
G1 X144.471 Y141.122 E4.22006
G1 X144.257 Y140.988 E4.23266
G1 X143.962 Y140.848 E4.24895
G1 X143.594 Y140.736 E4.26814
G1 X143.255 Y140.688 E4.28522
G1 X142.908 Y140.688 E4.30253
G1 X142.54 Y140.744 E4.3211
G1 X142.198 Y140.852 E4.339
G1 X141.885 Y141.003 E4.35633
G1 X141.577 Y141.216 E4.37502
G1 X141.326 Y141.449 E4.3921
G1 X141.096 Y141.74 E4.41061
G1 X140.932 Y142.024 E4.42697
G1 X140.816 Y142.296 E4.44172
G1 X140.728 Y142.628 E4.45886
G1 X140.688 Y142.97 E4.47604
G1 X140.696 Y143.3 E4.4925
G1 X140.73 Y143.548 E4.50499
G1 X140.796 Y143.801 E4.51804
G1 X140.928 Y144.137 E4.53605
G1 X141.094 Y144.42 E4.55242
G1 X141.254 Y144.633 E4.56571
G1 X141.518 Y144.901 E4.58448
G1 X141.769 Y145.088 E4.60009
G1 X142.108 Y145.275 E4.61941
G1 X142.421 Y145.388 E4.63601
G1 X142.665 Y145.445 E4.64851
G1 X142.916 Y145.476 E4.66113
G1 X143.031 Y145.481 E4.66687
G1 X143.457 Y145.455 E4.68816
G0 F6000 X143.517 Y145.89
G1 F2700 E-0.31184
G0 F6000 X145.565 Y145.397
G0 X144.209 Y144.127
G0 X155.648 Y143.946
G0 X154.335 Y145.283
G0 X157.152 Y146.276
;TYPE:WALL-INNER
G1 F2700 E4.68816
G1 F1200 X157.642 Y146.202 E4.71289
G1 X158.098 Y146.058 E4.73674
G1 X158.518 Y145.855 E4.76002
G1 X158.925 Y145.574 E4.78469
G1 X159.264 Y145.259 E4.80778
G1 X159.571 Y144.87 E4.8325
G1 X159.796 Y144.478 E4.85505
G1 X159.986 Y143.991 E4.88113
G1 X160.072 Y143.597 E4.90125
G1 X160.114 Y143.228 E4.91978
G1 X160.102 Y142.78 E4.94214
G1 X160.017 Y142.283 E4.96729
G1 X159.864 Y141.834 E4.99096
G1 X159.651 Y141.422 E5.0141
G1 X159.452 Y141.128 E5.03181
G1 X159.148 Y140.788 E5.05456
G1 X158.767 Y140.47 E5.07932
G1 X158.409 Y140.252 E5.10023
G1 X158.081 Y140.102 E5.11823
G1 X157.597 Y139.952 E5.14351
G1 X157.14 Y139.888 E5.16653
G1 X156.677 Y139.888 E5.18963
G1 X156.187 Y139.962 E5.21435
G1 X155.732 Y140.106 E5.23816
G1 X155.311 Y140.309 E5.26148
G1 X154.904 Y140.591 E5.28618
G1 X154.574 Y140.899 E5.30871
G1 X154.339 Y141.18 E5.32698
G1 X154.071 Y141.609 E5.35222
G1 X153.902 Y141.996 E5.37328
G1 X153.769 Y142.474 E5.39804
G1 X153.715 Y142.934 E5.42115
G1 X153.727 Y143.364 E5.44261
G1 X153.773 Y143.704 E5.45972
G1 X153.863 Y144.05 E5.47756
G1 X154.036 Y144.487 E5.50101
G1 X154.266 Y144.883 E5.52386
G1 X154.479 Y145.158 E5.54121
G1 X154.788 Y145.477 E5.56337
G1 X155.068 Y145.697 E5.58113
G1 X155.357 Y145.878 E5.59814
G1 X155.728 Y146.054 E5.61863
G1 X155.906 Y146.12 E5.6281
G1 X156.241 Y146.212 E5.64543
G1 X156.689 Y146.276 E5.66801
G1 X157.152 Y146.276 E5.69111
G0 F6000 X157.122 Y145.876
G1 F1200 X157.551 Y145.811 E5.71276
G1 X157.95 Y145.685 E5.73363
G1 X158.316 Y145.508 E5.75392
G1 X158.674 Y145.261 E5.77562
G1 X158.969 Y144.987 E5.7957
G1 X159.239 Y144.645 E5.81744
G1 X159.434 Y144.305 E5.837
G1 X159.602 Y143.875 E5.86003
G1 X159.677 Y143.532 E5.87754
G1 X159.713 Y143.211 E5.89366
G1 X159.703 Y142.819 E5.91322
G1 X159.628 Y142.382 E5.93534
G1 X159.495 Y141.991 E5.95595
G1 X159.306 Y141.626 E5.97645
G1 X159.136 Y141.374 E5.99162
G1 X158.869 Y141.076 E6.01158
G1 X158.534 Y140.796 E6.03336
G1 X158.221 Y140.606 E6.05163
G1 X157.938 Y140.476 E6.06717
G1 X157.51 Y140.344 E6.08952
G1 X157.112 Y140.288 E6.10957
G1 X156.707 Y140.288 E6.12977
G1 X156.278 Y140.353 E6.15142
G1 X155.88 Y140.479 E6.17225
G1 X155.513 Y140.656 E6.19258
G1 X155.155 Y140.903 E6.21427
G1 X154.865 Y141.174 E6.23408
G1 X154.664 Y141.415 E6.24973
G1 X154.426 Y141.796 E6.27215
G1 X154.28 Y142.13 E6.29033
G1 X154.163 Y142.551 E6.31213
G1 X154.116 Y142.952 E6.33227
G1 X154.126 Y143.332 E6.35124
G1 X154.166 Y143.626 E6.36604
G1 X154.244 Y143.926 E6.38151
G1 X154.397 Y144.312 E6.40222
G1 X154.599 Y144.659 E6.42225
G1 X154.782 Y144.896 E6.43719
G1 X155.056 Y145.179 E6.45684
G1 X155.298 Y145.369 E6.47219
G1 X155.55 Y145.527 E6.48703
G1 X155.883 Y145.685 E6.50542
G1 X156.029 Y145.739 E6.51319
G1 X156.323 Y145.82 E6.5284
G1 X156.717 Y145.876 E6.54826
G1 X157.122 Y145.876 E6.56846
G0 F6000 X157.092 Y145.476
;TYPE:WALL-OUTER
G1 F1200 X157.46 Y145.42 E6.58703
G1 X157.802 Y145.312 E6.60493
G1 X158.114 Y145.161 E6.62222
G1 X158.423 Y144.948 E6.64094
G1 X158.674 Y144.715 E6.65803
G1 X158.907 Y144.42 E6.67678
G1 X159.072 Y144.132 E6.69334
G1 X159.218 Y143.759 E6.71333
G1 X159.282 Y143.467 E6.72824
G1 X159.312 Y143.194 E6.74194
G1 X159.304 Y142.858 E6.75871
G1 X159.239 Y142.481 E6.7778
G1 X159.126 Y142.148 E6.79534
G1 X158.962 Y141.831 E6.81315
G1 X158.82 Y141.621 E6.82579
G1 X158.59 Y141.364 E6.843
G1 X158.301 Y141.122 E6.86181
G1 X158.033 Y140.96 E6.87743
G1 X157.795 Y140.85 E6.89051
G1 X157.423 Y140.736 E6.90992
G1 X157.084 Y140.688 E6.927
G1 X156.737 Y140.688 E6.94431
G1 X156.369 Y140.744 E6.96289
G1 X156.028 Y140.852 E6.98073
G1 X155.715 Y141.003 E6.99807
G1 X155.406 Y141.216 E7.01679
G1 X155.156 Y141.449 E7.03384
G1 X154.989 Y141.65 E7.04688
G1 X154.781 Y141.983 E7.06647
G1 X154.658 Y142.264 E7.08177
G1 X154.557 Y142.628 E7.10062
G1 X154.517 Y142.97 E7.1178
G1 X154.525 Y143.3 E7.13426
G1 X154.559 Y143.548 E7.14675
G1 X154.625 Y143.801 E7.1598
G1 X154.758 Y144.137 E7.17783
G1 X154.932 Y144.435 E7.19504
G1 X155.085 Y144.634 E7.20757
G1 X155.325 Y144.881 E7.22475
G1 X155.529 Y145.042 E7.23771
G1 X155.743 Y145.176 E7.25031
G1 X156.038 Y145.316 E7.2666
G1 X156.152 Y145.358 E7.27266
G1 X156.405 Y145.428 E7.28576
G1 X156.745 Y145.476 E7.30289
G1 X157.092 Y145.476 E7.3202
G0 F6000 X157.125 Y145.914
G1 F2700 E2.3202
G0 F6000 X158.169 Y146.236
G0 X157.481 Y144.507
G0 X164.64 Y163.974
G0 X164.055 Y162.208
G0 X162.943 Y164.248
G0 X162.813 Y164.89
G0 X162.883 Y165.556
G0 X163.128 Y166.134
G0 X163.57 Y166.657
G0 X165.39 Y167.723
;TYPE:WALL-INNER
G1 F2700 E7.3202
G1 F1200 X165.883 Y167.603 E7.34552
G1 X166.234 Y167.457 E7.36448
G1 X166.6 Y167.237 E7.38579
G1 X166.921 Y166.967 E7.40671
G1 X167.183 Y166.67 E7.42647
G1 X167.421 Y166.306 E7.44817
G1 X167.622 Y165.83 E7.47395
G1 X167.718 Y165.429 E7.49452
G1 X167.752 Y165.002 E7.51589
G1 X167.719 Y164.561 E7.53795
G1 X167.586 Y164.044 E7.56459
G1 X167.417 Y163.684 E7.58443
G1 X167.206 Y163.353 E7.60401
G1 X166.925 Y163.029 E7.62541
G1 X166.592 Y162.753 E7.64698
G1 X166.257 Y162.548 E7.66658
G1 X165.876 Y162.386 E7.68723
G1 X165.459 Y162.284 E7.70865
G1 X165.065 Y162.245 E7.7284
G1 X164.61 Y162.271 E7.75114
G1 X164.115 Y162.39 E7.77654
G1 X163.746 Y162.546 E7.79653
G1 X163.411 Y162.751 E7.81612
G1 X163.078 Y163.027 E7.8377
G1 X162.793 Y163.351 E7.85923
G1 X162.582 Y163.685 E7.87894
G1 X162.414 Y164.056 E7.89926
G1 X162.299 Y164.469 E7.92064
G1 X162.25 Y164.862 E7.9404
G1 X162.26 Y165.25 E7.95977
G1 X162.337 Y165.696 E7.98235
G1 X162.469 Y166.083 E8.00275
G1 X162.649 Y166.429 E8.02221
G1 X162.889 Y166.763 E8.04272
G1 X163.2 Y167.08 E8.06488
G1 X163.495 Y167.301 E8.08327
G1 X163.865 Y167.503 E8.1043
G1 X164.283 Y167.653 E8.12646
G1 X164.634 Y167.725 E8.14433
G1 X164.945 Y167.748 E8.15989
G1 X165.39 Y167.723 E8.18213
G0 F6000 X165.331 Y167.326
G1 F1200 X165.758 Y167.222 E8.20405
G1 X166.053 Y167.099 E8.22
G1 X166.367 Y166.91 E8.23828
G1 X166.641 Y166.68 E8.25613
G1 X166.864 Y166.427 E8.27296
G1 X167.067 Y166.117 E8.29144
G1 X167.241 Y165.705 E8.31376
G1 X167.322 Y165.366 E8.33115
G1 X167.351 Y165.001 E8.34941
G1 X167.323 Y164.626 E8.36817
G1 X167.208 Y164.18 E8.39115
G1 X167.066 Y163.877 E8.40785
G1 X166.885 Y163.593 E8.42465
G1 X166.644 Y163.316 E8.44297
G1 X166.359 Y163.079 E8.46146
G1 X166.074 Y162.905 E8.47812
G1 X165.749 Y162.767 E8.49573
G1 X165.391 Y162.679 E8.51413
G1 X165.057 Y162.646 E8.53087
