;FLAVOR:Marlin
;TIME:3713
;Filament used: 4.80348m
;Layer height: 0.3
;MINX:122.535
;MINY:121.904
;MINZ:0.3
;MAXX:177.465
;MAXY:178.961
;MAXZ:7.8
;Generated with Cura_SteamEngine 4.8.0
M140 S60
M105
M190 S60
M104 S210
M105
M109 S210
M82 ;absolute extrusion mode
M201 X500.00 Y500.00 Z100.00 E5000.00 ;Setup machine max acceleration
M203 X500.00 Y500.00 Z10.00 E50.00 ;Setup machine max feedrate
M204 P500.00 R1000.00 T500.00 ;Setup Print/Retract/Travel acceleration
M205 X8.00 Y8.00 Z0.40 E5.00 ;Setup Jerk
M220 S100 ;Reset Feedrate
M221 S100 ;Reset Flowrate

G28 ;Home

G92 E0 ;Reset Extruder
G1 Z2.0 F3000 ;Move Z Axis up
G1 X10.1 Y20 Z0.28 F5000.0 ;Move to start position
G1 X10.1 Y200.0 Z0.28 F1500.0 E15 ;Draw the first line
G1 X10.4 Y200.0 Z0.28 F5000.0 ;Move to side a little
G1 X10.4 Y20 Z0.28 F1500.0 E30 ;Draw the second line
G92 E0 ;Reset Extruder
G1 Z2.0 F3000 ;Move Z Axis up

G92 E0
G92 E0
G1 F1500 E-6.5
;LAYER_COUNT:26
;LAYER:0
M107
M204 S500
G0 F3600 X149.747 Y148.342 Z0.3
M204 S400
;TYPE:SKIRT
G1 F1500 E0
G1 F1200 X149.902 Y148.216 E0.00997
G1 X150.107 Y148.22 E0.0202
G1 X150.234 Y148.312 E0.02802
G1 X150.276 Y148.385 E0.03222
G1 X150.284 Y148.576 E0.04176
G1 X150.168 Y148.74 E0.05178
G1 X149.995 Y148.792 E0.06079
G1 X149.803 Y148.719 E0.07104
G1 X149.707 Y148.543 E0.08104
G1 X149.747 Y148.342 E0.09127
M204 S500
G0 F3600 X149.369 Y148.2
M204 S400
G1 F1200 X149.545 Y147.968 E0.1058
G1 X149.778 Y147.836 E0.11916
G1 X149.991 Y147.8 E0.12993
G1 X150.259 Y147.85 E0.14353
G1 X150.49 Y148 E0.15728
G1 X150.643 Y148.224 E0.17081
G1 X150.696 Y148.49 E0.18434
G1 X150.639 Y148.77 E0.1986
G1 X150.482 Y149.001 E0.21253
G1 X150.24 Y149.15 E0.22671
G1 X149.984 Y149.192 E0.23965
G1 X149.718 Y149.131 E0.25327
G1 X149.504 Y148.985 E0.26619
G1 X149.343 Y148.729 E0.28128
G1 X149.304 Y148.458 E0.29494
G1 X149.369 Y148.2 E0.30821
M204 S500
G0 F3600 X149.13 Y147.826
M204 S400
G1 F1200 X149.348 Y147.614 E0.32338
G1 X149.647 Y147.457 E0.34023
G1 X149.983 Y147.399 E0.35724
G1 X150.295 Y147.44 E0.37294
G1 X150.592 Y147.572 E0.38916
G1 X150.845 Y147.794 E0.40595
G1 X151.011 Y148.066 E0.42185
G1 X151.091 Y148.382 E0.43811
G1 X151.076 Y148.712 E0.45459
G1 X150.959 Y149.029 E0.47145
G1 X150.763 Y149.285 E0.48753
G1 X150.495 Y149.474 E0.5039
G1 X150.184 Y149.579 E0.52027
G1 X149.865 Y149.585 E0.53619
G1 X149.552 Y149.495 E0.55244
G1 X149.277 Y149.323 E0.56862
G1 X149.055 Y149.054 E0.58602
G1 X148.935 Y148.763 E0.60172
G1 X148.904 Y148.442 E0.61781
G1 X148.967 Y148.123 E0.63404
G1 X149.13 Y147.826 E0.65094
M204 S500
G0 F3600 X148.65 Y147.848
M204 S400
G1 F1200 X148.813 Y147.583 E0.66646
G1 X149.01 Y147.371 E0.6809
G1 X149.268 Y147.189 E0.69665
G1 X149.532 Y147.073 E0.71104
G1 X149.811 Y147.01 E0.72531
G1 X149.974 Y146.999 E0.73346
G1 X150.255 Y147.02 E0.74752
G1 X150.553 Y147.105 E0.76298
G1 X150.811 Y147.237 E0.77743
G1 X151.039 Y147.417 E0.79193
G1 X151.236 Y147.649 E0.80711
G1 X151.381 Y147.912 E0.82209
G1 X151.469 Y148.206 E0.83741
G1 X151.497 Y148.494 E0.85184
G1 X151.467 Y148.798 E0.86708
G1 X151.379 Y149.078 E0.88172
G1 X151.238 Y149.337 E0.89644
G1 X151.045 Y149.57 E0.91153
G1 X150.809 Y149.757 E0.92655
G1 X150.533 Y149.896 E0.94197
G1 X150.248 Y149.974 E0.95671
G1 X149.961 Y149.993 E0.97106
G1 X149.667 Y149.956 E0.98585
G1 X149.381 Y149.857 E1.00095
G1 X149.121 Y149.71 E1.01585
G1 X148.911 Y149.524 E1.02984
G1 X148.718 Y149.27 E1.04576
G1 X148.589 Y148.997 E1.06082
G1 X148.519 Y148.727 E1.07474
G1 X148.504 Y148.421 E1.09002
G1 X148.552 Y148.112 E1.10562
G1 X148.65 Y147.848 E1.11967
M204 S500
G0 F3600 X148.287 Y147.679
M204 S400
G1 F1200 X148.494 Y147.34 E1.13949
G1 X148.748 Y147.068 E1.15806
G1 X149.063 Y146.845 E1.17731
G1 X149.399 Y146.696 E1.19565
G1 X149.758 Y146.613 E1.21403
G1 X149.965 Y146.599 E1.22438
G1 X150.323 Y146.625 E1.24229
G1 X150.696 Y146.731 E1.26164
G1 X151.035 Y146.905 E1.28065
G1 X151.325 Y147.136 E1.29914
G1 X151.559 Y147.412 E1.3172
G1 X151.752 Y147.761 E1.33709
G1 X151.863 Y148.131 E1.35636
G1 X151.898 Y148.496 E1.37466
G1 X151.861 Y148.871 E1.39346
G1 X151.747 Y149.236 E1.41253
G1 X151.566 Y149.567 E1.43136
G1 X151.317 Y149.865 E1.45073
G1 X151.029 Y150.091 E1.46899
G1 X150.684 Y150.267 E1.48832
G1 X150.325 Y150.367 E1.50691
G1 X149.949 Y150.394 E1.52572
G1 X149.583 Y150.347 E1.54413
G1 X149.215 Y150.222 E1.56352
G1 X148.888 Y150.035 E1.58231
G1 X148.617 Y149.794 E1.6004
G1 X148.374 Y149.475 E1.62041
G1 X148.21 Y149.127 E1.6396
G1 X148.123 Y148.786 E1.65716
G1 X148.104 Y148.401 E1.67639
G1 X148.163 Y148.019 E1.69568
G1 X148.287 Y147.679 E1.71373
M204 S500
G0 F3600 X148.036 Y147.301
M204 S400
G1 F1200 X148.311 Y146.936 E1.73653
G1 X148.656 Y146.631 E1.7595
G1 X149.054 Y146.4 E1.78246
G1 X149.488 Y146.256 E1.80528
G1 X149.956 Y146.198 E1.8288
G1 X150.388 Y146.23 E1.85041
G1 X150.842 Y146.358 E1.87395
G1 X151.247 Y146.565 E1.89664
G1 X151.604 Y146.85 E1.91943
G1 X151.892 Y147.189 E1.94162
G1 X152.026 Y147.41 E1.95452
G1 X152.191 Y147.804 E1.97583
G1 X152.287 Y148.263 E1.99922
G1 X152.286 Y148.731 E2.02257
G1 X152.194 Y149.177 E2.04529
G1 X152.016 Y149.601 E2.06823
G1 X151.756 Y149.978 E2.09108
G1 X151.439 Y150.29 E2.11327
G1 X151.04 Y150.545 E2.13689
G1 X150.627 Y150.709 E2.15906
G1 X150.171 Y150.789 E2.18216
G1 X149.716 Y150.777 E2.20487
G1 X149.272 Y150.675 E2.2276
G1 X148.831 Y150.475 E2.25176
G1 X148.478 Y150.221 E2.27345
G1 X148.165 Y149.879 E2.29658
G1 X147.93 Y149.499 E2.31887
G1 X147.77 Y149.057 E2.34232
G1 X147.704 Y148.61 E2.36487
G1 X147.727 Y148.153 E2.3877
G1 X147.837 Y147.715 E2.41023
G1 X148.036 Y147.301 E2.43314
M204 S500
G1 F1500 E-4.06686
G0 F3600 X122.535 Y156.563
G0 X123.4 Y156.563
M204 S100
;TYPE:SUPPORT-INTERFACE
G1 F1500 E2.43314
G1 X123.432 Y156.677 E2.43905
G1 X123.879 Y158.009 E2.50915
G1 X124.377 Y159.283 E2.57739
G1 X124.948 Y160.548 E2.64663
G1 X125.578 Y161.78 E2.71567
G1 X126.271 Y162.98 E2.7848
G1 X127.03 Y164.154 E2.85455
G1 X127.837 Y165.28 E2.92366
G1 X128.696 Y166.358 E2.99243
G1 X129.613 Y167.394 E3.06146
G1 X130.58 Y168.387 E3.13061
G1 X131.609 Y169.343 E3.20068
G1 X132.665 Y170.229 E3.26945
G1 X133.761 Y171.06 E3.33807
G1 X134.905 Y171.842 E3.40721
G1 X136.09 Y172.564 E3.47643
G1 X137.325 Y173.237 E3.5466
G1 X138.568 Y173.834 E3.6154
G1 X139.836 Y174.37 E3.68408
G1 X141.148 Y174.85 E3.75378
G1 X142.458 Y175.254 E3.82217
G1 X143.814 Y175.598 E3.89197
G1 X145.16 Y175.872 E3.96049
G1 X146.552 Y176.081 E4.03072
G1 X147.91 Y176.216 E4.09881
G1 X149.315 Y176.287 E4.16899
G1 X150.685 Y176.287 E4.23734
G1 X152.085 Y176.218 E4.30727
G1 X153.443 Y176.082 E4.37536
G1 X154.835 Y175.872 E4.44559
G1 X156.18 Y175.6 E4.51405
G1 X157.538 Y175.255 E4.58396
G1 X158.846 Y174.851 E4.65226
G1 X160.16 Y174.372 E4.72203
G1 X161.428 Y173.836 E4.79071
G1 X162.671 Y173.239 E4.85951
G1 X163.906 Y172.566 E4.92968
G1 X165.089 Y171.844 E4.99882
G1 X166.234 Y171.064 E5.06794
G1 X167.331 Y170.233 E5.1366
G1 X168.387 Y169.347 E5.20537
G1 X169.417 Y168.391 E5.27548
G1 X170.384 Y167.398 E5.34463
G1 X171.301 Y166.362 E5.41366
G1 X172.16 Y165.284 E5.48242
G1 X172.967 Y164.158 E5.55154
G1 X173.726 Y162.986 E5.6212
G1 X174.419 Y161.786 E5.69034
G1 X175.05 Y160.552 E5.75948
G1 X175.621 Y159.289 E5.82863
G1 X176.119 Y158.014 E5.89692
G1 X176.566 Y156.682 E5.96702
G1 X176.6 Y156.561 E5.97329
G1 X176.6 Y178.096 E7.04768
G1 X123.4 Y178.096 E9.70183
G1 X123.4 Y156.563 E10.77612
M204 S500
G1 F1500 E4.27612
G0 F3600 X122.535 Y156.563
G0 X131.218 Y171.389
G0 X131.937 Y170.824
M204 S100
G1 F1500 E10.77612
G1 X131.65 Y170.64 E10.79313
G1 X131.338 Y170.477 E10.81069
G1 X131.056 Y170.372 E10.8257
G1 X130.738 Y170.279 E10.84223
G1 X130.411 Y170.218 E10.85883
G1 X130.069 Y170.196 E10.87593
G1 X129.75 Y170.204 E10.89185
G1 X129.435 Y170.245 E10.90769
G1 X129.101 Y170.318 E10.92475
G1 X128.803 Y170.422 E10.9405
G1 X128.496 Y170.556 E10.95721
G1 X128.217 Y170.721 E10.97338
G1 X127.941 Y170.915 E10.99021
G1 X127.691 Y171.137 E11.00689
G1 X127.472 Y171.374 E11.02299
G1 X127.276 Y171.632 E11.03916
G1 X127.116 Y171.891 E11.05434
G1 X126.961 Y172.202 E11.07168
G1 X126.849 Y172.515 E11.08826
G1 X126.766 Y172.838 E11.1049
G1 X126.717 Y173.175 E11.12189
G1 X126.699 Y173.497 E11.13798
G1 X126.717 Y173.825 E11.15437
G1 X126.761 Y174.121 E11.1693
G1 X126.849 Y174.481 E11.18779
G1 X126.96 Y174.779 E11.20366
G1 X127.105 Y175.085 E11.22055
G1 X127.269 Y175.348 E11.23601
G1 X127.464 Y175.609 E11.25227
G1 X127.693 Y175.86 E11.26922
G1 X127.948 Y176.082 E11.28609
G1 X128.207 Y176.265 E11.30191
G1 X128.485 Y176.429 E11.31801
G1 X128.795 Y176.567 E11.33494
G1 X129.109 Y176.675 E11.35151
G1 X129.426 Y176.744 E11.36769
G1 X129.759 Y176.788 E11.38445
G1 X130.074 Y176.794 E11.40017
G1 X130.398 Y176.773 E11.41637
G1 X130.757 Y176.708 E11.43457
G1 X131.044 Y176.626 E11.44946
G1 X131.355 Y176.506 E11.46609
G1 X131.646 Y176.355 E11.48245
G1 X131.932 Y176.172 E11.49938
G1 X132.184 Y175.97 E11.5155
G1 X132.416 Y175.744 E11.53166
G1 X132.628 Y175.493 E11.54805
G1 X132.815 Y175.22 E11.56456
G1 X132.975 Y174.925 E11.5813
G1 X133.11 Y174.6 E11.59886
G1 X133.2 Y174.3 E11.61448
G1 X133.264 Y173.985 E11.63052
G1 X133.296 Y173.664 E11.64661
G1 X133.296 Y173.325 E11.66353
G1 X133.267 Y173.02 E11.67881
G1 X133.196 Y172.671 E11.69658
G1 X133.096 Y172.353 E11.71321
G1 X132.967 Y172.047 E11.72978
G1 X132.81 Y171.765 E11.74588
G1 X132.638 Y171.512 E11.76114
G1 X132.41 Y171.24 E11.77885
G1 X132.183 Y171.023 E11.79452
G1 X131.937 Y170.824 E11.8103
M204 S500
G1 F1500 E5.3103
G0 F3600 X131.616 Y171.676
G0 X168.298 Y171.754
G0 X167.941 Y170.915
M204 S100
G1 F1500 E11.8103
G1 X167.691 Y171.137 E11.82698
G1 X167.472 Y171.374 E11.84308
G1 X167.276 Y171.632 E11.85925
G1 X167.116 Y171.891 E11.87444
G1 X166.961 Y172.202 E11.89177
G1 X166.849 Y172.515 E11.90836
G1 X166.766 Y172.838 E11.925
G1 X166.717 Y173.175 E11.94199
G1 X166.699 Y173.497 E11.95808
G1 X166.717 Y173.825 E11.97446
G1 X166.761 Y174.121 E11.98939
G1 X166.849 Y174.481 E12.00788
G1 X166.96 Y174.779 E12.02375
G1 X167.105 Y175.085 E12.04064
G1 X167.269 Y175.348 E12.05611
G1 X167.464 Y175.609 E12.07236
G1 X167.693 Y175.86 E12.08931
G1 X167.948 Y176.082 E12.10618
G1 X168.207 Y176.265 E12.122
G1 X168.485 Y176.429 E12.1381
G1 X168.795 Y176.567 E12.15503
G1 X169.109 Y176.675 E12.1716
G1 X169.426 Y176.744 E12.18778
G1 X169.759 Y176.788 E12.20454
G1 X170.074 Y176.794 E12.22026
G1 X170.398 Y176.773 E12.23646
G1 X170.757 Y176.708 E12.25466
G1 X171.044 Y176.626 E12.26955
G1 X171.355 Y176.506 E12.28618
G1 X171.646 Y176.355 E12.30254
G1 X171.932 Y176.172 E12.31948
G1 X172.184 Y175.97 E12.33559
G1 X172.416 Y175.744 E12.35175
G1 X172.628 Y175.493 E12.36814
G1 X172.815 Y175.22 E12.38465
G1 X172.975 Y174.925 E12.40139
G1 X173.11 Y174.6 E12.41895
G1 X173.2 Y174.3 E12.43458
G1 X173.264 Y173.985 E12.45061
G1 X173.296 Y173.664 E12.46671
G1 X173.296 Y173.325 E12.48362
G1 X173.267 Y173.02 E12.49891
G1 X173.196 Y172.671 E12.51667
G1 X173.096 Y172.353 E12.5333
G1 X172.967 Y172.047 E12.54987
G1 X172.81 Y171.765 E12.56597
G1 X172.638 Y171.512 E12.58124
G1 X172.41 Y171.24 E12.59894
G1 X172.183 Y171.023 E12.61461
G1 X171.937 Y170.824 E12.6304
G1 X171.65 Y170.64 E12.64741
G1 X171.338 Y170.477 E12.66497
G1 X171.056 Y170.372 E12.67998
G1 X170.738 Y170.279 E12.69651
G1 X170.411 Y170.218 E12.71311
G1 X170.069 Y170.196 E12.7302
G1 X169.75 Y170.204 E12.74612
G1 X169.435 Y170.245 E12.76197
G1 X169.101 Y170.318 E12.77903
G1 X168.803 Y170.422 E12.79477
G1 X168.496 Y170.556 E12.81149
G1 X168.217 Y170.721 E12.82766
G1 X167.941 Y170.915 E12.84449
M204 S500
G0 F3600 X167.576 Y170.97
M204 S100
G1 F1500 X167.193 Y170.587 E12.87151
M204 S500
G0 F3600 X169.353 Y170.057
M204 S100
G1 F1500 X176.399 Y163.012 E13.36861
M204 S500
G0 F3600 X176.399 Y162.823
M204 S100
G1 F1500 X174.886 Y161.31 E13.47536
M204 S500
G0 F3600 X175.074 Y160.942
M204 S100
G1 F1500 X176.399 Y159.618 E13.56881
M204 S500
G0 F3600 X176.399 Y159.429
M204 S100
G1 F1500 X175.953 Y158.983 E13.60028
M204 S500
G0 F3600 X173.65 Y163.468
M204 S100
G1 F1500 X176.399 Y166.217 E13.79424
M204 S500
G0 F3600 X176.399 Y166.406
M204 S100
G1 F1500 X172.102 Y170.702 E14.09738
M204 S500
G0 F3600 X169.997 Y169.997
M204 S100
G1 F1500 X169.026 Y169.026 E14.16589
M204 S500
G0 F3600 X170.716 Y167.322
M204 S100
G1 F1500 X176.4 Y173.006 E14.56692
M204 S500
G0 F3600 X176.399 Y173.193
M204 S100
G1 F1500 X171.698 Y177.895 E14.89864
M204 S500
G0 F3600 X171.107 Y177.895
M204 S100
G1 F1500 X170.197 Y176.985 E14.96284
M204 S500
G0 F3600 X169.283 Y176.915
M204 S100
G1 F1500 X168.304 Y177.895 E15.03195
M204 S500
G0 F3600 X167.713 Y177.895
M204 S100
G1 F1500 X163.068 Y173.25 E15.35968
M204 S500
G0 F3600 X162.452 Y173.565
M204 S100
G1 F1500 X158.121 Y177.895 E15.66522
M204 S500
G0 F3600 X157.53 Y177.895
M204 S100
G1 F1500 X155.563 Y175.928 E15.80401
M204 S500
G0 F3600 X157.034 Y175.588
M204 S100
G1 F1500 X154.727 Y177.895 E15.96678
M204 S500
G0 F3600 X154.136 Y177.895
M204 S100
G1 F1500 X152.607 Y176.366 E16.07466
M204 S500
G0 F3600 X152.891 Y176.337
M204 S100
G1 F1500 X151.333 Y177.895 E16.18458
M204 S500
G0 F3600 X150.742 Y177.895
M204 S100
G1 F1500 X149.333 Y176.486 E16.28399
M204 S500
G0 F3600 X149.348 Y176.486
M204 S100
G1 F1500 X147.939 Y177.895 E16.38341
M204 S500
G0 F3600 X147.348 Y177.895
M204 S100
G1 F1500 X145.591 Y176.138 E16.50737
M204 S500
G0 F3600 X146.209 Y176.231
M204 S100
G1 F1500 X144.545 Y177.895 E16.62478
M204 S500
G0 F3600 X143.954 Y177.895
M204 S100
G1 F1500 X141.104 Y175.045 E16.82586
M204 S500
G0 F3600 X140.739 Y174.912
M204 S100
G1 F1500 X137.757 Y177.895 E17.03629
M204 S500
G0 F3600 X137.165 Y177.895
M204 S100
G1 F1500 X133.431 Y174.161 E17.29974
M204 S500
G0 F3600 X133.255 Y172.214
M204 S100
G1 F1500 X134.003 Y171.466 E17.35252
M204 S500
G0 F3600 X134.41 Y171.745
M204 S100
G1 F1500 X140.56 Y177.895 E17.78644
M204 S500
G0 F3600 X141.151 Y177.895
M204 S100
G1 F1500 X143.358 Y175.687 E17.94219
M204 S500
G0 F3600 X138.322 Y173.936
M204 S100
G1 F1500 X134.363 Y177.895 E18.22152
M204 S500
G0 F3600 X133.771 Y177.895
M204 S100
G1 F1500 X132.139 Y176.262 E18.3367
M204 S500
G0 F3600 X130.968 Y177.895
M204 S100
G1 F1500 X136.079 Y172.785 E18.69727
M204 S500
G0 F3600 X132.079 Y169.996
M204 S100
G1 F1500 X131.657 Y170.418 E18.72705
M204 S500
G0 F3600 X129.332 Y170.062
M204 S100
G1 F1500 X123.599 Y164.328 E19.13157
M204 S500
G0 F3600 X123.6 Y164.899
M204 S100
G1 F1500 X125.849 Y162.65 E19.29025
M204 S500
G0 F3600 X126.743 Y164.079
M204 S100
G1 F1500 X123.599 Y160.934 E19.51212
M204 S500
G0 F3600 X123.6 Y161.505
M204 S100
G1 F1500 X124.675 Y160.429 E19.588
M204 S500
G0 F3600 X123.6 Y158.111
M204 S100
G1 F1500 X123.676 Y158.034 E19.5934
M204 S500
G1 F1500 E13.0934
G0 F3600 X122.535 Y158.034
G0 X122.535 Y164.71
G0 X127.183 Y164.71
M204 S100
G1 F1500 E19.5934
G1 X123.6 Y168.293 E19.8462
M204 S500
G0 F3600 X123.599 Y167.722
M204 S100
G1 F1500 X127.233 Y171.357 E20.10263
M204 S500
G0 F3600 X127.026 Y171.655
M204 S100
G1 F1500 X123.6 Y175.081 E20.34435
M204 S500
G0 F3600 X123.599 Y174.511
M204 S100
G1 F1500 X126.983 Y177.895 E20.58311
M204 S500
G0 F3600 X127.574 Y177.895
M204 S100
G1 F1500 X128.718 Y176.751 E20.66383
M204 S500
G0 F3600 X129.428 Y176.945
M204 S100
G1 F1500 X130.377 Y177.895 E20.73082
M204 S500
G1 F1500 E14.23082
G0 F3600 X130.377 Y178.961
G0 X127.989 Y174.868
G0 X126.917 Y175.158
M204 S100
G1 F1500 E20.73082
G1 X124.18 Y177.895 E20.92393
M204 S500
G1 F1500 E14.42393
G0 F3600 X124.18 Y178.961
G0 X127.609 Y173.952
G0 X126.551 Y174.069
M204 S100
G1 F1500 E20.92393
G1 X123.599 Y171.117 E21.13221
M204 S500
G0 F3600 X123.6 Y171.687
M204 S100
G1 F1500 X128.663 Y166.624 E21.48943
M204 S500
G0 F3600 X130.297 Y168.384
M204 S100
G1 F1500 X128.159 Y170.522 E21.64028
M204 S500
G1 F1500 E15.14028
G0 F3600 X128.887 Y171.328
G0 X158.268 Y178.961
G0 X158.268 Y175.238
M204 S100
G1 F1500 E21.64028
G1 X160.924 Y177.895 E21.82771
M204 S500
G0 F3600 X161.515 Y177.895
M204 S100
G1 F1500 X166.562 Y172.848 E22.1838
M204 S500
G0 F3600 X166.51 Y173.298
M204 S100
G1 F1500 X165.212 Y172 E22.27538
M204 S500
G1 F1500 E15.77538
G0 F3600 X167.676 Y172.768
G0 X167.989 Y174.868
G0 X167.206 Y175.598
M204 S100
G1 F1500 E22.27538
