;FLAVOR:Marlin
;TIME:1890
;Filament used: 1.18725m
;Layer height: 0.2
;MINX:135.25
;MINY:139.931
;MINZ:0.3
;MAXX:164.75
;MAXY:160.934
;MAXZ:14.5
;Generated with Cura_SteamEngine 4.10.0
M140 S60
M105
M190 S60
M104 S210
M105
M109 S210
M82 ;absolute extrusion mode
M201 X500.00 Y500.00 Z100.00 E5000.00 ;Setup machine max acceleration
M203 X500.00 Y500.00 Z10.00 E50.00 ;Setup machine max feedrate
M204 P500.00 R1000.00 T500.00 ;Setup Print/Retract/Travel acceleration
M205 X8.00 Y8.00 Z0.40 E5.00 ;Setup Jerk
M220 S100 ;Reset Feedrate
M221 S100 ;Reset Flowrate

G28 ;Home

G92 E0 ;Reset Extruder
G1 Z2.0 F3000 ;Move Z Axis up
G1 X10.1 Y20 Z0.28 F5000.0 ;Move to start position
G1 X10.1 Y200.0 Z0.28 F1500.0 E15 ;Draw the first line
G1 X10.4 Y200.0 Z0.28 F5000.0 ;Move to side a little
G1 X10.4 Y20 Z0.28 F1500.0 E30 ;Draw the second line
G92 E0 ;Reset Extruder
G1 Z2.0 F3000 ;Move Z Axis up

G92 E0
G92 E0
G1 F2700 E-5
;LAYER_COUNT:72
;LAYER:0
M107
M204 S500
;MESH:A4-J2-TENSIONER-2.0.stl
G0 F6000 X158.737 Y153.045 Z0.3
;TYPE:WALL-INNER
G1 F2700 E0
G1 F1200 X158.858 Y153.102 E0.00667
G1 X159.555 Y153.273 E0.04248
G1 X159.687 Y153.284 E0.04909
G1 X160.313 Y153.284 E0.08032
G1 X160.445 Y153.273 E0.08693
G1 X161.142 Y153.102 E0.12273
G1 X161.263 Y153.045 E0.1294
G1 X161.822 Y152.752 E0.16089
G1 X161.931 Y152.676 E0.16752
G1 X162.425 Y152.239 E0.20043
G1 X162.515 Y152.138 E0.20717
G1 X162.934 Y151.524 E0.24426
G1 X163.187 Y150.856 E0.2799
G1 X163.22 Y150.726 E0.28659
G1 X163.3 Y150.066 E0.31976
G1 X163.3 Y149.934 E0.32634
G1 X163.22 Y149.274 E0.35951
G1 X163.187 Y149.144 E0.3662
G1 X162.934 Y148.476 E0.40184
G1 X162.515 Y147.862 E0.43892
G1 X162.425 Y147.761 E0.44567
G1 X161.931 Y147.324 E0.47858
G1 X161.822 Y147.248 E0.48521
G1 X161.263 Y146.955 E0.5167
G1 X161.142 Y146.898 E0.52337
G1 X160.445 Y146.727 E0.55917
G1 X160.313 Y146.716 E0.56578
G1 X159.687 Y146.716 E0.59701
G1 X159.555 Y146.727 E0.60362
G1 X158.858 Y146.898 E0.63943
G1 X158.737 Y146.955 E0.6461
G1 X158.178 Y147.248 E0.67759
G1 X158.069 Y147.324 E0.68422
G1 X157.575 Y147.761 E0.71712
G1 X157.485 Y147.862 E0.72387
G1 X157.066 Y148.476 E0.76096
G1 X156.813 Y149.144 E0.79659
G1 X156.78 Y149.274 E0.80328
G1 X156.7 Y149.934 E0.83645
G1 X156.7 Y150.066 E0.84304
G1 X156.78 Y150.726 E0.87621
G1 X156.813 Y150.856 E0.8829
G1 X157.066 Y151.524 E0.91853
G1 X157.485 Y152.138 E0.95562
G1 X157.575 Y152.239 E0.96237
G1 X158.069 Y152.676 E0.99527
G1 X158.178 Y152.752 E1.0019
G1 X158.737 Y153.045 E1.03339
G0 F6000 X158.915 Y152.687
G1 F1200 X158.992 Y152.723 E1.03763
G1 X159.62 Y152.877 E1.06989
G1 X159.704 Y152.884 E1.0741
G1 X160.296 Y152.884 E1.10363
G1 X160.38 Y152.877 E1.10784
G1 X161.008 Y152.723 E1.1401
G1 X161.085 Y152.687 E1.14434
G1 X161.614 Y152.409 E1.17415
G1 X161.683 Y152.361 E1.17834
G1 X162.142 Y151.955 E1.20892
G1 X162.199 Y151.891 E1.21319
G1 X162.577 Y151.338 E1.24661
G1 X162.805 Y150.736 E1.27873
G1 X162.826 Y150.653 E1.283
G1 X162.9 Y150.042 E1.3137
G1 X162.9 Y149.958 E1.31789
G1 X162.826 Y149.347 E1.3486
G1 X162.805 Y149.264 E1.35287
G1 X162.577 Y148.662 E1.38499
G1 X162.199 Y148.109 E1.41841
G1 X162.142 Y148.045 E1.42268
G1 X161.683 Y147.639 E1.45325
G1 X161.614 Y147.591 E1.45745
G1 X161.085 Y147.313 E1.48726
G1 X161.008 Y147.277 E1.4915
G1 X160.38 Y147.123 E1.52376
G1 X160.296 Y147.116 E1.52797
G1 X159.704 Y147.116 E1.5575
G1 X159.62 Y147.123 E1.56171
G1 X158.992 Y147.277 E1.59397
G1 X158.915 Y147.313 E1.59821
G1 X158.386 Y147.591 E1.62802
G1 X158.317 Y147.639 E1.63222
G1 X157.858 Y148.045 E1.66279
G1 X157.801 Y148.109 E1.66706
G1 X157.423 Y148.662 E1.70048
G1 X157.195 Y149.264 E1.7326
G1 X157.174 Y149.347 E1.73687
G1 X157.1 Y149.958 E1.76758
G1 X157.1 Y150.042 E1.77177
G1 X157.174 Y150.653 E1.80247
G1 X157.195 Y150.736 E1.80674
G1 X157.423 Y151.338 E1.83886
G1 X157.801 Y151.891 E1.87228
G1 X157.858 Y151.955 E1.87655
G1 X158.317 Y152.361 E1.90713
G1 X158.386 Y152.409 E1.91132
G1 X158.915 Y152.687 E1.94113
G0 F6000 X159.124 Y152.343
;TYPE:WALL-OUTER
G1 F1200 X159.685 Y152.481 E1.96996
G1 X159.721 Y152.484 E1.97176
G1 X160.279 Y152.484 E1.9996
G1 X160.315 Y152.481 E2.0014
G1 X160.876 Y152.343 E2.03022
G1 X160.909 Y152.328 E2.03203
G1 X161.405 Y152.067 E2.05999
G1 X161.435 Y152.046 E2.06182
G1 X161.859 Y151.671 E2.09006
G1 X161.883 Y151.644 E2.09186
G1 X162.22 Y151.152 E2.12161
G1 X162.423 Y150.616 E2.15021
G1 X162.432 Y150.58 E2.15206
G1 X162.5 Y150.018 E2.1803
G1 X162.5 Y149.982 E2.1821
G1 X162.432 Y149.42 E2.21034
G1 X162.423 Y149.384 E2.21219
G1 X162.22 Y148.848 E2.24079
G1 X161.883 Y148.356 E2.27054
G1 X161.859 Y148.329 E2.27234
G1 X161.435 Y147.954 E2.30058
G1 X161.405 Y147.933 E2.30241
G1 X160.909 Y147.672 E2.33037
G1 X160.876 Y147.657 E2.33218
G1 X160.315 Y147.519 E2.361
G1 X160.279 Y147.516 E2.36281
G1 X159.721 Y147.516 E2.39064
G1 X159.685 Y147.519 E2.39245
G1 X159.124 Y147.657 E2.42127
G1 X159.091 Y147.672 E2.42308
G1 X158.595 Y147.933 E2.45104
G1 X158.565 Y147.954 E2.45287
G1 X158.141 Y148.329 E2.48111
G1 X158.117 Y148.356 E2.48291
G1 X157.78 Y148.848 E2.51266
G1 X157.577 Y149.384 E2.54126
G1 X157.568 Y149.42 E2.54311
G1 X157.5 Y149.982 E2.57135
G1 X157.5 Y150.018 E2.57315
G1 X157.568 Y150.58 E2.60139
G1 X157.577 Y150.616 E2.60324
G1 X157.78 Y151.152 E2.63184
G1 X158.117 Y151.644 E2.66159
G1 X158.141 Y151.671 E2.66339
G1 X158.565 Y152.046 E2.69163
G1 X158.595 Y152.067 E2.69346
G1 X159.091 Y152.328 E2.72142
G1 X159.124 Y152.343 E2.72323
G0 F6000 X158.98 Y152.758
G1 F2700 E-2.27677
G0 F6000 X156.895 Y151.613
G0 X158.554 Y150.757
G0 X141.224 Y151.079
G0 X142.559 Y152.374
G0 X141.263 Y153.045
;TYPE:WALL-INNER
G1 F2700 E2.72323
G1 F1200 X141.822 Y152.752 E2.75471
G1 X141.931 Y152.676 E2.76134
G1 X142.425 Y152.239 E2.79425
G1 X142.515 Y152.138 E2.801
G1 X142.934 Y151.524 E2.83808
G1 X143.187 Y150.856 E2.87372
G1 X143.22 Y150.726 E2.88041
G1 X143.3 Y150.066 E2.91358
G1 X143.3 Y149.934 E2.92017
G1 X143.22 Y149.274 E2.95333
G1 X143.187 Y149.144 E2.96003
G1 X142.934 Y148.476 E2.99566
G1 X142.515 Y147.862 E3.03275
G1 X142.425 Y147.761 E3.0395
G1 X141.931 Y147.324 E3.0724
G1 X141.822 Y147.248 E3.07903
G1 X141.263 Y146.955 E3.11052
G1 X141.142 Y146.898 E3.11719
G1 X140.445 Y146.727 E3.153
G1 X140.313 Y146.716 E3.15961
G1 X139.687 Y146.716 E3.19084
G1 X139.555 Y146.727 E3.19744
G1 X138.858 Y146.898 E3.23325
G1 X138.737 Y146.955 E3.23992
G1 X138.178 Y147.248 E3.27141
G1 X138.069 Y147.324 E3.27804
G1 X137.575 Y147.761 E3.31094
G1 X137.485 Y147.862 E3.31769
G1 X137.066 Y148.476 E3.35478
G1 X136.813 Y149.144 E3.39042
G1 X136.78 Y149.274 E3.39711
G1 X136.7 Y149.934 E3.43028
G1 X136.7 Y150.066 E3.43686
G1 X136.78 Y150.726 E3.47003
G1 X136.813 Y150.856 E3.47672
G1 X137.066 Y151.524 E3.51236
G1 X137.485 Y152.138 E3.54944
G1 X137.575 Y152.239 E3.55619
G1 X138.069 Y152.676 E3.5891
G1 X138.178 Y152.752 E3.59573
G1 X138.737 Y153.045 E3.62721
G1 X138.858 Y153.102 E3.63389
G1 X139.555 Y153.273 E3.66969
G1 X139.687 Y153.284 E3.6763
G1 X140.313 Y153.284 E3.70753
G1 X140.445 Y153.273 E3.71414
G1 X141.142 Y153.102 E3.74995
G1 X141.263 Y153.045 E3.75662
G0 F6000 X141.085 Y152.687
G1 F1200 X141.614 Y152.409 E3.78643
G1 X141.683 Y152.361 E3.79063
G1 X142.142 Y151.955 E3.8212
G1 X142.199 Y151.891 E3.82547
G1 X142.577 Y151.338 E3.85889
G1 X142.805 Y150.736 E3.89101
G1 X142.826 Y150.653 E3.89528
G1 X142.9 Y150.042 E3.92599
G1 X142.9 Y149.958 E3.93018
G1 X142.826 Y149.347 E3.96088
G1 X142.805 Y149.264 E3.96515
G1 X142.577 Y148.662 E3.99727
G1 X142.199 Y148.109 E4.03069
G1 X142.142 Y148.045 E4.03496
G1 X141.683 Y147.639 E4.06554
G1 X141.614 Y147.591 E4.06973
G1 X141.085 Y147.313 E4.09954
G1 X141.008 Y147.277 E4.10378
G1 X140.38 Y147.123 E4.13604
G1 X140.296 Y147.116 E4.14025
G1 X139.704 Y147.116 E4.16978
G1 X139.62 Y147.123 E4.17399
G1 X138.992 Y147.277 E4.20625
G1 X138.915 Y147.313 E4.21049
G1 X138.386 Y147.591 E4.2403
G1 X138.317 Y147.639 E4.2445
G1 X137.858 Y148.045 E4.27507
G1 X137.801 Y148.109 E4.27935
G1 X137.423 Y148.662 E4.31276
G1 X137.195 Y149.264 E4.34488
G1 X137.174 Y149.347 E4.34915
G1 X137.1 Y149.958 E4.37986
G1 X137.1 Y150.042 E4.38405
G1 X137.174 Y150.653 E4.41475
G1 X137.195 Y150.736 E4.41902
G1 X137.423 Y151.338 E4.45114
G1 X137.801 Y151.891 E4.48456
G1 X137.858 Y151.955 E4.48884
G1 X138.317 Y152.361 E4.51941
G1 X138.386 Y152.409 E4.5236
G1 X138.915 Y152.687 E4.55342
G1 X138.992 Y152.723 E4.55766
G1 X139.62 Y152.877 E4.58992
G1 X139.704 Y152.884 E4.59412
G1 X140.296 Y152.884 E4.62366
G1 X140.38 Y152.877 E4.62786
G1 X141.008 Y152.723 E4.66012
G1 X141.085 Y152.687 E4.66436
G0 F6000 X140.876 Y152.343
;TYPE:WALL-OUTER
G1 F1200 X140.909 Y152.328 E4.66617
G1 X141.405 Y152.067 E4.69413
G1 X141.435 Y152.046 E4.69596
G1 X141.859 Y151.671 E4.7242
G1 X141.883 Y151.644 E4.726
G1 X142.22 Y151.152 E4.75575
G1 X142.423 Y150.616 E4.78435
G1 X142.432 Y150.58 E4.7862
G1 X142.5 Y150.018 E4.81444
G1 X142.5 Y149.982 E4.81624
G1 X142.432 Y149.42 E4.84448
G1 X142.423 Y149.384 E4.84633
G1 X142.22 Y148.848 E4.87493
G1 X141.883 Y148.356 E4.90468
G1 X141.859 Y148.329 E4.90648
G1 X141.435 Y147.954 E4.93472
G1 X141.405 Y147.933 E4.93655
G1 X140.909 Y147.672 E4.96451
G1 X140.876 Y147.657 E4.96632
G1 X140.315 Y147.519 E4.99514
G1 X140.279 Y147.516 E4.99694
G1 X139.721 Y147.516 E5.02478
G1 X139.685 Y147.519 E5.02658
G1 X139.124 Y147.657 E5.05541
G1 X139.091 Y147.672 E5.05722
G1 X138.595 Y147.933 E5.08518
G1 X138.565 Y147.954 E5.08701
G1 X138.141 Y148.329 E5.11525
G1 X138.117 Y148.356 E5.11705
G1 X137.78 Y148.848 E5.1468
G1 X137.577 Y149.384 E5.17539
G1 X137.568 Y149.42 E5.17725
G1 X137.5 Y149.982 E5.20549
G1 X137.5 Y150.018 E5.20728
G1 X137.568 Y150.58 E5.23553
G1 X137.577 Y150.616 E5.23738
G1 X137.78 Y151.152 E5.26597
G1 X138.117 Y151.644 E5.29573
G1 X138.141 Y151.671 E5.29753
G1 X138.565 Y152.046 E5.32577
G1 X138.595 Y152.067 E5.32759
G1 X139.091 Y152.328 E5.35556
G1 X139.124 Y152.343 E5.35737
G1 X139.685 Y152.481 E5.38619
G1 X139.721 Y152.484 E5.38799
G1 X140.279 Y152.484 E5.41583
G1 X140.315 Y152.481 E5.41763
G1 X140.876 Y152.343 E5.44645
G0 F6000 X141.02 Y152.758
G1 F2700 E0.44645
G0 F6000 X142.559 Y152.374
G0 X141.224 Y151.079
G0 X142.559 Y160.934
G0 X142.559 Y159.059
G0 X163.95 Y159.269
;TYPE:WALL-INNER
G1 F2700 E5.44645
G1 F1200 X136.05 Y159.269 E6.83839
G1 X136.05 Y140.731 E7.76326
G1 X163.95 Y140.731 E9.15519
G1 X163.95 Y159.269 E10.08006
G0 F6000 X164.35 Y159.669
G1 F1200 X135.65 Y159.669 E11.51191
G1 X135.65 Y140.331 E12.47668
G1 X164.35 Y140.331 E13.90853
G1 X164.35 Y159.669 E14.87331
G0 F6000 X164.75 Y160.069
;TYPE:WALL-OUTER
G1 F1200 X135.25 Y160.069 E16.34507
G1 X135.25 Y139.931 E17.34976
G1 X164.75 Y139.931 E18.82152
G1 X164.75 Y160.069 E19.82621
G0 F6000 X164.48 Y159.799
G0 X163.84 Y158.879
G0 X163.56 Y158.879
;TYPE:SKIN
G1 F1200 X136.44 Y158.879 E21.17923
G1 X136.441 Y150.973 E21.57366
G1 X136.717 Y151.705 E21.61269
G1 X137.177 Y152.378 E21.65336
G1 X137.3 Y152.516 E21.66258
G1 X137.827 Y152.983 E21.69771
G1 X137.975 Y153.086 E21.70671
G1 X138.564 Y153.394 E21.73987
G1 X138.727 Y153.471 E21.74886
G1 X139.492 Y153.659 E21.78817
G1 X139.671 Y153.674 E21.79713
G1 X140.329 Y153.674 E21.82995
G1 X140.508 Y153.659 E21.83892
G1 X141.273 Y153.471 E21.87822
G1 X141.436 Y153.394 E21.88721
G1 X142.025 Y153.086 E21.92037
G1 X142.173 Y152.983 E21.92937
G1 X142.7 Y152.516 E21.9645
G1 X142.823 Y152.378 E21.97372
G1 X143.283 Y151.705 E22.01439
G1 X143.559 Y150.973 E22.05342
G1 X143.604 Y150.798 E22.06243
G1 X143.69 Y150.089 E22.09807
G1 X143.69 Y149.911 E22.10695
G1 X143.604 Y149.202 E22.14258
G1 X143.559 Y149.027 E22.15159
G1 X143.283 Y148.295 E22.19062
G1 X142.823 Y147.622 E22.23129
G1 X142.7 Y147.484 E22.24051
G1 X142.173 Y147.017 E22.27564
G1 X142.025 Y146.914 E22.28464
G1 X141.436 Y146.606 E22.3178
G1 X141.273 Y146.529 E22.32679
G1 X140.508 Y146.341 E22.3661
G1 X140.329 Y146.326 E22.37506
G1 X139.671 Y146.326 E22.40789
G1 X139.492 Y146.341 E22.41685
G1 X138.727 Y146.529 E22.45615
G1 X138.564 Y146.606 E22.46514
G1 X137.975 Y146.914 E22.4983
G1 X137.827 Y147.017 E22.5073
G1 X137.3 Y147.484 E22.54243
G1 X137.177 Y147.622 E22.55165
G1 X136.717 Y148.295 E22.59232
G1 X136.44 Y149.031 E22.63155
G1 X136.44 Y141.121 E23.02619
G1 X163.56 Y141.121 E24.37921
G1 X163.559 Y149.027 E24.77364
G1 X163.283 Y148.295 E24.81267
G1 X162.823 Y147.622 E24.85334
G1 X162.7 Y147.484 E24.86256
G1 X162.173 Y147.017 E24.89769
G1 X162.025 Y146.914 E24.90669
G1 X161.436 Y146.606 E24.93985
G1 X161.273 Y146.529 E24.94884
G1 X160.508 Y146.341 E24.98814
G1 X160.329 Y146.326 E24.99711
G1 X159.671 Y146.326 E25.02993
G1 X159.492 Y146.341 E25.0389
G1 X158.727 Y146.529 E25.0782
G1 X158.564 Y146.606 E25.08719
G1 X157.975 Y146.914 E25.12035
G1 X157.827 Y147.017 E25.12935
G1 X157.3 Y147.484 E25.16448
G1 X157.177 Y147.622 E25.1737
G1 X156.717 Y148.295 E25.21437
G1 X156.441 Y149.027 E25.2534
G1 X156.396 Y149.202 E25.26241
G1 X156.31 Y149.911 E25.29804
G1 X156.31 Y150.089 E25.30693
G1 X156.396 Y150.798 E25.34256
G1 X156.441 Y150.973 E25.35157
G1 X156.717 Y151.705 E25.3906
G1 X157.177 Y152.378 E25.43127
G1 X157.3 Y152.516 E25.44049
G1 X157.827 Y152.983 E25.47562
G1 X157.975 Y153.086 E25.48462
G1 X158.564 Y153.394 E25.51778
G1 X158.727 Y153.471 E25.52677
G1 X159.492 Y153.659 E25.56607
G1 X159.671 Y153.674 E25.57504
G1 X160.329 Y153.674 E25.60786
G1 X160.508 Y153.659 E25.61683
G1 X161.273 Y153.471 E25.65613
G1 X161.436 Y153.394 E25.66512
G1 X162.025 Y153.086 E25.69828
G1 X162.173 Y152.983 E25.70728
G1 X162.7 Y152.516 E25.74241
G1 X162.823 Y152.378 E25.75163
G1 X163.283 Y151.705 E25.7923
G1 X163.56 Y150.969 E25.83153
G1 X163.56 Y158.879 E26.22617
G0 F6000 X163.84 Y158.879
G0 X163.84 Y141.337
G0 X163.399 Y141.337
G1 F1200 X163.343 Y141.281 E26.23012
G0 F6000 X162.777 Y141.281
G1 F1200 X163.399 Y141.903 E26.274
G0 F6000 X163.399 Y142.469
G1 F1200 X162.211 Y141.281 E26.35782
G0 F6000 X161.646 Y141.281
G1 F1200 X163.399 Y143.034 E26.48151
G0 F6000 X163.399 Y143.6
G1 F1200 X161.08 Y141.281 E26.64512
G0 F6000 X160.514 Y141.281
G1 F1200 X163.399 Y144.166 E26.84868
G0 F6000 X163.398 Y144.731
G1 F1200 X159.948 Y141.281 E27.09209
G0 F6000 X159.383 Y141.281
G1 F1200 X163.398 Y145.297 E27.37541
G0 F6000 X163.398 Y145.862
G1 F1200 X158.817 Y141.281 E27.69862
G0 F6000 X158.251 Y141.281
G1 F1200 X163.398 Y146.428 E28.06177
G0 F6000 X163.398 Y146.994
G1 F1200 X157.686 Y141.281 E28.46482
G0 F6000 X157.12 Y141.281
G1 F1200 X163.398 Y147.559 E28.90776
G0 F6000 X163.278 Y148.004
G1 F1200 X163.365 Y148.091 E28.9139
G0 F6000 X162.983 Y148.351
G0 X161.784 Y147.103
G0 X161.988 Y146.715
G1 F1200 X156.554 Y141.281 E29.2973
G0 F6000 X155.989 Y141.281
G1 F1200 X161.007 Y146.299 E29.65135
G0 F6000 X160.308 Y146.166
G1 F1200 X155.423 Y141.281 E29.99601
G0 F6000 X154.857 Y141.281
G1 F1200 X159.742 Y146.166 E30.34067
G0 F6000 X159.247 Y146.236
G1 F1200 X154.292 Y141.281 E30.69028
G0 F6000 X153.726 Y141.281
G1 F1200 X158.792 Y146.347 E31.04771
G0 F6000 X158.393 Y146.513
G1 F1200 X153.16 Y141.281 E31.41689
G0 F6000 X152.595 Y141.281
G1 F1200 X158.022 Y146.708 E31.79979
G0 F6000 X157.68 Y146.932
G1 F1200 X152.029 Y141.281 E32.1985
G0 F6000 X151.463 Y141.281
G1 F1200 X157.38 Y147.198 E32.61598
G0 F6000 X157.093 Y147.477
G1 F1200 X150.898 Y141.281 E33.05311
G0 F6000 X150.332 Y141.281
G1 F1200 X156.857 Y147.806 E33.51348
G0 F6000 X156.626 Y148.141
G1 F1200 X149.765 Y141.28 E33.99756
G0 F6000 X149.2 Y141.28
G1 F1200 X156.454 Y148.534 E34.50937
G0 F6000 X156.3 Y148.946
G1 F1200 X148.634 Y141.28 E35.05025
G0 F6000 X148.068 Y141.28
G1 F1200 X156.208 Y149.42 E35.62457
G0 F6000 X156.148 Y149.926
G1 F1200 X147.503 Y141.28 E36.23455
G0 F6000 X146.937 Y141.28
G1 F1200 X156.204 Y150.547 E36.88839
G0 F6000 X156.392 Y151.301
G1 F1200 X146.371 Y141.28 E37.59543
G0 F6000 X145.806 Y141.28
G1 F1200 X163.244 Y158.718 E38.82577
G0 F6000 X163.399 Y158.308
G1 F1200 X158.726 Y153.635 E39.15548
G0 F6000 X159.474 Y153.817
G1 F1200 X163.399 Y157.742 E39.43241
G0 F6000 X163.399 Y157.177
G1 F1200 X160.056 Y153.833 E39.66831
G0 F6000 X160.591 Y153.803
G1 F1200 X163.399 Y156.611 E39.86643
G0 F6000 X163.399 Y156.045
G1 F1200 X161.045 Y153.691 E40.03252
G0 F6000 X161.473 Y153.553
