;FLAVOR:Marlin
;TIME:7499
;Filament used: 9.18755m
;Layer height: 0.3
;MINX:113.205
;MINY:111.156
;MINZ:0.3
;MAXX:186.631
;MAXY:189.709
;MAXZ:26.4
;Generated with Cura_SteamEngine 4.8.0
M140 S60
M105
M190 S60
M104 S210
M105
M109 S210
M82 ;absolute extrusion mode
M201 X500.00 Y500.00 Z100.00 E5000.00 ;Setup machine max acceleration
M203 X500.00 Y500.00 Z10.00 E50.00 ;Setup machine max feedrate
M204 P500.00 R1000.00 T500.00 ;Setup Print/Retract/Travel acceleration
M205 X8.00 Y8.00 Z0.40 E5.00 ;Setup Jerk
M220 S100 ;Reset Feedrate
M221 S100 ;Reset Flowrate

G28 ;Home

G92 E0 ;Reset Extruder
G1 Z2.0 F3000 ;Move Z Axis up
G1 X10.1 Y20 Z0.28 F5000.0 ;Move to start position
G1 X10.1 Y200.0 Z0.28 F1500.0 E15 ;Draw the first line
G1 X10.4 Y200.0 Z0.28 F5000.0 ;Move to side a little
G1 X10.4 Y20 Z0.28 F1500.0 E30 ;Draw the second line
G92 E0 ;Reset Extruder
G1 Z2.0 F3000 ;Move Z Axis up

G92 E0
G92 E0
G1 F1500 E-6.5
;LAYER_COUNT:88
;LAYER:0
M107
M204 S500
;MESH:A4-J1-BASE-2.0.stl
G0 F3600 X158.371 Y139.182 Z0.3
M204 S100
;TYPE:WALL-INNER
G1 F1500 E0
G1 X158.457 Y139.176 E0.0043
G1 X158.692 Y139.159 E0.01606
G1 X158.774 Y139.137 E0.02029
G1 X159.23 Y139.011 E0.04389
G1 X159.647 Y138.808 E0.06703
G1 X160.091 Y138.49 E0.09428
G1 X160.467 Y138.085 E0.12185
G1 X160.717 Y137.698 E0.14484
G1 X160.933 Y137.187 E0.17251
G1 X161.039 Y136.664 E0.19914
G1 X161.058 Y136.319 E0.21637
G1 X161.004 Y135.799 E0.24246
G1 X160.882 Y135.355 E0.26543
G1 X160.65 Y134.874 E0.29207
G1 X160.38 Y134.498 E0.31517
G1 X159.998 Y134.125 E0.3418
G1 X159.617 Y133.866 E0.36479
G1 X159.135 Y133.647 E0.3912
G1 X158.689 Y133.532 E0.41418
G1 X158.138 Y133.49 E0.44175
G1 X157.588 Y133.557 E0.46939
G1 X157.147 Y133.693 E0.49241
G1 X156.672 Y133.937 E0.51906
G1 X156.303 Y134.214 E0.54208
G1 X155.941 Y134.607 E0.56873
G1 X155.69 Y134.992 E0.59166
G1 X155.477 Y135.5 E0.61914
G1 X155.408 Y135.833 E0.63611
G1 X155.363 Y136.052 E0.64726
G1 X155.363 Y136.174 E0.65335
G1 X155.307 Y136.136
G1 X155.122 Y136.01 E0.66103
G1 X154.979 Y135.912 E0.66968
G1 X154.455 Y135.592 E0.70031
G1 X153.914 Y135.299 E0.731
G1 X153.364 Y135.033 E0.76148
G1 X152.8 Y134.796 E0.79201
G1 X152.224 Y134.585 E0.82261
G1 X151.635 Y134.403 E0.85337
G1 X151.039 Y134.253 E0.88403
G1 X150.426 Y134.129 E0.91523
G1 X149.833 Y134.039 E0.94515
G1 X149.224 Y133.98 E0.97568
G1 X148.611 Y133.948 E1.0063
G1 X147.998 Y133.948 E1.03689
G1 X147.385 Y133.98 E1.06751
G1 X146.776 Y134.039 E1.09804
G1 X146.167 Y134.131 E1.12876
G1 X145.569 Y134.253 E1.15921
G1 X144.974 Y134.403 E1.18983
G1 X144.37 Y134.59 E1.22137
G1 X143.809 Y134.796 E1.25119
G1 X143.246 Y135.033 E1.28166
G1 X142.693 Y135.299 E1.31228
G1 X142.155 Y135.592 E1.34284
G1 X141.632 Y135.912 E1.37343
G1 X141.431 Y136.049 E1.38556
G1 X141.393 Y136.074 E1.38783
G1 X141.244 Y136.176 E1.39684
G1 X141.205 Y135.799 E1.40861
G1 X141.193 Y135.755 E1.41074
G1 X141.083 Y135.355 E1.43143
G1 X140.851 Y134.874 E1.45808
G1 X140.581 Y134.498 E1.48117
G1 X140.199 Y134.125 E1.50781
G1 X139.818 Y133.866 E1.53079
G1 X139.336 Y133.647 E1.5572
G1 X138.89 Y133.532 E1.58018
G1 X138.339 Y133.49 E1.60775
G1 X137.789 Y133.557 E1.6354
G1 X137.348 Y133.693 E1.65842
G1 X136.873 Y133.937 E1.68506
G1 X136.504 Y134.214 E1.70808
G1 X136.142 Y134.607 E1.73474
G1 X135.891 Y134.992 E1.75767
G1 X135.678 Y135.5 E1.78515
G1 X135.564 Y136.052 E1.81327
G1 X135.562 Y136.621 E1.84166
G1 X135.671 Y137.168 E1.86948
G1 X135.84 Y137.597 E1.89249
G1 X136.118 Y138.052 E1.91909
G1 X136.421 Y138.398 E1.94203
G1 X136.853 Y138.741 E1.96955
G1 X136.887 Y138.758 E1.97145
G1 X137.343 Y138.995 E1.99709
G1 X137.786 Y139.132 E2.02022
G1 X138.158 Y139.177 E2.03892
G1 X138.234 Y139.187 E2.04274
G1 X138.141 Y139.317 E2.04644
G1 X138.122 Y139.347
G1 X137.801 Y139.845 E2.076
G1 X137.501 Y140.362 E2.10582
G1 X137.215 Y140.923 E2.13724
G1 X136.97 Y141.467 E2.16701
G1 X136.746 Y142.04 E2.1977
G1 X136.548 Y142.635 E2.22898
G1 X136.384 Y143.209 E2.25877
G1 X136.249 Y143.807 E2.28935
G1 X136.141 Y144.41 E2.31992
G1 X136.066 Y145.019 E2.35053
G1 X136.018 Y145.649 E2.38205
G1 X136.005 Y146.26 E2.41254
G1 X136.018 Y146.858 E2.44238
G1 X136.066 Y147.47 E2.47301
G1 X136.144 Y148.095 E2.50443
G1 X136.252 Y148.698 E2.53499
G1 X136.384 Y149.281 E2.56482
G1 X136.557 Y149.886 E2.59621
G1 X136.746 Y150.451 E2.62593
G1 X136.97 Y151.023 E2.65658
G1 X137.23 Y151.597 E2.68802
G1 X137.502 Y152.128 E2.71778
G1 X137.809 Y152.658 E2.74834
G1 X138.032 Y153.004 E2.76888
G1 X138.142 Y153.174 E2.77898
G1 X138.213 Y153.273 E2.78506
G1 X138.232 Y153.299 E2.78666
G1 X138.178 Y153.299
G1 X138.165 Y153.301
G1 X137.965 Y153.336 E2.79394
G1 X137.651 Y153.391 E2.80984
G1 X137.214 Y153.549 E2.83303
G1 X136.755 Y153.816 E2.85952
G1 X136.401 Y154.111 E2.88251
G1 X136.046 Y154.537 E2.91017
G1 X135.775 Y155.034 E2.93842
G1 X135.606 Y155.577 E2.96679
G1 X135.55 Y156.14 E2.99501
G1 X135.605 Y156.703 E3.02324
G1 X135.771 Y157.25 E3.05176
G1 X136.036 Y157.736 E3.07937
G1 X136.322 Y158.095 E3.10227
G1 X136.738 Y158.462 E3.12995
G1 X137.213 Y158.738 E3.15736
G1 X137.648 Y158.896 E3.18045
G1 X138.186 Y158.99 E3.20769
G1 X138.737 Y158.98 E3.23519
G1 X139.194 Y158.888 E3.25844
G1 X139.703 Y158.688 E3.28573
G1 X140.169 Y158.39 E3.31332
G1 X140.509 Y158.074 E3.33648
G1 X140.839 Y157.637 E3.3638
G1 X141.068 Y157.162 E3.39011
G1 X141.086 Y157.126 E3.39212
G1 X141.095 Y157.088 E3.39407
G1 X141.224 Y156.591 E3.41968
G1 X141.246 Y156.315 E3.4335
G1 X141.359 Y156.391 E3.43396
G1 X141.648 Y156.587 E3.45138
G1 X142.155 Y156.895 E3.48098
G1 X142.693 Y157.19 E3.51159
G1 X143.246 Y157.456 E3.54221
G1 X143.809 Y157.693 E3.57268
G1 X144.385 Y157.904 E3.60329
G1 X144.974 Y158.086 E3.63404
G1 X145.571 Y158.236 E3.66475
G1 X146.183 Y158.36 E3.69591
G1 X146.776 Y158.45 E3.72583
G1 X147.385 Y158.509 E3.75635
G1 X147.998 Y158.541 E3.78698
G1 X148.611 Y158.541 E3.81756
G1 X149.224 Y158.509 E3.84819
G1 X149.833 Y158.45 E3.87871
G1 X150.442 Y158.358 E3.90944
G1 X151.041 Y158.236 E3.93994
G1 X151.635 Y158.086 E3.9705
G1 X152.224 Y157.904 E4.00126
G1 X152.8 Y157.693 E4.03186
G1 X153.364 Y157.456 E4.06238
G1 X153.93 Y157.182 E4.09376
G1 X154.455 Y156.897 E4.12356
G1 X154.979 Y156.577 E4.15419
G1 X155.179 Y156.441 E4.16626
G1 X155.21 Y156.42 E4.16813
G1 X155.366 Y156.313 E4.17756
G1 X155.404 Y156.703 E4.18984
G1 X155.415 Y156.739 E4.19161
G1 X155.57 Y157.25 E4.21826
G1 X155.835 Y157.736 E4.24587
G1 X156.121 Y158.095 E4.26877
G1 X156.537 Y158.462 E4.29645
G1 X157.012 Y158.738 E4.32386
G1 X157.447 Y158.896 E4.34695
G1 X157.985 Y158.99 E4.37419
G1 X158.536 Y158.98 E4.40169
G1 X158.993 Y158.888 E4.42494
G1 X159.502 Y158.688 E4.45223
G1 X159.968 Y158.39 E4.47982
G1 X160.308 Y158.074 E4.50298
G1 X160.638 Y157.637 E4.5303
G1 X160.867 Y157.162 E4.55661
G1 X160.885 Y157.126 E4.55862
G1 X160.894 Y157.088 E4.56057
G1 X161.023 Y156.591 E4.58618
G1 X161.06 Y156.13 E4.60926
G1 X161.003 Y155.577 E4.63699
G1 X160.838 Y155.038 E4.66511
G1 X160.565 Y154.538 E4.69354
G1 X160.212 Y154.118 E4.72091
G1 X159.863 Y153.82 E4.7438
G1 X159.396 Y153.55 E4.77072
G1 X158.963 Y153.392 E4.79371
G1 X158.645 Y153.336 E4.80982
G1 X158.446 Y153.302 E4.81989
G1 X158.436 Y153.3 E4.8204
G1 X158.377 Y153.3 E4.82335
G1 X158.397 Y153.273
G1 X158.468 Y153.173 E4.82699
G1 X158.577 Y153.004 E4.83419
G1 X158.8 Y152.658 E4.85473
G1 X159.101 Y152.136 E4.88479
G1 X159.107 Y152.127 E4.88533
G1 X159.387 Y151.581 E4.91594
G1 X159.639 Y151.022 E4.94653
G1 X159.868 Y150.433 E4.97806
G1 X160.057 Y149.87 E5.00769
G1 X160.225 Y149.279 E5.03834
G1 X160.36 Y148.684 E5.06878
G1 X160.469 Y148.079 E5.09945
G1 X160.543 Y147.468 E5.13016
G1 X160.591 Y146.842 E5.16148
G1 X160.605 Y146.244 E5.19132
G1 X160.591 Y145.631 E5.22192
G1 X160.543 Y145.019 E5.25254
G1 X160.469 Y144.41 E5.28315
G1 X160.357 Y143.789 E5.31463
G1 X160.225 Y143.208 E5.34435
G1 X160.057 Y142.619 E5.37491
G1 X159.863 Y142.038 E5.40547
G1 X159.639 Y141.467 E5.43607
G1 X159.387 Y140.908 E5.46666
G1 X159.107 Y140.362 E5.49728
G1 X158.791 Y139.816 E5.52875
G1 X158.513 Y139.386 E5.5543
G1 X158.467 Y139.315 E5.55797
G1 X158.371 Y139.182 E5.56135
M204 S500
G0 F3600 X158.136 Y139.54
M204 S100
G1 F1500 X157.854 Y139.147 E5.58549
G1 X157.79 Y139.058 E5.59095
G1 X157.588 Y138.805 E5.60711
G1 X157.491 Y138.684 E5.61484
G1 X157.669 Y138.739 E5.61705
G1 X157.826 Y138.758 E5.61942
G1 X157.935 Y138.771 E5.62429
G1 X158.139 Y138.797 E5.63455
G1 X158.624 Y138.763 E5.65881
G1 X159.088 Y138.635 E5.68282
G1 X159.441 Y138.463 E5.70241
G1 X159.825 Y138.188 E5.72597
G1 X160.15 Y137.838 E5.7498
G1 X160.362 Y137.51 E5.76929
G1 X160.549 Y137.068 E5.79323
G1 X160.641 Y136.613 E5.81639
G1 X160.657 Y136.328 E5.83063
G1 X160.61 Y135.873 E5.85345
G1 X160.506 Y135.496 E5.87296
G1 X160.305 Y135.079 E5.89606
G1 X160.076 Y134.76 E5.91565
G1 X159.744 Y134.436 E5.93879
G1 X159.421 Y134.216 E5.95829
G1 X159.001 Y134.026 E5.98129
G1 X158.623 Y133.928 E6.00077
G1 X158.147 Y133.892 E6.02459
G1 X157.672 Y133.95 E6.04846
G1 X157.298 Y134.065 E6.06798
G1 X156.885 Y134.277 E6.09114
G1 X156.572 Y134.512 E6.11067
G1 X156.258 Y134.853 E6.1338
G1 X156.045 Y135.18 E6.15327
G1 X155.861 Y135.619 E6.17701
G1 X155.763 Y136.094 E6.20121
G1 X155.761 Y136.491 E6.22102
G1 X155.761 Y136.582 E6.22556
G1 X155.825 Y136.908 E6.24213
G1 X155.854 Y137.051 E6.24941
G1 X155.711 Y136.931 E6.25201
G1 X155.575 Y136.828 E6.25497
G1 X155.503 Y136.773 E6.25903
G1 X155.252 Y136.583 E6.27473
G1 X154.762 Y136.248 E6.30434
G1 X154.255 Y135.939 E6.33397
G1 X153.732 Y135.655 E6.36366
G1 X153.199 Y135.398 E6.39318
G1 X152.653 Y135.168 E6.42274
G1 X152.096 Y134.964 E6.45233
G1 X151.527 Y134.788 E6.48205
G1 X150.951 Y134.643 E6.51168
G1 X150.356 Y134.523 E6.54196
G1 X149.784 Y134.436 E6.57083
G1 X149.194 Y134.379 E6.6004
G1 X148.601 Y134.348 E6.63002
G1 X148.008 Y134.348 E6.65961
G1 X147.415 Y134.379 E6.68923
G1 X146.825 Y134.436 E6.71881
G1 X146.237 Y134.525 E6.74848
G1 X145.658 Y134.643 E6.77796
G1 X145.082 Y134.788 E6.80759
G1 X144.498 Y134.969 E6.83809
G1 X143.956 Y135.168 E6.8669
G1 X143.41 Y135.398 E6.89646
G1 X142.876 Y135.655 E6.92602
G1 X142.355 Y135.939 E6.95563
G1 X141.849 Y136.248 E6.98521
G1 X141.357 Y136.583 E7.0149
G1 X141.113 Y136.768 E7.03018
G1 X141.016 Y136.841 E7.03624
G1 X140.884 Y136.941 E7.0445
G1 X140.753 Y137.051 E7.05303
G1 X140.779 Y136.92 E7.05347
G1 X140.842 Y136.613 E7.06339
G1 X140.848 Y136.491 E7.0687
G1 X140.858 Y136.328 E7.07685
G1 X140.811 Y135.873 E7.09967
G1 X140.707 Y135.496 E7.11918
G1 X140.506 Y135.079 E7.14228
G1 X140.277 Y134.76 E7.16187
G1 X139.945 Y134.436 E7.18501
G1 X139.622 Y134.216 E7.20451
G1 X139.202 Y134.026 E7.22751
G1 X138.824 Y133.928 E7.24699
G1 X138.348 Y133.892 E7.27081
G1 X137.873 Y133.95 E7.29468
G1 X137.499 Y134.065 E7.3142
G1 X137.086 Y134.277 E7.33736
G1 X136.773 Y134.512 E7.35689
G1 X136.459 Y134.853 E7.38002
G1 X136.246 Y135.18 E7.39949
G1 X136.062 Y135.619 E7.42323
G1 X135.964 Y136.094 E7.44743
G1 X135.962 Y136.582 E7.47178
G1 X136.056 Y137.055 E7.49584
G1 X136.199 Y137.418 E7.5153
G1 X136.441 Y137.814 E7.53845
G1 X136.698 Y138.107 E7.5579
G1 X137.071 Y138.404 E7.58169
G1 X137.495 Y138.623 E7.60549
G1 X137.87 Y138.739 E7.62508
G1 X138.34 Y138.797 E7.6487
G1 X138.689 Y138.772 E7.66616
G1 X138.786 Y138.766 E7.67101
G1 X138.825 Y138.763 E7.67296
G1 X139.12 Y138.682 E7.68822
G1 X138.966 Y138.875 E7.69034
G1 X138.808 Y139.072 E7.7002
G1 X138.751 Y139.151 E7.70455
G1 X138.472 Y139.542 E7.72852
G1 X138.142 Y140.054 E7.75891
G1 X137.852 Y140.553 E7.7877
G1 X137.576 Y141.096 E7.81809
G1 X137.339 Y141.622 E7.84687
G1 X137.122 Y142.176 E7.87656
G1 X136.93 Y142.753 E7.9069
G1 X136.772 Y143.308 E7.93569
G1 X136.641 Y143.886 E7.96525
G1 X136.537 Y144.47 E7.99485
G1 X136.464 Y145.059 E8.02446
G1 X136.418 Y145.668 E8.05493
G1 X136.405 Y146.26 E8.08447
G1 X136.418 Y146.838 E8.11331
G1 X136.464 Y147.43 E8.14294
G1 X136.54 Y148.035 E8.17336
G1 X136.644 Y148.619 E8.20295
G1 X136.772 Y149.182 E8.23176
G1 X136.939 Y149.768 E8.26216
G1 X137.122 Y150.314 E8.29089
G1 X137.339 Y150.868 E8.32057
G1 X137.59 Y151.423 E8.35096
G1 X137.853 Y151.936 E8.37972
G1 X138.15 Y152.449 E8.40929
G1 X138.473 Y152.949 E8.43899
G1 X138.797 Y153.4 E8.4667
G1 X138.829 Y153.444 E8.46941
G1 X138.865 Y153.489 E8.47229
G1 X139.083 Y153.761 E8.48968
G1 X139.113 Y153.799 E8.49209
G1 X139.06 Y153.78
G1 X138.779 Y153.731 E8.49681
G1 X138.602 Y153.7 E8.50334
G1 X138.547 Y153.7 E8.50608
G1 X138.212 Y153.699 E8.52279
G1 X137.754 Y153.779 E8.54599
G1 X137.384 Y153.913 E8.56562
G1 X136.985 Y154.145 E8.58865
G1 X136.685 Y154.395 E8.60813
G1 X136.378 Y154.763 E8.63204
G1 X136.145 Y155.191 E8.65635
G1 X136 Y155.657 E8.6807
G1 X135.952 Y156.14 E8.70492
G1 X135.999 Y156.625 E8.72923
G1 X136.142 Y157.094 E8.75369
G1 X136.371 Y157.514 E8.77756
G1 X136.613 Y157.818 E8.79694
G1 X136.973 Y158.136 E8.82091
G1 X137.383 Y158.374 E8.84456
G1 X137.751 Y158.508 E8.8641
G1 X138.217 Y158.589 E8.88769
G1 X138.694 Y158.581 E8.91149
G1 X139.08 Y158.503 E8.93114
G1 X139.52 Y158.33 E8.95473
G1 X139.923 Y158.072 E8.9786
G1 X140.211 Y157.805 E8.99819
G1 X140.496 Y157.427 E9.02181
G1 X140.709 Y156.988 E9.04616
G1 X140.828 Y156.525 E9.07001
G1 X140.859 Y156.135 E9.08953
G1 X140.841 Y155.963 E9.09815
G1 X140.81 Y155.657 E9.1135
G1 X140.786 Y155.578 E9.11762
G1 X140.739 Y155.425 E9.1256
G1 X140.884 Y155.547 E9.12775
G1 X141.129 Y155.733 E9.13838
G1 X141.358 Y155.908 E9.15276
G1 X141.864 Y156.25 E9.18323
G1 X142.355 Y156.549 E9.21191
G1 X142.876 Y156.834 E9.24154
G1 X143.41 Y157.091 E9.2711
G1 X143.956 Y157.321 E9.30066
G1 X144.513 Y157.525 E9.33025
G1 X145.082 Y157.701 E9.35997
G1 X145.659 Y157.846 E9.38965
G1 X146.253 Y157.966 E9.41988
G1 X146.825 Y158.053 E9.44875
G1 X147.415 Y158.11 E9.47832
G1 X148.008 Y158.141 E9.50795
G1 X148.601 Y158.141 E9.53753
G1 X149.194 Y158.11 E9.56716
G1 X149.784 Y158.053 E9.59673
G1 X150.372 Y157.964 E9.6264
G1 X150.952 Y157.846 E9.65593
G1 X151.527 Y157.701 E9.68551
G1 X152.096 Y157.525 E9.71523
G1 X152.653 Y157.321 E9.74482
G1 X153.199 Y157.091 E9.77438
G1 X153.747 Y156.826 E9.80475
G1 X154.255 Y156.55 E9.83359
G1 X154.762 Y156.241 E9.86321
G1 X155.252 Y155.906 E9.89283
G1 X155.481 Y155.732 E9.90718
G1 X155.725 Y155.548 E9.92242
G1 X155.871 Y155.425 E9.93195
G1 X155.824 Y155.578 E9.93263
G1 X155.799 Y155.657 E9.9353
G1 X155.769 Y155.961 E9.94585
G1 X155.751 Y156.14 E9.95483
G1 X155.798 Y156.625 E9.97914
G1 X155.941 Y157.094 E10.0036
G1 X156.17 Y157.514 E10.02747
G1 X156.412 Y157.818 E10.04685
G1 X156.772 Y158.136 E10.07082
G1 X157.182 Y158.374 E10.09447
G1 X157.55 Y158.508 E10.11401
G1 X158.016 Y158.589 E10.1376
G1 X158.493 Y158.581 E10.1614
G1 X158.879 Y158.503 E10.18105
G1 X159.319 Y158.33 E10.20464
G1 X159.722 Y158.072 E10.22851
G1 X160.01 Y157.805 E10.2481
G1 X160.295 Y157.427 E10.27172
G1 X160.508 Y156.988 E10.29607
G1 X160.627 Y156.525 E10.31992
G1 X160.658 Y156.135 E10.33943
G1 X160.609 Y155.657 E10.36341
G1 X160.467 Y155.194 E10.38757
G1 X160.233 Y154.765 E10.41195
G1 X159.927 Y154.401 E10.43567
G1 X159.631 Y154.148 E10.4551
G1 X159.226 Y153.914 E10.47843
G1 X158.859 Y153.78 E10.49793
G1 X158.401 Y153.7 E10.52112
G1 X158.061 Y153.699 E10.53809
G1 X158.011 Y153.699 E10.54058
G1 X157.842 Y153.728 E10.54913
G1 X157.553 Y153.779 E10.56378
G1 X157.495 Y153.8 E10.56685
G1 X157.527 Y153.759
G1 X157.745 Y153.487 E10.5747
G1 X157.79 Y153.431 E10.57665
G1 X157.819 Y153.391 E10.57911
G1 X158.137 Y152.948 E10.60632
G1 X158.459 Y152.449 E10.63595
G1 X158.756 Y151.936 E10.66552
G1 X159.026 Y151.408 E10.69511
G1 X159.27 Y150.867 E10.72472
G1 X159.492 Y150.297 E10.75523
G1 X159.675 Y149.752 E10.78392
G1 X159.837 Y149.18 E10.81358
G1 X159.968 Y148.604 E10.84305
G1 X160.073 Y148.019 E10.8727
G1 X160.145 Y147.429 E10.90235
G1 X160.191 Y146.822 E10.93272
G1 X160.205 Y146.244 E10.96157
G1 X160.191 Y145.651 E10.99116
G1 X160.145 Y145.059 E11.02079
G1 X160.073 Y144.47 E11.05039
G1 X159.965 Y143.869 E11.08085
G1 X159.837 Y143.307 E11.10961
G1 X159.675 Y142.737 E11.13917
G1 X159.487 Y142.175 E11.16874
G1 X159.27 Y141.622 E11.19838
G1 X159.026 Y141.081 E11.22799
G1 X158.756 Y140.553 E11.25757
G1 X158.45 Y140.025 E11.28802
G1 X158.136 Y139.54 E11.31684
